kendriklim/UROP-VLM-Robotics/ur5_simulation/Imports/SampleTrajectory_Test2.csv
Timestamp,base_PosX,base_PosY,base_PosZ,base_RotX,base_RotY,base_RotZ,base_RotW,base_jointAngle,shoulder_PosX,shoulder_PosY,shoulder_PosZ,shoulder_RotX,shoulder_RotY,shoulder_RotZ,shoulder_RotW,shoulder_jointAngle,elbow_PosX,elbow_PosY,elbow_PosZ,elbow_RotX,elbow_RotY,elbow_RotZ,elbow_RotW,elbow_jointAngle,wrist1_PosX,wrist1_PosY,wrist1_PosZ,wrist1_RotX,wrist1_RotY,wrist1_RotZ,wrist1_RotW,wrist1_jointAngle,wrist2_PosX,wrist2_PosY,wrist2_PosZ,wrist2_RotX,wrist2_RotY,wrist2_RotZ,wrist2_RotW,wrist2_jointAngle,wrist3_PosX,wrist3_PosY,wrist3_PosZ,wrist3_RotX,wrist3_RotY,wrist3_RotZ,wrist3_RotW,wrist3_jointAngle,ee_PosX,ee_PosY,ee_PosZ,ee_RotX,ee_RotY,ee_RotZ,ee_RotW,ee_jointAngle,block_PosX,block_PosY,block_PosZ,block_RotX,block_RotY,block_RotZ,block_RotW,block_jointAngle,platform_PosX,platform_PosY,platform_PosZ,platform_RotX,platform_RotY,platform_RotZ,platform_RotW,platform_jointAngle
0,0,0.719,0,0,-1,0,0,-0.023,0.136,0.719,0,0,-0.926,0.377,0,-45.656,0.016,1.023,-0.297,0,-0.632,0.775,0,57.303,0.016,0.944,-0.681,0,-0.604,0.797,0,-85.944,0.109,0.944,-0.681,-0.563,-0.427,0.564,0.427,-89.954,0.109,0.918,-0.772,-0.563,-0.427,0.564,0.427,0,0.109,0.839,-0.75,-0.7,0.096,0.701,-0.097,0,0.5,0.644,-0.5,0,0,0,1,0,-0.5,0.64,-0.5,0,0,0,1,0
0.743,0,0.719,0,0,-1,0,0,-0.023,0.136,0.719,0,0,-0.926,0.377,0,-45.656,0.016,1.023,-0.297,0,-0.632,0.775,0,57.303,0.016,0.944,-0.681,0,-0.604,0.797,0,-85.944,0.109,0.944,-0.681,-0.563,-0.427,0.564,0.427,-89.954,0.109,0.918,-0.772,-0.563,-0.427,0.564,0.427,0,0.109,0.839,-0.75,-0.7,0.096,0.701,-0.097,0,0.5,0.644,-0.5,0,0,0,1,0,-0.5,0.64,-0.5,0,0,0,1,0
0.843,0,0.719,0,0,-1,0,0,-0.023,0.136,0.719,0,0,-0.926,0.377,0,-45.656,0.016,1.023,-0.297,0,-0.632,0.775,0,57.303,0.016,0.944,-0.681,0,-0.604,0.797,0,-85.944,0.109,0.944,-0.681,-0.563,-0.427,0.564,0.427,-89.954,0.109,0.918,-0.772,-0.563,-0.427,0.564,0.427,0,0.109,0.839,-0.75,-0.7,0.096,0.701,-0.097,0,0.5,0.644,-0.5,0,0,0,1,0,-0.5,0.64,-0.5,0,0,0,1,0
0.944,0,0.719,0,0,-1,0,0,-0.023,0.136,0.719,0,0,-0.926,0.377,0,-45.656,0.016,1.023,-0.297,0,-0.632,0.775,0,57.303,0.016,0.944,-0.681,0,-0.604,0.797,0,-85.944,0.109,0.944,-0.681,-0.563,-0.427,0.564,0.427,-89.954,0.109,0.918,-0.772,-0.563,-0.427,0.564,0.427,0,0.109,0.839,-0.75,-0.7,0.096,0.701,-0.097,0,0.5,0.644,-0.5,0,0,0,1,0,-0.5,0.64,-0.5,0,0,0,1,0
1.045,0,0.719,0,0,-1,0,0,-0.023,0.136,0.719,0,0,-0.926,0.377,0,-45.656,0.016,1.023,-0.297,0,-0.632,0.775,0,57.303,0.016,0.944,-0.681,0,-0.604,0.797,0,-85.944,0.109,0.944,-0.681,-0.563,-0.427,0.564,0.427,-89.954,0.109,0.918,-0.772,-0.563,-0.427,0.564,0.427,0,0.109,0.839,-0.75,-0.7,0.096,0.701,-0.097,0,0.5,0.644,-0.5,0,0,0,1,0,-0.5,0.64,-0.5,0,0,0,1,0
1.147,0,0.719,0,0,-1,0,0,-0.023,0.136,0.719,0,0,-0.926,0.377,0,-45.656,0.016,1.023,-0.297,0,-0.632,0.775,0,57.303,0.016,0.944,-0.681,0,-0.604,0.797,0,-85.944,0.109,0.944,-0.681,-0.563,-0.427,0.564,0.427,-89.954,0.109,0.918,-0.772,-0.563,-0.427,0.564,0.427,0,0.109,0.839,-0.75,-0.7,0.096,0.701,-0.097,0,0.5,0.644,-0.5,0,0,0,1,0,-0.5,0.64,-0.5,0,0,0,1,0
1.251,0,0.719,0,0,-1,0,0,-0.023,0.136,0.719,0,0,-0.926,0.377,0,-45.656,0.016,1.023,-0.297,0,-0.632,0.775,0,57.303,0.016,0.944,-0.681,0,-0.604,0.797,0,-85.944,0.109,0.944,-0.681,-0.563,-0.427,0.564,0.427,-89.954,0.109,0.918,-0.772,-0.563,-0.427,0.564,0.427,0,0.109,0.839,-0.75,-0.7,0.096,0.701,-0.097,0,0.5,0.644,-0.5,0,0,0,1,0,-0.5,0.64,-0.5,0,0,0,1,0
1.351,0,0.719,0,0,-1,0,0,-0.023,0.136,0.719,0,0,-0.926,0.377,0,-45.656,0.016,1.023,-0.297,0,-0.632,0.775,0,57.303,0.016,0.944,-0.681,0,-0.604,0.797,0,-85.944,0.109,0.944,-0.681,-0.563,-0.427,0.564,0.427,-89.954,0.109,0.918,-0.772,-0.563,-0.427,0.564,0.427,0,0.109,0.839,-0.75,-0.7,0.096,0.701,-0.097,0,0.5,0.644,-0.5,0,0,0,1,0,-0.5,0.64,-0.5,0,0,0,1,0
1.456,0,0.719,0,0,-1,0,0,-0.023,0.136,0.719,0,0,-0.926,0.377,0,-45.656,0.016,1.023,-0.297,0,-0.632,0.775,0,57.303,0.016,0.944,-0.681,0,-0.604,0.797,0,-85.944,0.109,0.944,-0.681,-0.563,-0.427,0.564,0.427,-89.954,0.109,0.918,-0.772,-0.563,-0.427,0.564,0.427,0,0.109,0.839,-0.75,-0.7,0.096,0.701,-0.097,0,0.5,0.644,-0.5,0,0,0,1,0,-0.5,0.64,-0.5,0,0,0,1,0
1.56,0,0.719,0,0,-1,0,0,-0.023,0.136,0.719,0,0,-0.926,0.377,0,-45.656,0.016,1.023,-0.297,0,-0.632,0.775,0,57.303,0.016,0.944,-0.681,0,-0.604,0.797,0,-85.944,0.109,0.944,-0.681,-0.563,-0.427,0.564,0.427,-89.954,0.109,0.918,-0.772,-0.563,-0.427,0.564,0.427,0,0.109,0.839,-0.75,-0.7,0.096,0.701,-0.097,0,0.5,0.644,-0.5,0,0,0,1,0,-0.5,0.64,-0.5,0,0,0,1,0
1.662,0,0.719,0,0,-1,0,0,-0.023,0.136,0.719,0,0,-0.926,0.377,0,-45.656,0.016,1.023,-0.297,0,-0.632,0.775,0,57.303,0.016,0.944,-0.681,0,-0.604,0.797,0,-85.944,0.109,0.944,-0.681,-0.563,-0.427,0.564,0.427,-89.954,0.109,0.918,-0.772,-0.563,-0.427,0.564,0.427,0,0.109,0.839,-0.75,-0.7,0.096,0.701,-0.097,0,0.5,0.644,-0.5,0,0,0,1,0,-0.5,0.64,-0.5,0,0,0,1,0
1.764,0,0.719,0,0,-1,0,0,-0.023,0.136,0.719,0,0,-0.926,0.377,0,-45.656,0.016,1.023,-0.297,0,-0.632,0.775,0,57.303,0.016,0.944,-0.681,0,-0.604,0.797,0,-85.944,0.109,0.944,-0.681,-0.563,-0.427,0.564,0.427,-89.954,0.109,0.918,-0.772,-0.563,-0.427,0.564,0.427,0,0.109,0.839,-0.75,-0.7,0.096,0.701,-0.097,0,0.5,0.644,-0.5,0,0,0,1,0,-0.5,0.64,-0.5,0,0,0,1,0
1.868,0,0.719,0,0,-1,0,0,-0.023,0.136,0.719,0,0,-0.926,0.377,0,-45.656,0.016,1.023,-0.297,0,-0.632,0.775,0,57.303,0.016,0.944,-0.681,0,-0.604,0.797,0,-85.944,0.109,0.944,-0.681,-0.563,-0.427,0.564,0.427,-89.954,0.109,0.918,-0.772,-0.563,-0.427,0.564,0.427,0,0.109,0.839,-0.75,-0.7,0.096,0.701,-0.097,0,0.5,0.644,-0.5,0,0,0,1,0,-0.5,0.64,-0.5,0,0,0,1,0
1.971,0,0.719,0,0,-1,0,0,-0.023,0.136,0.719,0,0,-0.926,0.377,0,-45.656,0.016,1.023,-0.297,0,-0.632,0.775,0,57.303,0.016,0.944,-0.681,0,-0.604,0.797,0,-85.944,0.109,0.944,-0.681,-0.563,-0.427,0.564,0.427,-89.954,0.109,0.918,-0.772,-0.563,-0.427,0.564,0.427,0,0.109,0.839,-0.75,-0.7,0.096,0.701,-0.097,0,0.5,0.644,-0.5,0,0,0,1,0,-0.5,0.64,-0.5,0,0,0,1,0
2.075,0,0.719,0,0,-1,0,0,-0.023,0.136,0.719,0,0,-0.926,0.377,0,-45.656,0.016,1.023,-0.297,0,-0.632,0.775,0,57.303,0.016,0.944,-0.681,0,-0.604,0.797,0,-85.944,0.109,0.944,-0.681,-0.563,-0.427,0.564,0.427,-89.954,0.109,0.918,-0.772,-0.563,-0.427,0.564,0.427,0,0.109,0.839,-0.75,-0.7,0.096,0.701,-0.097,0,0.5,0.644,-0.5,0,0,0,1,0,-0.5,0.64,-0.5,0,0,0,1,0
2.177,0,0.719,0,0,-1,0,0,-0.023,0.136,0.719,0,0,-0.926,0.377,0,-45.656,0.016,1.023,-0.297,0,-0.632,0.775,0,57.303,0.016,0.944,-0.681,0,-0.604,0.797,0,-85.944,0.109,0.944,-0.681,-0.563,-0.427,0.564,0.427,-89.954,0.109,0.918,-0.772,-0.563,-0.427,0.564,0.427,0,0.109,0.839,-0.75,-0.7,0.096,0.701,-0.097,0,0.5,0.644,-0.5,0,0,0,1,0,-0.5,0.64,-0.5,0,0,0,1,0
2.279,0,0.719,0,0,-1,0,0,-0.023,0.136,0.719,0,0,-0.926,0.377,0,-45.656,0.016,1.023,-0.297,0,-0.632,0.775,0,57.303,0.016,0.944,-0.681,0,-0.604,0.797,0,-85.944,0.109,0.944,-0.681,-0.563,-0.427,0.564,0.427,-89.954,0.109,0.918,-0.772,-0.563,-0.427,0.564,0.427,0,0.109,0.839,-0.75,-0.7,0.096,0.701,-0.097,0,0.5,0.644,-0.5,0,0,0,1,0,-0.5,0.64,-0.5,0,0,0,1,0
2.38,0,0.719,0,0,-1,0,0,-0.023,0.136,0.719,0,0,-0.926,0.377,0,-45.656,0.016,1.023,-0.297,0,-0.632,0.775,0,57.303,0.016,0.944,-0.681,0,-0.604,0.797,0,-85.944,0.109,0.944,-0.681,-0.563,-0.427,0.564,0.427,-89.954,0.109,0.918,-0.772,-0.563,-0.427,0.564,0.427,0,0.109,0.839,-0.75,-0.7,0.096,0.701,-0.097,0,0.5,0.644,-0.5,0,0,0,1,0,-0.5,0.64,-0.5,0,0,0,1,0
2.484,0,0.719,0,0,-1,0,0,-0.023,0.136,0.719,0,0,-0.926,0.377,0,-45.656,0.016,1.023,-0.297,0,-0.632,0.775,0,57.303,0.016,0.944,-0.681,0,-0.604,0.797,0,-85.944,0.109,0.944,-0.681,-0.563,-0.427,0.564,0.427,-89.954,0.109,0.918,-0.772,-0.563,-0.427,0.564,0.427,0,0.109,0.839,-0.75,-0.7,0.096,0.701,-0.097,0,0.5,0.644,-0.5,0,0,0,1,0,-0.5,0.64,-0.5,0,0,0,1,0
2.586,0,0.719,0,0,-1,0,0,-0.023,0.136,0.719,0,0,-0.926,0.377,0,-45.656,0.016,1.023,-0.297,0,-0.632,0.775,0,57.303,0.016,0.944,-0.681,0,-0.604,0.797,0,-85.944,0.109,0.944,-0.681,-0.563,-0.427,0.564,0.427,-89.954,0.109,0.918,-0.772,-0.563,-0.427,0.564,0.427,0,0.109,0.839,-0.75,-0.7,0.096,0.701,-0.097,0,0.5,0.644,-0.5,0,0,0,1,0,-0.5,0.64,-0.5,0,0,0,1,0
2.687,0,0.719,0,0,-1,0,0,-0.023,0.136,0.719,0,0,-0.926,0.377,0,-45.656,0.016,1.023,-0.297,0,-0.632,0.775,0,57.303,0.016,0.944,-0.681,0,-0.604,0.797,0,-85.944,0.109,0.944,-0.681,-0.563,-0.427,0.564,0.427,-89.954,0.109,0.918,-0.772,-0.563,-0.427,0.564,0.427,0,0.109,0.839,-0.75,-0.7,0.096,0.701,-0.097,0,0.5,0.644,-0.5,0,0,0,1,0,-0.5,0.64,-0.5,0,0,0,1,0
2.789,0,0.719,0,0,-1,0,0,-0.023,0.136,0.719,0,0,-0.926,0.377,0,-45.656,0.016,1.023,-0.297,0,-0.632,0.775,0,57.303,0.016,0.944,-0.681,0,-0.604,0.797,0,-85.944,0.109,0.944,-0.681,-0.563,-0.427,0.564,0.427,-89.954,0.109,0.918,-0.772,-0.563,-0.427,0.564,0.427,0,0.109,0.839,-0.75,-0.7,0.096,0.701,-0.097,0,0.5,0.644,-0.5,0,0,0,1,0,-0.5,0.64,-0.5,0,0,0,1,0
2.891,0,0.719,0,0,-1,0,0,-0.023,0.136,0.719,0,0,-0.926,0.377,0,-45.656,0.016,1.023,-0.297,0,-0.632,0.775,0,57.303,0.016,0.944,-0.681,0,-0.604,0.797,0,-85.944,0.109,0.944,-0.681,-0.563,-0.427,0.564,0.427,-89.954,0.109,0.918,-0.772,-0.563,-0.427,0.564,0.427,0,0.109,0.839,-0.75,-0.7,0.096,0.701,-0.097,0,0.5,0.644,-0.5,0,0,0,1,0,-0.5,0.64,-0.5,0,0,0,1,0
2.993,0,0.719,0,0,-1,0,0,-0.023,0.136,0.719,0,0,-0.926,0.377,0,-45.656,0.016,1.023,-0.297,0,-0.632,0.775,0,57.303,0.016,0.944,-0.681,0,-0.604,0.797,0,-85.944,0.109,0.944,-0.681,-0.563,-0.427,0.564,0.427,-89.954,0.109,0.918,-0.772,-0.563,-0.427,0.564,0.427,0,0.109,0.839,-0.75,-0.7,0.096,0.701,-0.097,0,0.5,0.644,-0.5,0,0,0,1,0,-0.5,0.64,-0.5,0,0,0,1,0
3.096,0,0.719,0,0,-1,0,0,-0.023,0.136,0.719,0,0,-0.926,0.377,0,-45.656,0.016,1.023,-0.297,0,-0.632,0.775,0,57.303,0.016,0.944,-0.681,0,-0.604,0.797,0,-85.944,0.109,0.944,-0.681,-0.563,-0.427,0.564,0.427,-89.954,0.109,0.918,-0.772,-0.563,-0.427,0.564,0.427,0,0.109,0.839,-0.75,-0.7,0.096,0.701,-0.097,0,0.5,0.644,-0.5,0,0,0,1,0,-0.5,0.64,-0.5,0,0,0,1,0
3.196,0,0.719,0,0,-1,0,0,-0.023,0.136,0.719,0,0,-0.926,0.377,0,-45.656,0.016,1.023,-0.297,0,-0.632,0.775,0,57.303,0.016,0.944,-0.681,0,-0.604,0.797,0,-85.944,0.109,0.944,-0.681,-0.563,-0.427,0.564,0.427,-89.954,0.109,0.918,-0.772,-0.563,-0.427,0.564,0.427,0,0.109,0.839,-0.75,-0.7,0.096,0.701,-0.097,0,0.5,0.644,-0.5,0,0,0,1,0,-0.5,0.64,-0.5,0,0,0,1,0
3.299,0,0.719,0,0,-1,0,0,-0.023,0.136,0.719,0,0,-0.926,0.377,0,-45.656,0.016,1.023,-0.297,0,-0.632,0.775,0,57.303,0.016,0.944,-0.681,0,-0.604,0.797,0,-85.944,0.109,0.944,-0.681,-0.563,-0.427,0.564,0.427,-89.954,0.109,0.918,-0.772,-0.563,-0.427,0.564,0.427,0,0.109,0.839,-0.75,-0.7,0.096,0.701,-0.097,0,0.5,0.644,-0.5,0,0,0,1,0,-0.5,0.64,-0.5,0,0,0,1,0
3.403,0,0.719,0,0,-1,0,0,-0.023,0.136,0.719,0,0,-0.926,0.377,0,-45.656,0.016,1.023,-0.297,0,-0.632,0.775,0,57.303,0.016,0.944,-0.681,0,-0.604,0.797,0,-85.944,0.109,0.944,-0.681,-0.563,-0.427,0.564,0.427,-89.954,0.109,0.918,-0.772,-0.563,-0.427,0.564,0.427,0,0.109,0.839,-0.75,-0.7,0.096,0.701,-0.097,0,0.5,0.644,-0.5,0,0,0,1,0,-0.5,0.64,-0.5,0,0,0,1,0
3.507,0,0.719,0,0,-1,0,0,-0.023,0.136,0.719,0,0,-0.926,0.377,0,-45.656,0.016,1.023,-0.297,0,-0.632,0.775,0,57.303,0.016,0.944,-0.681,0,-0.604,0.797,0,-85.944,0.109,0.944,-0.681,-0.563,-0.427,0.564,0.427,-89.954,0.109,0.918,-0.772,-0.563,-0.427,0.564,0.427,0,0.109,0.839,-0.75,-0.7,0.096,0.701,-0.097,0,0.5,0.644,-0.5,0,0,0,1,0,-0.5,0.64,-0.5,0,0,0,1,0
3.608,0,0.719,0,0,-1,0,0,-0.023,0.136,0.719,0,0,-0.926,0.377,0,-45.656,0.016,1.023,-0.297,0,-0.632,0.775,0,57.303,0.016,0.944,-0.681,0,-0.604,0.797,0,-85.944,0.109,0.944,-0.681,-0.563,-0.427,0.564,0.427,-89.954,0.109,0.918,-0.772,-0.563,-0.427,0.564,0.427,0,0.109,0.839,-0.75,-0.7,0.096,0.701,-0.097,0,0.5,0.644,-0.5,0,0,0,1,0,-0.5,0.64,-0.5,0,0,0,1,0
3.708,0,0.719,0,0,-1,0,0,-0.023,0.136,0.719,0,0,-0.926,0.377,0,-45.656,0.016,1.023,-0.297,0,-0.632,0.775,0,57.303,0.016,0.944,-0.681,0,-0.604,0.797,0,-85.944,0.109,0.944,-0.681,-0.563,-0.427,0.564,0.427,-89.954,0.109,0.918,-0.772,-0.563,-0.427,0.564,0.427,0,0.109,0.839,-0.75,-0.7,0.096,0.701,-0.097,0,0.5,0.644,-0.5,0,0,0,1,0,-0.5,0.64,-0.5,0,0,0,1,0
3.81,0,0.719,0,0,-1,0,0,-0.023,0.136,0.719,0,0,-0.926,0.377,0,-45.656,0.016,1.023,-0.297,0,-0.632,0.775,0,57.303,0.016,0.944,-0.681,0,-0.604,0.797,0,-85.944,0.109,0.944,-0.681,-0.563,-0.427,0.564,0.427,-89.954,0.109,0.918,-0.772,-0.563,-0.427,0.564,0.427,0,0.109,0.839,-0.75,-0.7,0.096,0.701,-0.097,0,0.5,0.644,-0.5,0,0,0,1,0,-0.5,0.64,-0.5,0,0,0,1,0
3.913,0,0.719,0,0,-1,0,0,-0.023,0.136,0.719,0,0,-0.926,0.377,0,-45.656,0.016,1.023,-0.297,0,-0.632,0.775,0,57.303,0.016,0.944,-0.681,0,-0.604,0.797,0,-85.944,0.109,0.944,-0.681,-0.563,-0.427,0.564,0.427,-89.954,0.109,0.918,-0.772,-0.563,-0.427,0.564,0.427,0,0.109,0.839,-0.75,-0.7,0.096,0.701,-0.097,0,0.5,0.644,-0.5,0,0,0,1,0,-0.5,0.64,-0.5,0,0,0,1,0
4.016,0,0.719,0,0,-1,0,0,-0.023,0.136,0.719,0,0,-0.926,0.377,0,-45.656,0.016,1.023,-0.297,0,-0.632,0.775,0,57.303,0.016,0.944,-0.681,0,-0.604,0.797,0,-85.944,0.109,0.944,-0.681,-0.563,-0.427,0.564,0.427,-89.954,0.109,0.918,-0.772,-0.563,-0.427,0.564,0.427,0,0.109,0.839,-0.75,-0.7,0.096,0.701,-0.097,0,0.5,0.644,-0.5,0,0,0,1,0,-0.5,0.64,-0.5,0,0,0,1,0
4.119,0,0.719,0,0,-1,0,0,-0.023,0.136,0.719,0,0,-0.926,0.377,0,-45.656,0.016,1.023,-0.297,0,-0.632,0.775,0,57.303,0.016,0.944,-0.681,0,-0.604,0.797,0,-85.944,0.109,0.944,-0.681,-0.563,-0.427,0.564,0.427,-89.954,0.109,0.918,-0.772,-0.563,-0.427,0.564,0.427,0,0.109,0.839,-0.75,-0.7,0.096,0.701,-0.097,0,0.5,0.644,-0.5,0,0,0,1,0,-0.5,0.64,-0.5,0,0,0,1,0
4.227,0,0.719,0,0,-1,0,0,-0.023,0.136,0.719,0,0,-0.926,0.377,0,-45.656,0.016,1.023,-0.297,0,-0.632,0.775,0,57.303,0.016,0.944,-0.681,0,-0.604,0.797,0,-85.944,0.109,0.944,-0.681,-0.563,-0.427,0.564,0.427,-89.954,0.109,0.918,-0.772,-0.563,-0.427,0.564,0.427,0,0.109,0.839,-0.75,-0.7,0.096,0.701,-0.097,0,0.5,0.644,-0.5,0,0,0,1,0,-0.5,0.64,-0.5,0,0,0,1,0
4.327,0,0.719,0,0,-1,0,0,-0.023,0.136,0.719,0,0,-0.926,0.377,0,-45.656,0.016,1.023,-0.297,0,-0.632,0.775,0,57.303,0.016,0.944,-0.681,0,-0.604,0.797,0,-85.944,0.109,0.944,-0.681,-0.563,-0.427,0.564,0.427,-89.954,0.109,0.918,-0.772,-0.563,-0.427,0.564,0.427,0,0.109,0.839,-0.75,-0.7,0.096,0.701,-0.097,0,0.5,0.644,-0.5,0,0,0,1,0,-0.5,0.64,-0.5,0,0,0,1,0
4.434,0,0.719,0,0,-1,0,0,-0.023,0.136,0.719,0,0,-0.926,0.377,0,-45.656,0.016,1.023,-0.297,0,-0.632,0.775,0,57.303,0.016,0.944,-0.681,0,-0.604,0.797,0,-85.944,0.109,0.944,-0.681,-0.563,-0.427,0.564,0.427,-89.954,0.109,0.918,-0.772,-0.563,-0.427,0.564,0.427,0,0.109,0.839,-0.75,-0.7,0.096,0.701,-0.097,0,0.5,0.644,-0.5,0,0,0,1,0,-0.5,0.64,-0.5,0,0,0,1,0
4.535,0,0.719,0,0,-1,0,0,-0.023,0.136,0.719,0,0,-0.926,0.377,0,-45.656,0.016,1.023,-0.297,0,-0.632,0.775,0,57.303,0.016,0.944,-0.681,0,-0.604,0.797,0,-85.944,0.109,0.944,-0.681,-0.563,-0.427,0.564,0.427,-89.954,0.109,0.918,-0.772,-0.563,-0.427,0.564,0.427,0,0.109,0.839,-0.75,-0.7,0.096,0.701,-0.097,0,0.5,0.644,-0.5,0,0,0,1,0,-0.5,0.64,-0.5,0,0,0,1,0
4.639,0,0.719,0,0,-1,0,0,-0.023,0.136,0.719,0,0,-0.926,0.377,0,-45.656,0.016,1.023,-0.297,0,-0.632,0.775,0,57.303,0.016,0.944,-0.681,0,-0.604,0.797,0,-85.944,0.109,0.944,-0.681,-0.563,-0.427,0.564,0.427,-89.954,0.109,0.918,-0.772,-0.563,-0.427,0.564,0.427,0,0.109,0.839,-0.75,-0.7,0.096,0.701,-0.097,0,0.5,0.644,-0.5,0,0,0,1,0,-0.5,0.64,-0.5,0,0,0,1,0
4.745,0,0.719,0,0,-1,0,0,-0.023,0.136,0.719,0,0,-0.926,0.377,0,-45.656,0.016,1.023,-0.297,0,-0.632,0.775,0,57.303,0.016,0.944,-0.681,0,-0.604,0.797,0,-85.944,0.109,0.944,-0.681,-0.563,-0.427,0.564,0.427,-89.954,0.109,0.918,-0.772,-0.563,-0.427,0.564,0.427,0,0.109,0.839,-0.75,-0.7,0.096,0.701,-0.097,0,0.5,0.644,-0.5,0,0,0,1,0,-0.5,0.64,-0.5,0,0,0,1,0
4.852,0,0.719,0,0,-1,0,0,-0.023,0.136,0.719,0,0,-0.926,0.377,0,-45.656,0.016,1.023,-0.297,0,-0.632,0.775,0,57.303,0.016,0.944,-0.681,0,-0.604,0.797,0,-85.944,0.109,0.944,-0.681,-0.563,-0.427,0.564,0.427,-89.954,0.109,0.918,-0.772,-0.563,-0.427,0.564,0.427,0,0.109,0.839,-0.75,-0.7,0.096,0.701,-0.097,0,0.5,0.644,-0.5,0,0,0,1,0,-0.5,0.64,-0.5,0,0,0,1,0
4.956,0,0.719,0,0,-1,0,0,-0.023,0.136,0.719,0,0,-0.926,0.377,0,-45.656,0.016,1.023,-0.297,0,-0.632,0.775,0,57.303,0.016,0.944,-0.681,0,-0.604,0.797,0,-85.944,0.109,0.944,-0.681,-0.563,-0.427,0.564,0.427,-89.954,0.109,0.918,-0.772,-0.563,-0.427,0.564,0.427,0,0.109,0.839,-0.75,-0.7,0.096,0.701,-0.097,0,0.5,0.644,-0.5,0,0,0,1,0,-0.5,0.64,-0.5,0,0,0,1,0
5.061,0,0.719,0,0,-1,0,0,-0.023,0.136,0.719,0,0,-0.926,0.377,0,-45.656,0.016,1.023,-0.297,0,-0.632,0.775,0,57.303,0.016,0.944,-0.681,0,-0.604,0.797,0,-85.944,0.109,0.944,-0.681,-0.563,-0.427,0.564,0.427,-89.954,0.109,0.918,-0.772,-0.563,-0.427,0.564,0.427,0,0.109,0.839,-0.75,-0.7,0.096,0.701,-0.097,0,0.5,0.644,-0.5,0,0,0,1,0,-0.5,0.64,-0.5,0,0,0,1,0
5.164,0,0.719,0,0,-1,0,0,-0.023,0.136,0.719,0,0,-0.926,0.377,0,-45.656,0.016,1.023,-0.297,0,-0.632,0.775,0,57.303,0.016,0.944,-0.681,0,-0.604,0.797,0,-85.944,0.109,0.944,-0.681,-0.563,-0.427,0.564,0.427,-89.954,0.109,0.918,-0.772,-0.563,-0.427,0.564,0.427,0,0.109,0.839,-0.75,-0.7,0.096,0.701,-0.097,0,0.5,0.644,-0.5,0,0,0,1,0,-0.5,0.64,-0.5,0,0,0,1,0
5.269,0,0.719,0,0,-1,0,0,-0.023,0.136,0.719,0,0,-0.926,0.377,0,-45.656,0.016,1.023,-0.297,0,-0.632,0.775,0,57.303,0.016,0.944,-0.681,0,-0.604,0.797,0,-85.944,0.109,0.944,-0.681,-0.563,-0.427,0.564,0.427,-89.954,0.109,0.918,-0.772,-0.563,-0.427,0.564,0.427,0,0.109,0.839,-0.75,-0.7,0.096,0.701,-0.097,0,0.5,0.644,-0.5,0,0,0,1,0,-0.5,0.64,-0.5,0,0,0,1,0
5.371,0,0.719,0,0,-1,0,0,-0.023,0.136,0.719,0,0,-0.926,0.377,0,-45.656,0.016,1.023,-0.297,0,-0.632,0.775,0,57.303,0.016,0.944,-0.681,0,-0.604,0.797,0,-85.944,0.109,0.944,-0.681,-0.563,-0.427,0.564,0.427,-89.954,0.109,0.918,-0.772,-0.563,-0.427,0.564,0.427,0,0.109,0.839,-0.75,-0.7,0.096,0.701,-0.097,0,0.5,0.644,-0.5,0,0,0,1,0,-0.5,0.64,-0.5,0,0,0,1,0
5.475,0,0.719,0,0,-1,0,0,-0.023,0.136,0.719,0,0,-0.926,0.377,0,-45.656,0.016,1.023,-0.297,0,-0.632,0.775,0,57.303,0.016,0.944,-0.681,0,-0.604,0.797,0,-85.944,0.109,0.944,-0.681,-0.563,-0.427,0.564,0.427,-89.954,0.109,0.918,-0.772,-0.563,-0.427,0.564,0.427,0,0.109,0.839,-0.75,-0.7,0.096,0.701,-0.097,0,0.5,0.644,-0.5,0,0,0,1,0,-0.5,0.64,-0.5,0,0,0,1,0
5.578,0,0.719,0,0,-1,0,0,-0.023,0.136,0.719,0,0,-0.926,0.377,0,-45.656,0.016,1.023,-0.297,0,-0.632,0.775,0,57.303,0.016,0.944,-0.681,0,-0.604,0.797,0,-85.944,0.109,0.944,-0.681,-0.563,-0.427,0.564,0.427,-89.954,0.109,0.918,-0.772,-0.563,-0.427,0.564,0.427,0,0.109,0.839,-0.75,-0.7,0.096,0.701,-0.097,0,0.5,0.644,-0.5,0,0,0,1,0,-0.5,0.64,-0.5,0,0,0,1,0
5.683,0,0.719,0,0,-1,0,0,-0.023,0.136,0.719,0,0,-0.926,0.377,0,-45.656,0.016,1.023,-0.297,0,-0.632,0.775,0,57.303,0.016,0.944,-0.681,0,-0.604,0.797,0,-85.944,0.109,0.944,-0.681,-0.563,-0.427,0.564,0.427,-89.954,0.109,0.918,-0.772,-0.563,-0.427,0.564,0.427,0,0.109,0.839,-0.75,-0.7,0.096,0.701,-0.097,0,0.5,0.644,-0.5,0,0,0,1,0,-0.5,0.64,-0.5,0,0,0,1,0
5.787,0,0.719,0,0,-1,0,0,-0.023,0.136,0.719,0,0,-0.926,0.377,0,-45.656,0.016,1.023,-0.297,0,-0.632,0.775,0,57.303,0.016,0.944,-0.681,0,-0.604,0.797,0,-85.944,0.109,0.944,-0.681,-0.563,-0.427,0.564,0.427,-89.954,0.109,0.918,-0.772,-0.563,-0.427,0.564,0.427,0,0.109,0.839,-0.75,-0.7,0.096,0.701,-0.097,0,0.5,0.644,-0.5,0,0,0,1,0,-0.5,0.64,-0.5,0,0,0,1,0
5.888,0,0.719,0,0,-1,0,0,-0.023,0.136,0.719,0,0,-0.926,0.377,0,-45.656,0.016,1.023,-0.297,0,-0.632,0.775,0,57.303,0.016,0.944,-0.681,0,-0.604,0.797,0,-85.944,0.109,0.944,-0.681,-0.563,-0.427,0.564,0.427,-89.954,0.109,0.918,-0.772,-0.563,-0.427,0.564,0.427,0,0.109,0.839,-0.75,-0.7,0.096,0.701,-0.097,0,0.5,0.644,-0.5,0,0,0,1,0,-0.5,0.64,-0.5,0,0,0,1,0
5.989,0,0.719,0,0,-1,0,0,-0.023,0.136,0.719,0,0,-0.926,0.377,0,-45.656,0.016,1.023,-0.297,0,-0.632,0.775,0,57.303,0.016,0.944,-0.681,0,-0.604,0.797,0,-85.944,0.109,0.944,-0.681,-0.563,-0.427,0.564,0.427,-89.954,0.109,0.918,-0.772,-0.563,-0.427,0.564,0.427,0,0.109,0.839,-0.75,-0.7,0.096,0.701,-0.097,0,0.5,0.644,-0.5,0,0,0,1,0,-0.5,0.64,-0.5,0,0,0,1,0
6.093,0,0.719,0,0,-1,0,0,-0.023,0.136,0.719,0,0,-0.926,0.377,0,-45.656,0.016,1.023,-0.297,0,-0.632,0.775,0,57.303,0.016,0.944,-0.681,0,-0.604,0.797,0,-85.944,0.109,0.944,-0.681,-0.563,-0.427,0.564,0.427,-89.954,0.109,0.918,-0.772,-0.563,-0.427,0.564,0.427,0,0.109,0.839,-0.75,-0.7,0.096,0.701,-0.097,0,0.5,0.644,-0.5,0,0,0,1,0,-0.5,0.64,-0.5,0,0,0,1,0
6.194,0,0.719,0,0,-1,0,0,-0.023,0.136,0.719,0,0,-0.926,0.377,0,-45.656,0.016,1.023,-0.297,0,-0.632,0.775,0,57.303,0.016,0.944,-0.681,0,-0.604,0.797,0,-85.944,0.109,0.944,-0.681,-0.563,-0.427,0.564,0.427,-89.954,0.109,0.918,-0.772,-0.563,-0.427,0.564,0.427,0,0.109,0.839,-0.75,-0.7,0.096,0.701,-0.097,0,0.5,0.644,-0.5,0,0,0,1,0,-0.5,0.64,-0.5,0,0,0,1,0
6.294,0,0.719,0,0,-1,0,0,-0.023,0.136,0.719,0,0,-0.926,0.377,0,-45.656,0.016,1.023,-0.297,0,-0.632,0.775,0,57.303,0.016,0.944,-0.681,0,-0.604,0.797,0,-85.944,0.109,0.944,-0.681,-0.563,-0.427,0.564,0.427,-89.954,0.109,0.918,-0.772,-0.563,-0.427,0.564,0.427,0,0.109,0.839,-0.75,-0.7,0.096,0.701,-0.097,0,0.5,0.644,-0.5,0,0,0,1,0,-0.5,0.64,-0.5,0,0,0,1,0
6.398,0,0.719,0,0,-1,0,0,-0.023,0.136,0.719,0,0,-0.926,0.377,0,-45.656,0.016,1.023,-0.297,0,-0.632,0.775,0,57.303,0.016,0.944,-0.681,0,-0.604,0.797,0,-85.944,0.109,0.944,-0.681,-0.563,-0.427,0.564,0.427,-89.954,0.109,0.918,-0.772,-0.563,-0.427,0.564,0.427,0,0.109,0.839,-0.75,-0.7,0.096,0.701,-0.097,0,0.5,0.644,-0.5,0,0,0,1,0,-0.5,0.64,-0.5,0,0,0,1,0
6.501,0,0.719,0,0,-1,0,0,-0.023,0.136,0.719,0,0,-0.926,0.377,0,-45.656,0.016,1.023,-0.297,0,-0.632,0.775,0,57.303,0.016,0.944,-0.681,0,-0.604,0.797,0,-85.944,0.109,0.944,-0.681,-0.563,-0.427,0.564,0.427,-89.954,0.109,0.918,-0.772,-0.563,-0.427,0.564,0.427,0,0.109,0.839,-0.75,-0.7,0.096,0.701,-0.097,0,0.5,0.644,-0.5,0,0,0,1,0,-0.5,0.64,-0.5,0,0,0,1,0
6.602,0,0.719,0,0,-1,0,0,-0.023,0.136,0.719,0,0,-0.926,0.377,0,-45.656,0.016,1.023,-0.297,0,-0.632,0.775,0,57.303,0.016,0.944,-0.681,0,-0.604,0.797,0,-85.944,0.109,0.944,-0.681,-0.563,-0.427,0.564,0.427,-89.954,0.109,0.918,-0.772,-0.563,-0.427,0.564,0.427,0,0.109,0.839,-0.75,-0.7,0.096,0.701,-0.097,0,0.5,0.644,-0.5,0,0,0,1,0,-0.5,0.64,-0.5,0,0,0,1,0
6.703,0,0.719,0,0,-1,0,0,-0.023,0.136,0.719,0,0,-0.926,0.377,0,-45.656,0.016,1.023,-0.297,0,-0.632,0.775,0,57.303,0.016,0.944,-0.681,0,-0.604,0.797,0,-85.944,0.109,0.944,-0.681,-0.563,-0.427,0.564,0.427,-89.954,0.109,0.918,-0.772,-0.563,-0.427,0.564,0.427,0,0.109,0.839,-0.75,-0.7,0.096,0.701,-0.097,0,0.5,0.644,-0.5,0,0,0,1,0,-0.5,0.64,-0.5,0,0,0,1,0
6.805,0,0.719,0,0,-1,0,0,-0.023,0.136,0.719,0,0,-0.926,0.377,0,-45.656,0.016,1.023,-0.297,0,-0.632,0.775,0,57.303,0.016,0.944,-0.681,0,-0.604,0.797,0,-85.944,0.109,0.944,-0.681,-0.563,-0.427,0.564,0.427,-89.954,0.109,0.918,-0.772,-0.563,-0.427,0.564,0.427,0,0.109,0.839,-0.75,-0.7,0.096,0.701,-0.097,0,0.5,0.644,-0.5,0,0,0,1,0,-0.5,0.64,-0.5,0,0,0,1,0
6.908,0,0.719,0,0,-1,0,0,-0.023,0.136,0.719,0,0,-0.926,0.377,0,-45.656,0.016,1.023,-0.297,0,-0.632,0.775,0,57.303,0.016,0.944,-0.681,0,-0.604,0.797,0,-85.944,0.109,0.944,-0.681,-0.563,-0.427,0.564,0.427,-89.954,0.109,0.918,-0.772,-0.563,-0.427,0.564,0.427,0,0.109,0.839,-0.75,-0.7,0.096,0.701,-0.097,0,0.5,0.644,-0.5,0,0,0,1,0,-0.5,0.64,-0.5,0,0,0,1,0
7.009,0,0.719,0,0,-1,0,0,-0.023,0.136,0.719,0,0,-0.926,0.377,0,-45.656,0.016,1.023,-0.297,0,-0.632,0.775,0,57.303,0.016,0.944,-0.681,0,-0.604,0.797,0,-85.944,0.109,0.944,-0.681,-0.563,-0.427,0.564,0.427,-89.954,0.109,0.918,-0.772,-0.563,-0.427,0.564,0.427,0,0.109,0.839,-0.75,-0.7,0.096,0.701,-0.097,0,0.5,0.644,-0.5,0,0,0,1,0,-0.5,0.64,-0.5,0,0,0,1,0
7.109,0,0.719,0,0,-1,0,0,-0.023,0.136,0.719,0,0,-0.926,0.377,0,-45.656,0.016,1.023,-0.297,0,-0.632,0.775,0,57.303,0.016,0.944,-0.681,0,-0.604,0.797,0,-85.944,0.109,0.944,-0.681,-0.563,-0.427,0.564,0.427,-89.954,0.109,0.918,-0.772,-0.563,-0.427,0.564,0.427,0,0.109,0.839,-0.75,-0.7,0.096,0.701,-0.097,0,0.5,0.644,-0.5,0,0,0,1,0,-0.5,0.64,-0.5,0,0,0,1,0
7.212,0,0.719,0,0,-1,0,0,-0.023,0.136,0.719,0,0,-0.926,0.377,0,-45.656,0.016,1.023,-0.297,0,-0.632,0.775,0,57.303,0.016,0.944,-0.681,0,-0.604,0.797,0,-85.944,0.109,0.944,-0.681,-0.563,-0.427,0.564,0.427,-89.954,0.109,0.918,-0.772,-0.563,-0.427,0.564,0.427,0,0.109,0.839,-0.75,-0.7,0.096,0.701,-0.097,0,0.5,0.644,-0.5,0,0,0,1,0,-0.5,0.64,-0.5,0,0,0,1,0
7.315,0,0.719,0,0,-1,0,0,-0.023,0.136,0.719,0,0,-0.926,0.377,0,-45.656,0.016,1.023,-0.297,0,-0.632,0.775,0,57.303,0.016,0.944,-0.681,0,-0.604,0.797,0,-85.944,0.109,0.944,-0.681,-0.563,-0.427,0.564,0.427,-89.954,0.109,0.918,-0.772,-0.563,-0.427,0.564,0.427,0,0.109,0.839,-0.75,-0.7,0.096,0.701,-0.097,0,0.5,0.644,-0.5,0,0,0,1,0,-0.5,0.64,-0.5,0,0,0,1,0
7.418,0,0.719,0,0,-1,0,0,-0.023,0.136,0.719,0,0,-0.926,0.377,0,-45.656,0.016,1.023,-0.297,0,-0.632,0.775,0,57.303,0.016,0.944,-0.681,0,-0.604,0.797,0,-85.944,0.109,0.944,-0.681,-0.563,-0.427,0.564,0.427,-89.954,0.109,0.918,-0.772,-0.563,-0.427,0.564,0.427,0,0.109,0.839,-0.75,-0.7,0.096,0.701,-0.097,0,0.5,0.644,-0.5,0,0,0,1,0,-0.5,0.64,-0.5,0,0,0,1,0
7.52,0,0.719,0,0,-1,0,0,-0.023,0.136,0.719,0,0,-0.926,0.377,0,-45.656,0.016,1.023,-0.297,0,-0.632,0.775,0,57.303,0.016,0.944,-0.681,0,-0.604,0.797,0,-85.944,0.109,0.944,-0.681,-0.563,-0.427,0.564,0.427,-89.954,0.109,0.918,-0.772,-0.563,-0.427,0.564,0.427,0,0.109,0.839,-0.75,-0.7,0.096,0.701,-0.097,0,0.5,0.644,-0.5,0,0,0,1,0,-0.5,0.64,-0.5,0,0,0,1,0
7.62,0,0.719,0,0,-1,0,0,-0.023,0.136,0.719,0,0,-0.926,0.377,0,-45.656,0.016,1.023,-0.297,0,-0.632,0.775,0,57.303,0.016,0.944,-0.681,0,-0.604,0.797,0,-85.944,0.109,0.944,-0.681,-0.563,-0.427,0.564,0.427,-89.954,0.109,0.918,-0.772,-0.563,-0.427,0.564,0.427,0,0.109,0.839,-0.75,-0.7,0.096,0.701,-0.097,0,0.5,0.644,-0.5,0,0,0,1,0,-0.5,0.64,-0.5,0,0,0,1,0
7.722,0,0.719,0,0,-1,0,0,-0.023,0.136,0.719,0,0,-0.926,0.377,0,-45.656,0.016,1.023,-0.297,0,-0.632,0.775,0,57.303,0.016,0.944,-0.681,0,-0.604,0.797,0,-85.944,0.109,0.944,-0.681,-0.563,-0.427,0.564,0.427,-89.954,0.109,0.918,-0.772,-0.563,-0.427,0.564,0.427,0,0.109,0.839,-0.75,-0.7,0.096,0.701,-0.097,0,0.5,0.644,-0.5,0,0,0,1,0,-0.5,0.64,-0.5,0,0,0,1,0
7.824,0,0.719,0,0,-1,0,0,-0.023,0.136,0.719,0,0,-0.926,0.377,0,-45.656,0.016,1.023,-0.297,0,-0.632,0.775,0,57.303,0.016,0.944,-0.681,0,-0.604,0.797,0,-85.944,0.109,0.944,-0.681,-0.563,-0.427,0.564,0.427,-89.954,0.109,0.918,-0.772,-0.563,-0.427,0.564,0.427,0,0.109,0.839,-0.75,-0.7,0.096,0.701,-0.097,0,0.5,0.644,-0.5,0,0,0,1,0,-0.5,0.64,-0.5,0,0,0,1,0
7.929,0,0.719,0,0,-1,0,0,-0.023,0.136,0.719,0,0,-0.926,0.377,0,-45.656,0.016,1.023,-0.297,0,-0.632,0.775,0,57.303,0.016,0.944,-0.681,0,-0.604,0.797,0,-85.944,0.109,0.944,-0.681,-0.563,-0.427,0.564,0.427,-89.954,0.109,0.918,-0.772,-0.563,-0.427,0.564,0.427,0,0.109,0.839,-0.75,-0.7,0.096,0.701,-0.097,0,0.5,0.644,-0.5,0,0,0,1,0,-0.5,0.64,-0.5,0,0,0,1,0
8.033,0,0.719,0,0,-1,0,0,-0.023,0.136,0.719,0,0,-0.926,0.377,0,-45.656,0.016,1.023,-0.297,0,-0.632,0.775,0,57.303,0.016,0.944,-0.681,0,-0.604,0.797,0,-85.944,0.109,0.944,-0.681,-0.563,-0.427,0.564,0.427,-89.954,0.109,0.918,-0.772,-0.563,-0.427,0.564,0.427,0,0.109,0.839,-0.75,-0.7,0.096,0.701,-0.097,0,0.5,0.644,-0.5,0,0,0,1,0,-0.5,0.64,-0.5,0,0,0,1,0
8.136,0,0.719,0,0,-1,0,0,-0.023,0.136,0.719,0,0,-0.926,0.377,0,-45.656,0.016,1.023,-0.297,0,-0.632,0.775,0,57.303,0.016,0.944,-0.681,0,-0.604,0.797,0,-85.944,0.109,0.944,-0.681,-0.563,-0.427,0.564,0.427,-89.954,0.109,0.918,-0.772,-0.563,-0.427,0.564,0.427,0,0.109,0.839,-0.75,-0.7,0.096,0.701,-0.097,0,0.5,0.644,-0.5,0,0,0,1,0,-0.5,0.64,-0.5,0,0,0,1,0
8.239,0,0.719,0,0,-1,0,0,-0.023,0.136,0.719,0,0,-0.926,0.377,0,-45.656,0.016,1.023,-0.297,0,-0.632,0.775,0,57.303,0.016,0.944,-0.681,0,-0.604,0.797,0,-85.944,0.109,0.944,-0.681,-0.563,-0.427,0.564,0.427,-89.954,0.109,0.918,-0.772,-0.563,-0.427,0.564,0.427,0,0.109,0.839,-0.75,-0.7,0.096,0.701,-0.097,0,0.5,0.644,-0.5,0,0,0,1,0,-0.5,0.64,-0.5,0,0,0,1,0
8.339,0,0.719,0,0,-1,0,0,-0.023,0.136,0.719,0,0,-0.926,0.377,0,-45.656,0.016,1.023,-0.297,0,-0.632,0.775,0,57.303,0.016,0.944,-0.681,0,-0.604,0.797,0,-85.944,0.109,0.944,-0.681,-0.563,-0.427,0.564,0.427,-89.954,0.109,0.918,-0.772,-0.563,-0.427,0.564,0.427,0,0.109,0.839,-0.75,-0.7,0.096,0.701,-0.097,0,0.5,0.644,-0.5,0,0,0,1,0,-0.5,0.64,-0.5,0,0,0,1,0
8.442,0,0.719,0,0,-1,0,0,-0.023,0.136,0.719,0,0,-0.926,0.377,0,-45.656,0.016,1.023,-0.297,0,-0.632,0.775,0,57.303,0.016,0.944,-0.681,0,-0.604,0.797,0,-85.944,0.109,0.944,-0.681,-0.563,-0.427,0.564,0.427,-89.954,0.109,0.918,-0.772,-0.563,-0.427,0.564,0.427,0,0.109,0.839,-0.75,-0.7,0.096,0.701,-0.097,0,0.5,0.644,-0.5,0,0,0,1,0,-0.5,0.64,-0.5,0,0,0,1,0
8.543,0,0.719,0,0,-1,0,0,-0.023,0.136,0.719,0,0,-0.926,0.377,0,-45.656,0.016,1.023,-0.297,0,-0.632,0.775,0,57.303,0.016,0.944,-0.681,0,-0.604,0.797,0,-85.944,0.109,0.944,-0.681,-0.563,-0.427,0.564,0.427,-89.954,0.109,0.918,-0.772,-0.563,-0.427,0.564,0.427,0,0.109,0.839,-0.75,-0.7,0.096,0.701,-0.097,0,0.5,0.644,-0.5,0,0,0,1,0,-0.5,0.64,-0.5,0,0,0,1,0
8.646,0,0.719,0,0,-1,0,0,-0.023,0.136,0.719,0,0,-0.926,0.377,0,-45.656,0.016,1.023,-0.297,0,-0.632,0.775,0,57.303,0.016,0.944,-0.681,0,-0.604,0.797,0,-85.944,0.109,0.944,-0.681,-0.563,-0.427,0.564,0.427,-89.954,0.109,0.918,-0.772,-0.563,-0.427,0.564,0.427,0,0.109,0.839,-0.75,-0.7,0.096,0.701,-0.097,0,0.5,0.644,-0.5,0,0,0,1,0,-0.5,0.64,-0.5,0,0,0,1,0
8.75,0,0.719,0,0,-1,0,0,-0.023,0.136,0.719,0,0,-0.926,0.377,0,-45.656,0.016,1.023,-0.297,0,-0.632,0.775,0,57.303,0.016,0.944,-0.681,0,-0.604,0.797,0,-85.944,0.109,0.944,-0.681,-0.563,-0.427,0.564,0.427,-89.954,0.109,0.918,-0.772,-0.563,-0.427,0.564,0.427,0,0.109,0.839,-0.75,-0.7,0.096,0.701,-0.097,0,0.5,0.644,-0.5,0,0,0,1,0,-0.5,0.64,-0.5,0,0,0,1,0
8.851,0,0.719,0,0,-1,0,0,-0.023,0.136,0.719,0,0,-0.926,0.377,0,-45.656,0.016,1.023,-0.297,0,-0.632,0.775,0,57.303,0.016,0.944,-0.681,0,-0.604,0.797,0,-85.944,0.109,0.944,-0.681,-0.563,-0.427,0.564,0.427,-89.954,0.109,0.918,-0.772,-0.563,-0.427,0.564,0.427,0,0.109,0.839,-0.75,-0.7,0.096,0.701,-0.097,0,0.5,0.644,-0.5,0,0,0,1,0,-0.5,0.64,-0.5,0,0,0,1,0
8.952,0,0.719,0,0,-1,0,0,-0.023,0.136,0.719,0,0,-0.926,0.377,0,-45.656,0.016,1.023,-0.297,0,-0.632,0.775,0,57.303,0.016,0.944,-0.681,0,-0.604,0.797,0,-85.944,0.109,0.944,-0.681,-0.563,-0.427,0.564,0.427,-89.954,0.109,0.918,-0.772,-0.563,-0.427,0.564,0.427,0,0.109,0.839,-0.75,-0.7,0.096,0.701,-0.097,0,0.5,0.644,-0.5,0,0,0,1,0,-0.5,0.64,-0.5,0,0,0,1,0
9.054,0,0.719,0,0,-1,0,0,-0.023,0.136,0.719,0,0,-0.926,0.377,0,-45.656,0.016,1.023,-0.297,0,-0.632,0.775,0,57.303,0.016,0.944,-0.681,0,-0.604,0.797,0,-85.944,0.109,0.944,-0.681,-0.563,-0.427,0.564,0.427,-89.954,0.109,0.918,-0.772,-0.563,-0.427,0.564,0.427,0,0.109,0.839,-0.75,-0.7,0.096,0.701,-0.097,0,0.5,0.644,-0.5,0,0,0,1,0,-0.5,0.64,-0.5,0,0,0,1,0
9.155,0,0.719,0,0,-1,0,0,-0.023,0.136,0.719,0,0,-0.926,0.377,0,-45.656,0.016,1.023,-0.297,0,-0.632,0.775,0,57.303,0.016,0.944,-0.681,0,-0.604,0.797,0,-85.944,0.109,0.944,-0.681,-0.563,-0.427,0.564,0.427,-89.954,0.109,0.918,-0.772,-0.563,-0.427,0.564,0.427,0,0.109,0.839,-0.75,-0.7,0.096,0.701,-0.097,0,0.5,0.644,-0.5,0,0,0,1,0,-0.5,0.64,-0.5,0,0,0,1,0
9.256,0,0.719,0,0,-1,0,0,-0.023,0.136,0.719,0,0,-0.926,0.377,0,-45.656,0.016,1.023,-0.297,0,-0.632,0.775,0,57.303,0.016,0.944,-0.681,0,-0.604,0.797,0,-85.944,0.109,0.944,-0.681,-0.563,-0.427,0.564,0.427,-89.954,0.109,0.918,-0.772,-0.563,-0.427,0.564,0.427,0,0.109,0.839,-0.75,-0.7,0.096,0.701,-0.097,0,0.5,0.644,-0.5,0,0,0,1,0,-0.5,0.64,-0.5,0,0,0,1,0
9.359,0,0.719,0,0,-1,0,0,-0.023,0.136,0.719,0,0,-0.926,0.377,0,-45.656,0.016,1.023,-0.297,0,-0.632,0.775,0,57.303,0.016,0.944,-0.681,0,-0.604,0.797,0,-85.944,0.109,0.944,-0.681,-0.563,-0.427,0.564,0.427,-89.954,0.109,0.918,-0.772,-0.563,-0.427,0.564,0.427,0,0.109,0.839,-0.75,-0.7,0.096,0.701,-0.097,0,0.5,0.644,-0.5,0,0,0,1,0,-0.5,0.64,-0.5,0,0,0,1,0
9.463,0,0.719,0,0,-1,0,0,-0.023,0.136,0.719,0,0,-0.926,0.377,0,-45.656,0.016,1.023,-0.297,0,-0.632,0.775,0,57.303,0.016,0.944,-0.681,0,-0.604,0.797,0,-85.944,0.109,0.944,-0.681,-0.563,-0.427,0.564,0.427,-89.954,0.109,0.918,-0.772,-0.563,-0.427,0.564,0.427,0,0.109,0.839,-0.75,-0.7,0.096,0.701,-0.097,0,0.5,0.644,-0.5,0,0,0,1,0,-0.5,0.64,-0.5,0,0,0,1,0
9.564,0,0.719,0,0,-1,0,0,-0.023,0.136,0.719,0,0,-0.926,0.377,0,-45.656,0.016,1.023,-0.297,0,-0.632,0.775,0,57.303,0.016,0.944,-0.681,0,-0.604,0.797,0,-85.944,0.109,0.944,-0.681,-0.563,-0.427,0.564,0.427,-89.954,0.109,0.918,-0.772,-0.563,-0.427,0.564,0.427,0,0.109,0.839,-0.75,-0.7,0.096,0.701,-0.097,0,0.5,0.644,-0.5,0,0,0,1,0,-0.5,0.64,-0.5,0,0,0,1,0
9.666,0,0.719,0,0,-1,0,0,-0.023,0.136,0.719,0,0,-0.926,0.377,0,-45.656,0.016,1.023,-0.297,0,-0.632,0.775,0,57.303,0.016,0.944,-0.681,0,-0.604,0.797,0,-85.944,0.109,0.944,-0.681,-0.563,-0.427,0.564,0.427,-89.954,0.109,0.918,-0.772,-0.563,-0.427,0.564,0.427,0,0.109,0.839,-0.75,-0.7,0.096,0.701,-0.097,0,0.5,0.644,-0.5,0,0,0,1,0,-0.5,0.64,-0.5,0,0,0,1,0
9.769,0,0.719,0,0,-1,0,0,-0.023,0.136,0.719,0,0,-0.926,0.377,0,-45.656,0.016,1.023,-0.297,0,-0.632,0.775,0,57.303,0.016,0.944,-0.681,0,-0.604,0.797,0,-85.944,0.109,0.944,-0.681,-0.563,-0.427,0.564,0.427,-89.954,0.109,0.918,-0.772,-0.563,-0.427,0.564,0.427,0,0.109,0.839,-0.75,-0.7,0.096,0.701,-0.097,0,0.5,0.644,-0.5,0,0,0,1,0,-0.5,0.64,-0.5,0,0,0,1,0
9.87,0,0.719,0,0,-1,0,0,-0.023,0.136,0.719,0,0,-0.926,0.377,0,-45.656,0.016,1.023,-0.297,0,-0.632,0.775,0,57.303,0.016,0.944,-0.681,0,-0.604,0.797,0,-85.944,0.109,0.944,-0.681,-0.563,-0.427,0.564,0.427,-89.954,0.109,0.918,-0.772,-0.563,-0.427,0.564,0.427,0,0.109,0.839,-0.75,-0.7,0.096,0.701,-0.097,0,0.5,0.644,-0.5,0,0,0,1,0,-0.5,0.64,-0.5,0,0,0,1,0
9.971,0,0.719,0,0,-1,0,0,-0.023,0.136,0.719,0,0,-0.926,0.377,0,-45.656,0.016,1.023,-0.297,0,-0.632,0.775,0,57.303,0.016,0.944,-0.681,0,-0.604,0.797,0,-85.944,0.109,0.944,-0.681,-0.563,-0.427,0.564,0.427,-89.954,0.109,0.918,-0.772,-0.563,-0.427,0.564,0.427,0,0.109,0.839,-0.75,-0.7,0.096,0.701,-0.097,0,0.5,0.644,-0.5,0,0,0,1,0,-0.5,0.64,-0.5,0,0,0,1,0
10.072,0,0.719,0,0,-1,0,0,-0.023,0.136,0.719,0,0,-0.926,0.377,0,-45.656,0.016,1.023,-0.297,0,-0.632,0.775,0,57.303,0.016,0.944,-0.681,0,-0.604,0.797,0,-85.944,0.109,0.944,-0.681,-0.563,-0.427,0.564,0.427,-89.954,0.109,0.918,-0.772,-0.563,-0.427,0.564,0.427,0,0.109,0.839,-0.75,-0.7,0.096,0.701,-0.097,0,0.5,0.644,-0.5,0,0,0,1,0,-0.5,0.64,-0.5,0,0,0,1,0
10.174,0,0.719,0,0,-1,0,0,-0.023,0.136,0.719,0,0,-0.926,0.377,0,-45.656,0.016,1.023,-0.297,0,-0.632,0.775,0,57.303,0.016,0.944,-0.681,0,-0.604,0.797,0,-85.944,0.109,0.944,-0.681,-0.563,-0.427,0.564,0.427,-89.954,0.109,0.918,-0.772,-0.563,-0.427,0.564,0.427,0,0.109,0.839,-0.75,-0.7,0.096,0.701,-0.097,0,0.5,0.644,-0.5,0,0,0,1,0,-0.5,0.64,-0.5,0,0,0,1,0
10.278,0,0.719,0,0,-1,0,0,-0.023,0.136,0.719,0,0,-0.926,0.377,0,-45.656,0.016,1.023,-0.297,0,-0.632,0.775,0,57.303,0.016,0.944,-0.681,0,-0.604,0.797,0,-85.944,0.109,0.944,-0.681,-0.563,-0.427,0.564,0.427,-89.954,0.109,0.918,-0.772,-0.563,-0.427,0.564,0.427,0,0.109,0.839,-0.75,-0.7,0.096,0.701,-0.097,0,0.5,0.644,-0.5,0,0,0,1,0,-0.5,0.64,-0.5,0,0,0,1,0
10.379,0,0.719,0,0,-1,0,0,-0.023,0.136,0.719,0,0,-0.926,0.377,0,-45.656,0.016,1.023,-0.297,0,-0.632,0.775,0,57.303,0.016,0.944,-0.681,0,-0.604,0.797,0,-85.944,0.109,0.944,-0.681,-0.563,-0.427,0.564,0.427,-89.954,0.109,0.918,-0.772,-0.563,-0.427,0.564,0.427,0,0.109,0.839,-0.75,-0.7,0.096,0.701,-0.097,0,0.5,0.644,-0.5,0,0,0,1,0,-0.5,0.64,-0.5,0,0,0,1,0
10.482,0,0.719,0,0,-1,0,0,-0.023,0.136,0.719,0,0,-0.926,0.377,0,-45.656,0.016,1.023,-0.297,0,-0.632,0.775,0,57.303,0.016,0.944,-0.681,0,-0.604,0.797,0,-85.944,0.109,0.944,-0.681,-0.563,-0.427,0.564,0.427,-89.954,0.109,0.918,-0.772,-0.563,-0.427,0.564,0.427,0,0.109,0.839,-0.75,-0.7,0.096,0.701,-0.097,0,0.5,0.644,-0.5,0,0,0,1,0,-0.5,0.64,-0.5,0,0,0,1,0
10.583,0,0.719,0,0,-1,0,0,-0.023,0.136,0.719,0,0,-0.926,0.377,0,-45.656,0.016,1.023,-0.297,0,-0.632,0.775,0,57.303,0.016,0.944,-0.681,0,-0.604,0.797,0,-85.944,0.109,0.944,-0.681,-0.563,-0.427,0.564,0.427,-89.954,0.109,0.918,-0.772,-0.563,-0.427,0.564,0.427,0,0.109,0.839,-0.75,-0.7,0.096,0.701,-0.097,0,0.5,0.644,-0.5,0,0,0,1,0,-0.5,0.64,-0.5,0,0,0,1,0
10.684,0,0.719,0,0,-1,0,0,-0.023,0.136,0.719,0,0,-0.926,0.377,0,-45.656,0.016,1.023,-0.297,0,-0.632,0.775,0,57.303,0.016,0.944,-0.681,0,-0.604,0.797,0,-85.944,0.109,0.944,-0.681,-0.563,-0.427,0.564,0.427,-89.954,0.109,0.918,-0.772,-0.563,-0.427,0.564,0.427,0,0.109,0.839,-0.75,-0.7,0.096,0.701,-0.097,0,0.5,0.644,-0.5,0,0,0,1,0,-0.5,0.64,-0.5,0,0,0,1,0
10.786,0,0.719,0,0,-1,0,0,-0.023,0.136,0.719,0,0,-0.926,0.377,0,-45.656,0.016,1.023,-0.297,0,-0.632,0.775,0,57.303,0.016,0.944,-0.681,0,-0.604,0.797,0,-85.944,0.109,0.944,-0.681,-0.563,-0.427,0.564,0.427,-89.954,0.109,0.918,-0.772,-0.563,-0.427,0.564,0.427,0,0.109,0.839,-0.75,-0.7,0.096,0.701,-0.097,0,0.5,0.644,-0.5,0,0,0,1,0,-0.5,0.64,-0.5,0,0,0,1,0
10.889,0,0.719,0,0,-1,0,0,-0.023,0.136,0.719,0,0,-0.926,0.377,0,-45.656,0.016,1.023,-0.297,0,-0.632,0.775,0,57.303,0.016,0.944,-0.681,0,-0.604,0.797,0,-85.944,0.109,0.944,-0.681,-0.563,-0.427,0.564,0.427,-89.954,0.109,0.918,-0.772,-0.563,-0.427,0.564,0.427,0,0.109,0.839,-0.75,-0.7,0.096,0.701,-0.097,0,0.5,0.644,-0.5,0,0,0,1,0,-0.5,0.64,-0.5,0,0,0,1,0
10.99,0,0.719,0,0,-1,0,0,-0.023,0.136,0.719,0,0,-0.926,0.377,0,-45.656,0.016,1.023,-0.297,0,-0.632,0.775,0,57.303,0.016,0.944,-0.681,0,-0.604,0.797,0,-85.944,0.109,0.944,-0.681,-0.563,-0.427,0.564,0.427,-89.954,0.109,0.918,-0.772,-0.563,-0.427,0.564,0.427,0,0.109,0.839,-0.75,-0.7,0.096,0.701,-0.097,0,0.5,0.644,-0.5,0,0,0,1,0,-0.5,0.64,-0.5,0,0,0,1,0
11.094,0,0.719,0,0,-1,0,0,-0.023,0.136,0.719,0,0,-0.926,0.377,0,-45.656,0.016,1.023,-0.297,0,-0.632,0.775,0,57.303,0.016,0.944,-0.681,0,-0.604,0.797,0,-85.944,0.109,0.944,-0.681,-0.563,-0.427,0.564,0.427,-89.954,0.109,0.918,-0.772,-0.563,-0.427,0.564,0.427,0,0.109,0.839,-0.75,-0.7,0.096,0.701,-0.097,0,0.5,0.644,-0.5,0,0,0,1,0,-0.5,0.64,-0.5,0,0,0,1,0
11.198,0,0.719,0,0,-1,0,0,-0.023,0.136,0.719,0,0,-0.926,0.377,0,-45.656,0.016,1.023,-0.297,0,-0.632,0.775,0,57.303,0.016,0.944,-0.681,0,-0.604,0.797,0,-85.944,0.109,0.944,-0.681,-0.563,-0.427,0.564,0.427,-89.954,0.109,0.918,-0.772,-0.563,-0.427,0.564,0.427,0,0.109,0.839,-0.75,-0.7,0.096,0.701,-0.097,0,0.5,0.644,-0.5,0,0,0,1,0,-0.5,0.64,-0.5,0,0,0,1,0
11.302,0,0.719,0,0,-1,0,0,-0.023,0.136,0.719,0,0,-0.926,0.377,0,-45.656,0.016,1.023,-0.297,0,-0.632,0.775,0,57.303,0.016,0.944,-0.681,0,-0.604,0.797,0,-85.944,0.109,0.944,-0.681,-0.563,-0.427,0.564,0.427,-89.954,0.109,0.918,-0.772,-0.563,-0.427,0.564,0.427,0,0.109,0.839,-0.75,-0.7,0.096,0.701,-0.097,0,0.5,0.644,-0.5,0,0,0,1,0,-0.5,0.64,-0.5,0,0,0,1,0
11.409,0,0.719,0,0,-1,0,0,-0.023,0.136,0.719,0,0,-0.926,0.377,0,-45.656,0.016,1.023,-0.297,0,-0.632,0.775,0,57.303,0.016,0.944,-0.681,0,-0.604,0.797,0,-85.944,0.109,0.944,-0.681,-0.563,-0.427,0.564,0.427,-89.954,0.109,0.918,-0.772,-0.563,-0.427,0.564,0.427,0,0.109,0.839,-0.75,-0.7,0.096,0.701,-0.097,0,0.5,0.644,-0.5,0,0,0,1,0,-0.5,0.64,-0.5,0,0,0,1,0
11.511,0,0.719,0,0,-1,0,0,-0.023,0.136,0.719,0,0,-0.926,0.377,0,-45.656,0.016,1.023,-0.297,0,-0.632,0.775,0,57.303,0.016,0.944,-0.681,0,-0.604,0.797,0,-85.944,0.109,0.944,-0.681,-0.563,-0.427,0.564,0.427,-89.954,0.109,0.918,-0.772,-0.563,-0.427,0.564,0.427,0,0.109,0.839,-0.75,-0.7,0.096,0.701,-0.097,0,0.5,0.644,-0.5,0,0,0,1,0,-0.5,0.64,-0.5,0,0,0,1,0
11.614,0,0.719,0,0,-1,0,0,-0.023,0.136,0.719,0,0,-0.926,0.377,0,-45.656,0.016,1.023,-0.297,0,-0.632,0.775,0,57.303,0.016,0.944,-0.681,0,-0.604,0.797,0,-85.944,0.109,0.944,-0.681,-0.563,-0.427,0.564,0.427,-89.954,0.109,0.918,-0.772,-0.563,-0.427,0.564,0.427,0,0.109,0.839,-0.75,-0.7,0.096,0.701,-0.097,0,0.5,0.644,-0.5,0,0,0,1,0,-0.5,0.64,-0.5,0,0,0,1,0
11.716,0,0.719,0,0,-1,0,0,-0.023,0.136,0.719,0,0,-0.926,0.377,0,-45.656,0.016,1.023,-0.297,0,-0.632,0.775,0,57.303,0.016,0.944,-0.681,0,-0.604,0.797,0,-85.944,0.109,0.944,-0.681,-0.563,-0.427,0.564,0.427,-89.954,0.109,0.918,-0.772,-0.563,-0.427,0.564,0.427,0,0.109,0.839,-0.75,-0.7,0.096,0.701,-0.097,0,0.5,0.644,-0.5,0,0,0,1,0,-0.5,0.64,-0.5,0,0,0,1,0
11.817,0,0.719,0,0,-1,0,0,-0.023,0.136,0.719,0,0,-0.926,0.377,0,-45.656,0.016,1.023,-0.297,0,-0.632,0.775,0,57.303,0.016,0.944,-0.681,0,-0.604,0.797,0,-85.944,0.109,0.944,-0.681,-0.563,-0.427,0.564,0.427,-89.954,0.109,0.918,-0.772,-0.563,-0.427,0.564,0.427,0,0.109,0.839,-0.75,-0.7,0.096,0.701,-0.097,0,0.5,0.644,-0.5,0,0,0,1,0,-0.5,0.64,-0.5,0,0,0,1,0
11.919,0,0.719,0,0,-1,0,0,-0.023,0.136,0.719,0,0,-0.926,0.377,0,-45.656,0.016,1.023,-0.297,0,-0.632,0.775,0,57.303,0.016,0.944,-0.681,0,-0.604,0.797,0,-85.944,0.109,0.944,-0.681,-0.563,-0.427,0.564,0.427,-89.954,0.109,0.918,-0.772,-0.563,-0.427,0.564,0.427,0,0.109,0.839,-0.75,-0.7,0.096,0.701,-0.097,0,0.5,0.644,-0.5,0,0,0,1,0,-0.5,0.64,-0.5,0,0,0,1,0
12.02,0,0.719,0,0,-1,0,0,-0.023,0.136,0.719,0,0,-0.926,0.377,0,-45.656,0.016,1.023,-0.297,0,-0.632,0.775,0,57.303,0.016,0.944,-0.681,0,-0.604,0.797,0,-85.944,0.109,0.944,-0.681,-0.563,-0.427,0.564,0.427,-89.954,0.109,0.918,-0.772,-0.563,-0.427,0.564,0.427,0,0.109,0.839,-0.75,-0.7,0.096,0.701,-0.097,0,0.5,0.644,-0.5,0,0,0,1,0,-0.5,0.64,-0.5,0,0,0,1,0
12.12,0,0.719,0,0,-1,0,0,-0.023,0.136,0.719,0,0,-0.926,0.377,0,-45.656,0.016,1.023,-0.297,0,-0.632,0.775,0,57.303,0.016,0.944,-0.681,0,-0.604,0.797,0,-85.944,0.109,0.944,-0.681,-0.563,-0.427,0.564,0.427,-89.954,0.109,0.918,-0.772,-0.563,-0.427,0.564,0.427,0,0.109,0.839,-0.75,-0.7,0.096,0.701,-0.097,0,0.5,0.644,-0.5,0,0,0,1,0,-0.5,0.64,-0.5,0,0,0,1,0
12.221,0,0.719,0,0,-1,0,0,-0.023,0.136,0.719,0,0,-0.926,0.377,0,-45.656,0.016,1.023,-0.297,0,-0.632,0.775,0,57.303,0.016,0.944,-0.681,0,-0.604,0.797,0,-85.944,0.109,0.944,-0.681,-0.563,-0.427,0.564,0.427,-89.954,0.109,0.918,-0.772,-0.563,-0.427,0.564,0.427,0,0.109,0.839,-0.75,-0.7,0.096,0.701,-0.097,0,0.5,0.644,-0.5,0,0,0,1,0,-0.5,0.64,-0.5,0,0,0,1,0
12.322,0,0.719,0,0,-1,0,0,-0.023,0.136,0.719,0,0,-0.926,0.377,0,-45.656,0.016,1.023,-0.297,0,-0.632,0.775,0,57.303,0.016,0.944,-0.681,0,-0.604,0.797,0,-85.944,0.109,0.944,-0.681,-0.563,-0.427,0.564,0.427,-89.954,0.109,0.918,-0.772,-0.563,-0.427,0.564,0.427,0,0.109,0.839,-0.75,-0.7,0.096,0.701,-0.097,0,0.5,0.644,-0.5,0,0,0,1,0,-0.5,0.64,-0.5,0,0,0,1,0
12.423,0,0.719,0,0,-1,0,0,-0.023,0.136,0.719,0,0,-0.926,0.377,0,-45.656,0.016,1.023,-0.297,0,-0.632,0.775,0,57.303,0.016,0.944,-0.681,0,-0.604,0.797,0,-85.944,0.109,0.944,-0.681,-0.563,-0.427,0.564,0.427,-89.954,0.109,0.918,-0.772,-0.563,-0.427,0.564,0.427,0,0.109,0.839,-0.75,-0.7,0.096,0.701,-0.097,0,0.5,0.644,-0.5,0,0,0,1,0,-0.5,0.64,-0.5,0,0,0,1,0
12.528,0,0.719,0,0,-1,0,0,-0.023,0.136,0.719,0,0,-0.926,0.377,0,-45.656,0.016,1.023,-0.297,0,-0.632,0.775,0,57.303,0.016,0.944,-0.681,0,-0.604,0.797,0,-85.944,0.109,0.944,-0.681,-0.563,-0.427,0.564,0.427,-89.954,0.109,0.918,-0.772,-0.563,-0.427,0.564,0.427,0,0.109,0.839,-0.75,-0.7,0.096,0.701,-0.097,0,0.5,0.644,-0.5,0,0,0,1,0,-0.5,0.64,-0.5,0,0,0,1,0
12.63,0,0.719,0,0,-1,0,0,-0.023,0.136,0.719,0,0,-0.926,0.377,0,-45.656,0.016,1.023,-0.297,0,-0.632,0.775,0,57.303,0.016,0.944,-0.681,0,-0.604,0.797,0,-85.944,0.109,0.944,-0.681,-0.563,-0.427,0.564,0.427,-89.954,0.109,0.918,-0.772,-0.563,-0.427,0.564,0.427,0,0.109,0.839,-0.75,-0.7,0.096,0.701,-0.097,0,0.5,0.644,-0.5,0,0,0,1,0,-0.5,0.64,-0.5,0,0,0,1,0
12.733,0,0.719,0,0,-1,0,0,-0.023,0.136,0.719,0,0,-0.926,0.377,0,-45.656,0.016,1.023,-0.297,0,-0.632,0.775,0,57.303,0.016,0.944,-0.681,0,-0.604,0.797,0,-85.944,0.109,0.944,-0.681,-0.563,-0.427,0.564,0.427,-89.954,0.109,0.918,-0.772,-0.563,-0.427,0.564,0.427,0,0.109,0.839,-0.75,-0.7,0.096,0.701,-0.097,0,0.5,0.644,-0.5,0,0,0,1,0,-0.5,0.64,-0.5,0,0,0,1,0
12.836,0,0.719,0,0,-1,0,0,-0.023,0.136,0.719,0,0,-0.926,0.377,0,-45.656,0.016,1.023,-0.297,0,-0.632,0.775,0,57.303,0.016,0.944,-0.681,0,-0.604,0.797,0,-85.944,0.109,0.944,-0.681,-0.563,-0.427,0.564,0.427,-89.954,0.109,0.918,-0.772,-0.563,-0.427,0.564,0.427,0,0.109,0.839,-0.75,-0.7,0.096,0.701,-0.097,0,0.5,0.644,-0.5,0,0,0,1,0,-0.5,0.64,-0.5,0,0,0,1,0
12.937,0,0.719,0,0,-1,0,0,-0.023,0.136,0.719,0,0,-0.926,0.377,0,-45.656,0.016,1.023,-0.297,0,-0.632,0.775,0,57.303,0.016,0.944,-0.681,0,-0.604,0.797,0,-85.944,0.109,0.944,-0.681,-0.563,-0.427,0.564,0.427,-89.954,0.109,0.918,-0.772,-0.563,-0.427,0.564,0.427,0,0.109,0.839,-0.75,-0.7,0.096,0.701,-0.097,0,0.5,0.644,-0.5,0,0,0,1,0,-0.5,0.64,-0.5,0,0,0,1,0
13.038,0,0.719,0,0,-1,0,0,-0.023,0.136,0.719,0,0,-0.926,0.377,0,-45.656,0.016,1.023,-0.297,0,-0.632,0.775,0,57.303,0.016,0.944,-0.681,0,-0.604,0.797,0,-85.944,0.109,0.944,-0.681,-0.563,-0.427,0.564,0.427,-89.954,0.109,0.918,-0.772,-0.563,-0.427,0.564,0.427,0,0.109,0.839,-0.75,-0.7,0.096,0.701,-0.097,0,0.5,0.644,-0.5,0,0,0,1,0,-0.5,0.64,-0.5,0,0,0,1,0
13.142,0,0.719,0,0,-1,0,0,-0.023,0.136,0.719,0,0,-0.926,0.377,0,-45.656,0.016,1.023,-0.297,0,-0.632,0.775,0,57.303,0.016,0.944,-0.681,0,-0.604,0.797,0,-85.944,0.109,0.944,-0.681,-0.563,-0.427,0.564,0.427,-89.954,0.109,0.918,-0.772,-0.563,-0.427,0.564,0.427,0,0.109,0.839,-0.75,-0.7,0.096,0.701,-0.097,0,0.5,0.644,-0.5,0,0,0,1,0,-0.5,0.64,-0.5,0,0,0,1,0
13.247,0,0.719,0,0,-1,0,0,-0.023,0.136,0.719,0,0,-0.926,0.377,0,-45.656,0.016,1.023,-0.297,0,-0.632,0.775,0,57.303,0.016,0.944,-0.681,0,-0.604,0.797,0,-85.944,0.109,0.944,-0.681,-0.563,-0.427,0.564,0.427,-89.954,0.109,0.918,-0.772,-0.563,-0.427,0.564,0.427,0,0.109,0.839,-0.75,-0.7,0.096,0.701,-0.097,0,0.5,0.644,-0.5,0,0,0,1,0,-0.5,0.64,-0.5,0,0,0,1,0
13.35,0,0.719,0,0,-1,0,0,-0.023,0.136,0.719,0,0,-0.926,0.377,0,-45.656,0.016,1.023,-0.297,0,-0.632,0.775,0,57.303,0.016,0.944,-0.681,0,-0.604,0.797,0,-85.944,0.109,0.944,-0.681,-0.563,-0.427,0.564,0.427,-89.954,0.109,0.918,-0.772,-0.563,-0.427,0.564,0.427,0,0.109,0.839,-0.75,-0.7,0.096,0.701,-0.097,0,0.5,0.644,-0.5,0,0,0,1,0,-0.5,0.64,-0.5,0,0,0,1,0
13.453,0,0.719,0,0,-1,0,0,-0.023,0.136,0.719,0,0,-0.926,0.377,0,-45.656,0.016,1.023,-0.297,0,-0.632,0.775,0,57.303,0.016,0.944,-0.681,0,-0.604,0.797,0,-85.944,0.109,0.944,-0.681,-0.563,-0.427,0.564,0.427,-89.954,0.109,0.918,-0.772,-0.563,-0.427,0.564,0.427,0,0.109,0.839,-0.75,-0.7,0.096,0.701,-0.097,0,0.5,0.644,-0.5,0,0,0,1,0,-0.5,0.64,-0.5,0,0,0,1,0
13.555,0,0.719,0,0,-1,0,0,-0.023,0.136,0.719,0,0,-0.926,0.377,0,-45.656,0.016,1.023,-0.297,0,-0.632,0.775,0,57.303,0.016,0.944,-0.681,0,-0.604,0.797,0,-85.944,0.109,0.944,-0.681,-0.563,-0.427,0.564,0.427,-89.954,0.109,0.918,-0.772,-0.563,-0.427,0.564,0.427,0,0.109,0.839,-0.75,-0.7,0.096,0.701,-0.097,0,0.5,0.644,-0.5,0,0,0,1,0,-0.5,0.64,-0.5,0,0,0,1,0
13.659,0,0.719,0,0,-1,0,0,-0.023,0.136,0.719,0,0,-0.926,0.377,0,-45.656,0.016,1.023,-0.297,0,-0.632,0.775,0,57.303,0.016,0.944,-0.681,0,-0.604,0.797,0,-85.944,0.109,0.944,-0.681,-0.563,-0.427,0.564,0.427,-89.954,0.109,0.918,-0.772,-0.563,-0.427,0.564,0.427,0,0.109,0.839,-0.75,-0.7,0.096,0.701,-0.097,0,0.5,0.644,-0.5,0,0,0,1,0,-0.5,0.64,-0.5,0,0,0,1,0
13.76,0,0.719,0,0,-1,0,0,-0.023,0.136,0.719,0,0,-0.926,0.377,0,-45.656,0.016,1.023,-0.297,0,-0.632,0.775,0,57.303,0.016,0.944,-0.681,0,-0.604,0.797,0,-85.944,0.109,0.944,-0.681,-0.563,-0.427,0.564,0.427,-89.954,0.109,0.918,-0.772,-0.563,-0.427,0.564,0.427,0,0.109,0.839,-0.75,-0.7,0.096,0.701,-0.097,0,0.5,0.644,-0.5,0,0,0,1,0,-0.5,0.64,-0.5,0,0,0,1,0
13.861,0,0.719,0,0,-1,0,0,-0.023,0.136,0.719,0,0,-0.926,0.377,0,-45.656,0.016,1.023,-0.297,0,-0.632,0.775,0,57.303,0.016,0.944,-0.681,0,-0.604,0.797,0,-85.944,0.109,0.944,-0.681,-0.563,-0.427,0.564,0.427,-89.954,0.109,0.918,-0.772,-0.563,-0.427,0.564,0.427,0,0.109,0.839,-0.75,-0.7,0.096,0.701,-0.097,0,0.5,0.644,-0.5,0,0,0,1,0,-0.5,0.64,-0.5,0,0,0,1,0
13.963,0,0.719,0,0,-1,0,0,-0.023,0.136,0.719,0,0,-0.926,0.377,0,-45.656,0.016,1.023,-0.297,0,-0.632,0.775,0,57.303,0.016,0.944,-0.681,0,-0.604,0.797,0,-85.944,0.109,0.944,-0.681,-0.563,-0.427,0.564,0.427,-89.954,0.109,0.918,-0.772,-0.563,-0.427,0.564,0.427,0,0.109,0.839,-0.75,-0.7,0.096,0.701,-0.097,0,0.5,0.644,-0.5,0,0,0,1,0,-0.5,0.64,-0.5,0,0,0,1,0
14.066,0,0.719,0,0,-1,0,0,-0.023,0.136,0.719,0,0,-0.926,0.377,0,-45.656,0.016,1.023,-0.297,0,-0.632,0.775,0,57.303,0.016,0.944,-0.681,0,-0.604,0.797,0,-85.944,0.109,0.944,-0.681,-0.563,-0.427,0.564,0.427,-89.954,0.109,0.918,-0.772,-0.563,-0.427,0.564,0.427,0,0.109,0.839,-0.75,-0.7,0.096,0.701,-0.097,0,0.5,0.644,-0.5,0,0,0,1,0,-0.5,0.64,-0.5,0,0,0,1,0
14.169,0,0.719,0,0,-1,0,0,-0.023,0.136,0.719,0,0,-0.926,0.377,0,-45.656,0.016,1.023,-0.297,0,-0.632,0.775,0,57.303,0.016,0.944,-0.681,0,-0.604,0.797,0,-85.944,0.109,0.944,-0.681,-0.563,-0.427,0.564,0.427,-89.954,0.109,0.918,-0.772,-0.563,-0.427,0.564,0.427,0,0.109,0.839,-0.75,-0.7,0.096,0.701,-0.097,0,0.5,0.644,-0.5,0,0,0,1,0,-0.5,0.64,-0.5,0,0,0,1,0
14.271,0,0.719,0,0,-1,0,0,-0.023,0.136,0.719,0,0,-0.926,0.377,0,-45.656,0.016,1.023,-0.297,0,-0.632,0.775,0,57.303,0.016,0.944,-0.681,0,-0.604,0.797,0,-85.944,0.109,0.944,-0.681,-0.563,-0.427,0.564,0.427,-89.954,0.109,0.918,-0.772,-0.563,-0.427,0.564,0.427,0,0.109,0.839,-0.75,-0.7,0.096,0.701,-0.097,0,0.5,0.644,-0.5,0,0,0,1,0,-0.5,0.64,-0.5,0,0,0,1,0
14.372,0,0.719,0,0,-1,0,0,-0.023,0.136,0.719,0,0,-0.926,0.377,0,-45.656,0.016,1.023,-0.297,0,-0.632,0.775,0,57.303,0.016,0.944,-0.681,0,-0.604,0.797,0,-85.944,0.109,0.944,-0.681,-0.563,-0.427,0.564,0.427,-89.954,0.109,0.918,-0.772,-0.563,-0.427,0.564,0.427,0,0.109,0.839,-0.75,-0.7,0.096,0.701,-0.097,0,0.5,0.644,-0.5,0,0,0,1,0,-0.5,0.64,-0.5,0,0,0,1,0
14.472,0,0.719,0,0,-1,0,0,-0.023,0.136,0.719,0,0,-0.926,0.377,0,-45.656,0.016,1.023,-0.297,0,-0.632,0.775,0,57.303,0.016,0.944,-0.681,0,-0.604,0.797,0,-85.944,0.109,0.944,-0.681,-0.563,-0.427,0.564,0.427,-89.954,0.109,0.918,-0.772,-0.563,-0.427,0.564,0.427,0,0.109,0.839,-0.75,-0.7,0.096,0.701,-0.097,0,0.5,0.644,-0.5,0,0,0,1,0,-0.5,0.64,-0.5,0,0,0,1,0
14.575,0,0.719,0,0,-1,0,0,-0.023,0.136,0.719,0,0,-0.926,0.377,0,-45.656,0.016,1.023,-0.297,0,-0.632,0.775,0,57.303,0.016,0.944,-0.681,0,-0.604,0.797,0,-85.944,0.109,0.944,-0.681,-0.563,-0.427,0.564,0.427,-89.954,0.109,0.918,-0.772,-0.563,-0.427,0.564,0.427,0,0.109,0.839,-0.75,-0.7,0.096,0.701,-0.097,0,0.5,0.644,-0.5,0,0,0,1,0,-0.5,0.64,-0.5,0,0,0,1,0
14.676,0,0.719,0,0,-1,0,0,-0.023,0.136,0.719,0,0,-0.926,0.377,0,-45.656,0.016,1.023,-0.297,0,-0.632,0.775,0,57.303,0.016,0.944,-0.681,0,-0.604,0.797,0,-85.944,0.109,0.944,-0.681,-0.563,-0.427,0.564,0.427,-89.954,0.109,0.918,-0.772,-0.563,-0.427,0.564,0.427,0,0.109,0.839,-0.75,-0.7,0.096,0.701,-0.097,0,0.5,0.644,-0.5,0,0,0,1,0,-0.5,0.64,-0.5,0,0,0,1,0
14.778,0,0.719,0,0,-1,0,0,-0.023,0.136,0.719,0,0,-0.926,0.377,0,-45.656,0.016,1.023,-0.297,0,-0.632,0.775,0,57.303,0.016,0.944,-0.681,0,-0.604,0.797,0,-85.944,0.109,0.944,-0.681,-0.563,-0.427,0.564,0.427,-89.954,0.109,0.918,-0.772,-0.563,-0.427,0.564,0.427,0,0.109,0.839,-0.75,-0.7,0.096,0.701,-0.097,0,0.5,0.644,-0.5,0,0,0,1,0,-0.5,0.64,-0.5,0,0,0,1,0
14.881,0,0.719,0,0,-1,0,0,-0.023,0.136,0.719,0,0,-0.926,0.377,0,-45.656,0.016,1.023,-0.297,0,-0.632,0.775,0,57.303,0.016,0.944,-0.681,0,-0.604,0.797,0,-85.944,0.109,0.944,-0.681,-0.563,-0.427,0.564,0.427,-89.954,0.109,0.918,-0.772,-0.563,-0.427,0.564,0.427,0,0.109,0.839,-0.75,-0.7,0.096,0.701,-0.097,0,0.5,0.644,-0.5,0,0,0,1,0,-0.5,0.64,-0.5,0,0,0,1,0
14.982,0,0.719,0,0,-1,0,0,-0.023,0.136,0.719,0,0,-0.926,0.377,0,-45.656,0.016,1.023,-0.297,0,-0.632,0.775,0,57.303,0.016,0.944,-0.681,0,-0.604,0.797,0,-85.944,0.109,0.944,-0.681,-0.563,-0.427,0.564,0.427,-89.954,0.109,0.918,-0.772,-0.563,-0.427,0.564,0.427,0,0.109,0.839,-0.75,-0.7,0.096,0.701,-0.097,0,0.5,0.644,-0.5,0,0,0,1,0,-0.5,0.64,-0.5,0,0,0,1,0
15.087,0,0.719,0,0,-1,0,0,-0.023,0.136,0.719,0,0,-0.926,0.377,0,-45.656,0.016,1.023,-0.297,0,-0.632,0.775,0,57.303,0.016,0.944,-0.681,0,-0.604,0.797,0,-85.944,0.109,0.944,-0.681,-0.563,-0.427,0.564,0.427,-89.954,0.109,0.918,-0.772,-0.563,-0.427,0.564,0.427,0,0.109,0.839,-0.75,-0.7,0.096,0.701,-0.097,0,0.5,0.644,-0.5,0,0,0,1,0,-0.5,0.64,-0.5,0,0,0,1,0
15.189,0,0.719,0,0,-1,0,0,-0.023,0.136,0.719,0,0,-0.926,0.377,0,-45.656,0.016,1.023,-0.297,0,-0.632,0.775,0,57.303,0.016,0.944,-0.681,0,-0.604,0.797,0,-85.944,0.109,0.944,-0.681,-0.563,-0.427,0.564,0.427,-89.954,0.109,0.918,-0.772,-0.563,-0.427,0.564,0.427,0,0.109,0.839,-0.75,-0.7,0.096,0.701,-0.097,0,0.5,0.644,-0.5,0,0,0,1,0,-0.5,0.64,-0.5,0,0,0,1,0
15.289,0,0.719,0,0,-1,0,0,-0.023,0.136,0.719,0,0,-0.926,0.377,0,-45.656,0.016,1.023,-0.297,0,-0.632,0.775,0,57.303,0.016,0.944,-0.681,0,-0.604,0.797,0,-85.944,0.109,0.944,-0.681,-0.563,-0.427,0.564,0.427,-89.954,0.109,0.918,-0.772,-0.563,-0.427,0.564,0.427,0,0.109,0.839,-0.75,-0.7,0.096,0.701,-0.097,0,0.5,0.644,-0.5,0,0,0,1,0,-0.5,0.64,-0.5,0,0,0,1,0
15.39,0,0.719,0,0,-1,0,0,-0.023,0.136,0.719,0,0,-0.926,0.377,0,-45.656,0.016,1.023,-0.297,0,-0.632,0.775,0,57.303,0.016,0.944,-0.681,0,-0.604,0.797,0,-85.944,0.109,0.944,-0.681,-0.563,-0.427,0.564,0.427,-89.954,0.109,0.918,-0.772,-0.563,-0.427,0.564,0.427,0,0.109,0.839,-0.75,-0.7,0.096,0.701,-0.097,0,0.5,0.644,-0.5,0,0,0,1,0,-0.5,0.64,-0.5,0,0,0,1,0
15.492,0,0.719,0,0,-1,0,0,-0.023,0.136,0.719,0,0,-0.926,0.377,0,-45.656,0.016,1.023,-0.297,0,-0.632,0.775,0,57.303,0.016,0.944,-0.681,0,-0.604,0.797,0,-85.944,0.109,0.944,-0.681,-0.563,-0.427,0.564,0.427,-89.954,0.109,0.918,-0.772,-0.563,-0.427,0.564,0.427,0,0.109,0.839,-0.75,-0.7,0.096,0.701,-0.097,0,0.5,0.644,-0.5,0,0,0,1,0,-0.5,0.64,-0.5,0,0,0,1,0
15.596,0,0.719,0,0,-1,0,0,-0.023,0.136,0.719,0,0,-0.926,0.377,0,-45.656,0.016,1.023,-0.297,0,-0.632,0.775,0,57.303,0.016,0.944,-0.681,0,-0.604,0.797,0,-85.944,0.109,0.944,-0.681,-0.563,-0.427,0.564,0.427,-89.954,0.109,0.918,-0.772,-0.563,-0.427,0.564,0.427,0,0.109,0.839,-0.75,-0.7,0.096,0.701,-0.097,0,0.5,0.644,-0.5,0,0,0,1,0,-0.5,0.64,-0.5,0,0,0,1,0
15.697,0,0.719,0,0,-1,0,0,-0.023,0.136,0.719,0,0,-0.926,0.377,0,-45.656,0.016,1.023,-0.297,0,-0.632,0.775,0,57.303,0.016,0.944,-0.681,0,-0.604,0.797,0,-85.944,0.109,0.944,-0.681,-0.563,-0.427,0.564,0.427,-89.954,0.109,0.918,-0.772,-0.563,-0.427,0.564,0.427,0,0.109,0.839,-0.75,-0.7,0.096,0.701,-0.097,0,0.5,0.644,-0.5,0,0,0,1,0,-0.5,0.64,-0.5,0,0,0,1,0
15.798,0,0.719,0,0,-1,0,0,-0.023,0.136,0.719,0,0,-0.926,0.377,0,-45.656,0.016,1.023,-0.297,0,-0.632,0.775,0,57.303,0.016,0.944,-0.681,0,-0.604,0.797,0,-85.944,0.109,0.944,-0.681,-0.563,-0.427,0.564,0.427,-89.954,0.109,0.918,-0.772,-0.563,-0.427,0.564,0.427,0,0.109,0.839,-0.75,-0.7,0.096,0.701,-0.097,0,0.5,0.644,-0.5,0,0,0,1,0,-0.5,0.64,-0.5,0,0,0,1,0
15.9,0,0.719,0,0,-1,0,0,-0.023,0.136,0.719,0,0,-0.926,0.377,0,-45.656,0.016,1.023,-0.297,0,-0.632,0.775,0,57.303,0.016,0.944,-0.681,0,-0.604,0.797,0,-85.944,0.109,0.944,-0.681,-0.563,-0.427,0.564,0.427,-89.954,0.109,0.918,-0.772,-0.563,-0.427,0.564,0.427,0,0.109,0.839,-0.75,-0.7,0.096,0.701,-0.097,0,0.5,0.644,-0.5,0,0,0,1,0,-0.5,0.64,-0.5,0,0,0,1,0
16.003,0,0.719,0,0,-1,0,0,-0.023,0.136,0.719,0,0,-0.926,0.377,0,-45.656,0.016,1.023,-0.297,0,-0.632,0.775,0,57.303,0.016,0.944,-0.681,0,-0.604,0.797,0,-85.944,0.109,0.944,-0.681,-0.563,-0.427,0.564,0.427,-89.954,0.109,0.918,-0.772,-0.563,-0.427,0.564,0.427,0,0.109,0.839,-0.75,-0.7,0.096,0.701,-0.097,0,0.5,0.644,-0.5,0,0,0,1,0,-0.5,0.64,-0.5,0,0,0,1,0
16.104,0,0.719,0,0,-1,0,0,-0.023,0.136,0.719,0,0,-0.926,0.377,0,-45.656,0.016,1.023,-0.297,0,-0.632,0.775,0,57.303,0.016,0.944,-0.681,0,-0.604,0.797,0,-85.944,0.109,0.944,-0.681,-0.563,-0.427,0.564,0.427,-89.954,0.109,0.918,-0.772,-0.563,-0.427,0.564,0.427,0,0.109,0.839,-0.75,-0.7,0.096,0.701,-0.097,0,0.5,0.644,-0.5,0,0,0,1,0,-0.5,0.64,-0.5,0,0,0,1,0
16.207,0,0.719,0,0,-1,0,0,-0.023,0.136,0.719,0,0,-0.926,0.377,0,-45.656,0.016,1.023,-0.297,0,-0.632,0.775,0,57.303,0.016,0.944,-0.681,0,-0.604,0.797,0,-85.944,0.109,0.944,-0.681,-0.563,-0.427,0.564,0.427,-89.954,0.109,0.918,-0.772,-0.563,-0.427,0.564,0.427,0,0.109,0.839,-0.75,-0.7,0.096,0.701,-0.097,0,0.5,0.644,-0.5,0,0,0,1,0,-0.5,0.64,-0.5,0,0,0,1,0
16.311,0,0.719,0,0,-1,0,0,-0.023,0.136,0.719,0,0,-0.926,0.377,0,-45.656,0.016,1.023,-0.297,0,-0.632,0.775,0,57.303,0.016,0.944,-0.681,0,-0.604,0.797,0,-85.944,0.109,0.944,-0.681,-0.563,-0.427,0.564,0.427,-89.954,0.109,0.918,-0.772,-0.563,-0.427,0.564,0.427,0,0.109,0.839,-0.75,-0.7,0.096,0.701,-0.097,0,0.5,0.644,-0.5,0,0,0,1,0,-0.5,0.64,-0.5,0,0,0,1,0
16.412,0,0.719,0,0,-1,0,0,-0.023,0.136,0.719,0,0,-0.926,0.377,0,-45.656,0.016,1.023,-0.297,0,-0.632,0.775,0,57.303,0.016,0.944,-0.681,0,-0.604,0.797,0,-85.944,0.109,0.944,-0.681,-0.563,-0.427,0.564,0.427,-89.954,0.109,0.918,-0.772,-0.563,-0.427,0.564,0.427,0,0.109,0.839,-0.75,-0.7,0.096,0.701,-0.097,0,0.5,0.644,-0.5,0,0,0,1,0,-0.5,0.64,-0.5,0,0,0,1,0
16.514,0,0.719,0,0,-1,0,0,-0.023,0.136,0.719,0,0,-0.926,0.377,0,-45.656,0.016,1.023,-0.297,0,-0.632,0.775,0,57.303,0.016,0.944,-0.681,0,-0.604,0.797,0,-85.944,0.109,0.944,-0.681,-0.563,-0.427,0.564,0.427,-89.954,0.109,0.918,-0.772,-0.563,-0.427,0.564,0.427,0,0.109,0.839,-0.75,-0.7,0.096,0.701,-0.097,0,0.5,0.644,-0.5,0,0,0,1,0,-0.5,0.64,-0.5,0,0,0,1,0
16.615,0,0.719,0,0,-1,0,0,-0.023,0.136,0.719,0,0,-0.926,0.377,0,-45.656,0.016,1.023,-0.297,0,-0.632,0.775,0,57.303,0.016,0.944,-0.681,0,-0.604,0.797,0,-85.944,0.109,0.944,-0.681,-0.563,-0.427,0.564,0.427,-89.954,0.109,0.918,-0.772,-0.563,-0.427,0.564,0.427,0,0.109,0.839,-0.75,-0.7,0.096,0.701,-0.097,0,0.5,0.644,-0.5,0,0,0,1,0,-0.5,0.64,-0.5,0,0,0,1,0
16.724,0,0.719,0,0,-1,0,0,-0.023,0.136,0.719,0,0,-0.926,0.377,0,-45.656,0.016,1.023,-0.297,0,-0.632,0.775,0,57.303,0.016,0.944,-0.681,0,-0.604,0.797,0,-85.944,0.109,0.944,-0.681,-0.563,-0.427,0.564,0.427,-89.954,0.109,0.918,-0.772,-0.563,-0.427,0.564,0.427,0,0.109,0.839,-0.75,-0.7,0.096,0.701,-0.097,0,0.5,0.644,-0.5,0,0,0,1,0,-0.5,0.64,-0.5,0,0,0,1,0
16.83,0,0.719,0,0,-1,0,0,-0.023,0.136,0.719,0,0,-0.926,0.377,0,-45.656,0.016,1.023,-0.297,0,-0.632,0.775,0,57.303,0.016,0.944,-0.681,0,-0.604,0.797,0,-85.944,0.109,0.944,-0.681,-0.563,-0.427,0.564,0.427,-89.954,0.109,0.918,-0.772,-0.563,-0.427,0.564,0.427,0,0.109,0.839,-0.75,-0.7,0.096,0.701,-0.097,0,0.5,0.644,-0.5,0,0,0,1,0,-0.5,0.64,-0.5,0,0,0,1,0
17.017,0,0.719,0,0,-1,0,0,-0.023,0.136,0.719,0,0,-0.926,0.377,0,-45.656,0.016,1.023,-0.297,0,-0.632,0.775,0,57.303,0.016,0.944,-0.681,0,-0.604,0.797,0,-85.944,0.109,0.944,-0.681,-0.563,-0.427,0.564,0.427,-89.954,0.109,0.918,-0.772,-0.563,-0.427,0.564,0.427,0,0.109,0.839,-0.75,-0.7,0.096,0.701,-0.097,0,0.5,0.644,-0.5,0,0,0,1,0,-0.5,0.64,-0.5,0,0,0,1,0
17.125,0,0.719,0,0,-1,0,0,-0.023,0.136,0.719,0,0,-0.926,0.377,0,-45.656,0.016,1.023,-0.297,0,-0.632,0.775,0,57.303,0.016,0.944,-0.681,0,-0.604,0.797,0,-85.944,0.109,0.944,-0.681,-0.563,-0.427,0.564,0.427,-89.954,0.109,0.918,-0.772,-0.563,-0.427,0.564,0.427,0,0.109,0.839,-0.75,-0.7,0.096,0.701,-0.097,0,0.5,0.644,-0.5,0,0,0,1,0,-0.5,0.64,-0.5,0,0,0,1,0
17.232,0,0.719,0,0,-1,0,0,-0.023,0.136,0.719,0,0,-0.926,0.377,0,-45.656,0.016,1.023,-0.297,0,-0.632,0.775,0,57.303,0.016,0.944,-0.681,0,-0.604,0.797,0,-85.944,0.109,0.944,-0.681,-0.563,-0.427,0.564,0.427,-89.954,0.109,0.918,-0.772,-0.563,-0.427,0.564,0.427,0,0.109,0.839,-0.75,-0.7,0.096,0.701,-0.097,0,0.5,0.644,-0.5,0,0,0,1,0,-0.5,0.64,-0.5,0,0,0,1,0
17.342,0,0.719,0,0,-1,0,0,-0.023,0.136,0.719,0,0,-0.926,0.377,0,-45.656,0.016,1.023,-0.297,0,-0.632,0.775,0,57.303,0.016,0.944,-0.681,0,-0.604,0.797,0,-85.944,0.109,0.944,-0.681,-0.563,-0.427,0.564,0.427,-89.954,0.109,0.918,-0.772,-0.563,-0.427,0.564,0.427,0,0.109,0.839,-0.75,-0.7,0.096,0.701,-0.097,0,0.5,0.644,-0.5,0,0,0,1,0,-0.5,0.64,-0.5,0,0,0,1,0
17.445,0,0.719,0,0,-1,0,0,-0.023,0.136,0.719,0,0,-0.926,0.377,0,-45.656,0.016,1.023,-0.297,0,-0.632,0.775,0,57.303,0.016,0.944,-0.681,0,-0.604,0.797,0,-85.944,0.109,0.944,-0.681,-0.563,-0.427,0.564,0.427,-89.954,0.109,0.918,-0.772,-0.563,-0.427,0.564,0.427,0,0.109,0.839,-0.75,-0.7,0.096,0.701,-0.097,0,0.5,0.644,-0.5,0,0,0,1,0,-0.5,0.64,-0.5,0,0,0,1,0
17.549,0,0.719,0,0,-1,0,0,-0.023,0.136,0.719,0,0,-0.926,0.377,0,-45.656,0.016,1.023,-0.297,0,-0.632,0.775,0,57.303,0.016,0.944,-0.681,0,-0.604,0.797,0,-85.944,0.109,0.944,-0.681,-0.563,-0.427,0.564,0.427,-89.954,0.109,0.918,-0.772,-0.563,-0.427,0.564,0.427,0,0.109,0.839,-0.75,-0.7,0.096,0.701,-0.097,0,0.5,0.644,-0.5,0,0,0,1,0,-0.5,0.64,-0.5,0,0,0,1,0
17.651,0,0.719,0,0,-1,0,0,-0.023,0.136,0.719,0,0,-0.926,0.377,0,-45.656,0.016,1.023,-0.297,0,-0.632,0.775,0,57.303,0.016,0.944,-0.681,0,-0.604,0.797,0,-85.944,0.109,0.944,-0.681,-0.563,-0.427,0.564,0.427,-89.954,0.109,0.918,-0.772,-0.563,-0.427,0.564,0.427,0,0.109,0.839,-0.75,-0.7,0.096,0.701,-0.097,0,0.5,0.644,-0.5,0,0,0,1,0,-0.5,0.64,-0.5,0,0,0,1,0
17.758,0,0.719,0,0,-1,0,0,-0.023,0.136,0.719,0,0,-0.926,0.377,0,-45.656,0.016,1.023,-0.297,0,-0.632,0.775,0,57.303,0.016,0.944,-0.681,0,-0.604,0.797,0,-85.944,0.109,0.944,-0.681,-0.563,-0.427,0.564,0.427,-89.954,0.109,0.918,-0.772,-0.563,-0.427,0.564,0.427,0,0.109,0.839,-0.75,-0.7,0.096,0.701,-0.097,0,0.5,0.644,-0.5,0,0,0,1,0,-0.5,0.64,-0.5,0,0,0,1,0
17.866,0,0.719,0,0,-1,0,0,-0.023,0.136,0.719,0,0,-0.926,0.377,0,-45.656,0.016,1.023,-0.297,0,-0.632,0.775,0,57.303,0.016,0.944,-0.681,0,-0.604,0.797,0,-85.944,0.109,0.944,-0.681,-0.563,-0.427,0.564,0.427,-89.954,0.109,0.918,-0.772,-0.563,-0.427,0.564,0.427,0,0.109,0.839,-0.75,-0.7,0.096,0.701,-0.097,0,0.5,0.644,-0.5,0,0,0,1,0,-0.5,0.64,-0.5,0,0,0,1,0
17.971,0,0.719,0,0,-1,0,0,-0.023,0.136,0.719,0,0,-0.926,0.377,0,-45.656,0.016,1.023,-0.297,0,-0.632,0.775,0,57.303,0.016,0.944,-0.681,0,-0.604,0.797,0,-85.944,0.109,0.944,-0.681,-0.563,-0.427,0.564,0.427,-89.954,0.109,0.918,-0.772,-0.563,-0.427,0.564,0.427,0,0.109,0.839,-0.75,-0.7,0.096,0.701,-0.097,0,0.5,0.644,-0.5,0,0,0,1,0,-0.5,0.64,-0.5,0,0,0,1,0
18.078,0,0.719,0,0,-1,0,0,-0.023,0.136,0.719,0,0,-0.926,0.377,0,-45.656,0.016,1.023,-0.297,0,-0.632,0.775,0,57.303,0.016,0.944,-0.681,0,-0.604,0.797,0,-85.944,0.109,0.944,-0.681,-0.563,-0.427,0.564,0.427,-89.954,0.109,0.918,-0.772,-0.563,-0.427,0.564,0.427,0,0.109,0.839,-0.75,-0.7,0.096,0.701,-0.097,0,0.5,0.644,-0.5,0,0,0,1,0,-0.5,0.64,-0.5,0,0,0,1,0
18.178,0,0.719,0,0,-1,0,0,-0.023,0.136,0.719,0,0,-0.926,0.377,0,-45.656,0.016,1.023,-0.297,0,-0.632,0.775,0,57.303,0.016,0.944,-0.681,0,-0.604,0.797,0,-85.944,0.109,0.944,-0.681,-0.563,-0.427,0.564,0.427,-89.954,0.109,0.918,-0.772,-0.563,-0.427,0.564,0.427,0,0.109,0.839,-0.75,-0.7,0.096,0.701,-0.097,0,0.5,0.644,-0.5,0,0,0,1,0,-0.5,0.64,-0.5,0,0,0,1,0
18.286,0,0.719,0,0,-1,0,0,-0.023,0.136,0.719,0,0,-0.926,0.377,0,-45.656,0.016,1.023,-0.297,0,-0.632,0.775,0,57.303,0.016,0.944,-0.681,0,-0.604,0.797,0,-85.944,0.109,0.944,-0.681,-0.563,-0.427,0.564,0.427,-89.954,0.109,0.918,-0.772,-0.563,-0.427,0.564,0.427,0,0.109,0.839,-0.75,-0.7,0.096,0.701,-0.097,0,0.5,0.644,-0.5,0,0,0,1,0,-0.5,0.64,-0.5,0,0,0,1,0
18.39,0,0.719,0,0,-1,0,0,-0.023,0.136,0.719,0,0,-0.926,0.377,0,-45.656,0.016,1.023,-0.297,0,-0.632,0.775,0,57.303,0.016,0.944,-0.681,0,-0.604,0.797,0,-85.944,0.109,0.944,-0.681,-0.563,-0.427,0.564,0.427,-89.954,0.109,0.918,-0.772,-0.563,-0.427,0.564,0.427,0,0.109,0.839,-0.75,-0.7,0.096,0.701,-0.097,0,0.5,0.644,-0.5,0,0,0,1,0,-0.5,0.64,-0.5,0,0,0,1,0
18.493,0,0.719,0,0,-1,0,0,-0.023,0.136,0.719,0,0,-0.926,0.377,0,-45.656,0.016,1.023,-0.297,0,-0.632,0.775,0,57.303,0.016,0.944,-0.681,0,-0.604,0.797,0,-85.944,0.109,0.944,-0.681,-0.563,-0.427,0.564,0.427,-89.954,0.109,0.918,-0.772,-0.563,-0.427,0.564,0.427,0,0.109,0.839,-0.75,-0.7,0.096,0.701,-0.097,0,0.5,0.644,-0.5,0,0,0,1,0,-0.5,0.64,-0.5,0,0,0,1,0
18.594,0,0.719,0,0,-1,0,0,-0.023,0.136,0.719,0,0,-0.926,0.377,0,-45.656,0.016,1.023,-0.297,0,-0.632,0.775,0,57.303,0.016,0.944,-0.681,0,-0.604,0.797,0,-85.944,0.109,0.944,-0.681,-0.563,-0.427,0.564,0.427,-89.954,0.109,0.918,-0.772,-0.563,-0.427,0.564,0.427,0,0.109,0.839,-0.75,-0.7,0.096,0.701,-0.097,0,0.5,0.644,-0.5,0,0,0,1,0,-0.5,0.64,-0.5,0,0,0,1,0
18.698,0,0.719,0,0,-1,0,0,-0.023,0.136,0.719,0,0,-0.926,0.377,0,-45.656,0.016,1.023,-0.297,0,-0.632,0.775,0,57.303,0.016,0.944,-0.681,0,-0.604,0.797,0,-85.944,0.109,0.944,-0.681,-0.563,-0.427,0.564,0.427,-89.954,0.109,0.918,-0.772,-0.563,-0.427,0.564,0.427,0,0.109,0.839,-0.75,-0.7,0.096,0.701,-0.097,0,0.5,0.644,-0.5,0,0,0,1,0,-0.5,0.64,-0.5,0,0,0,1,0
18.799,0,0.719,0,0,-1,0,0,-0.023,0.136,0.719,0,0,-0.926,0.377,0,-45.656,0.016,1.023,-0.297,0,-0.632,0.775,0,57.303,0.016,0.944,-0.681,0,-0.604,0.797,0,-85.944,0.109,0.944,-0.681,-0.563,-0.427,0.564,0.427,-89.954,0.109,0.918,-0.772,-0.563,-0.427,0.564,0.427,0,0.109,0.839,-0.75,-0.7,0.096,0.701,-0.097,0,0.5,0.644,-0.5,0,0,0,1,0,-0.5,0.64,-0.5,0,0,0,1,0
18.903,0,0.719,0,0,-1,0,0,-0.023,0.136,0.719,0,0,-0.926,0.377,0,-45.656,0.016,1.023,-0.297,0,-0.632,0.775,0,57.303,0.016,0.944,-0.681,0,-0.604,0.797,0,-85.944,0.109,0.944,-0.681,-0.563,-0.427,0.564,0.427,-89.954,0.109,0.918,-0.772,-0.563,-0.427,0.564,0.427,0,0.109,0.839,-0.75,-0.7,0.096,0.701,-0.097,0,0.5,0.644,-0.5,0,0,0,1,0,-0.5,0.64,-0.5,0,0,0,1,0
19.008,0,0.719,0,0,-1,0,0,-0.023,0.136,0.719,0,0,-0.926,0.377,0,-45.656,0.016,1.023,-0.297,0,-0.632,0.775,0,57.303,0.016,0.944,-0.681,0,-0.604,0.797,0,-85.944,0.109,0.944,-0.681,-0.563,-0.427,0.564,0.427,-89.954,0.109,0.918,-0.772,-0.563,-0.427,0.564,0.427,0,0.109,0.839,-0.75,-0.7,0.096,0.701,-0.097,0,0.5,0.644,-0.5,0,0,0,1,0,-0.5,0.64,-0.5,0,0,0,1,0
19.112,0,0.719,0,0,-1,0,0,-0.023,0.136,0.719,0,0,-0.926,0.377,0,-45.656,0.016,1.023,-0.297,0,-0.632,0.775,0,57.303,0.016,0.944,-0.681,0,-0.604,0.797,0,-85.944,0.109,0.944,-0.681,-0.563,-0.427,0.564,0.427,-89.954,0.109,0.918,-0.772,-0.563,-0.427,0.564,0.427,0,0.109,0.839,-0.75,-0.7,0.096,0.701,-0.097,0,0.5,0.644,-0.5,0,0,0,1,0,-0.5,0.64,-0.5,0,0,0,1,0
19.217,0,0.719,0,0,-1,0,0,-0.023,0.136,0.719,0,0,-0.926,0.377,0,-45.656,0.016,1.023,-0.297,0,-0.632,0.775,0,57.303,0.016,0.944,-0.681,0,-0.604,0.797,0,-85.944,0.109,0.944,-0.681,-0.563,-0.427,0.564,0.427,-89.954,0.109,0.918,-0.772,-0.563,-0.427,0.564,0.427,0,0.109,0.839,-0.75,-0.7,0.096,0.701,-0.097,0,0.5,0.644,-0.5,0,0,0,1,0,-0.5,0.64,-0.5,0,0,0,1,0
19.321,0,0.719,0,0,-1,0,0,-0.023,0.136,0.719,0,0,-0.926,0.377,0,-45.656,0.016,1.023,-0.297,0,-0.632,0.775,0,57.303,0.016,0.944,-0.681,0,-0.604,0.797,0,-85.944,0.109,0.944,-0.681,-0.563,-0.427,0.564,0.427,-89.954,0.109,0.918,-0.772,-0.563,-0.427,0.564,0.427,0,0.109,0.839,-0.75,-0.7,0.096,0.701,-0.097,0,0.5,0.644,-0.5,0,0,0,1,0,-0.5,0.64,-0.5,0,0,0,1,0
19.426,0,0.719,0,0,-1,0,0,-0.023,0.136,0.719,0,0,-0.926,0.377,0,-45.656,0.016,1.023,-0.297,0,-0.632,0.775,0,57.303,0.016,0.944,-0.681,0,-0.604,0.797,0,-85.944,0.109,0.944,-0.681,-0.563,-0.427,0.564,0.427,-89.954,0.109,0.918,-0.772,-0.563,-0.427,0.564,0.427,0,0.109,0.839,-0.75,-0.7,0.096,0.701,-0.097,0,0.5,0.644,-0.5,0,0,0,1,0,-0.5,0.64,-0.5,0,0,0,1,0
19.527,0,0.719,0,0,-1,0,0,-0.023,0.136,0.719,0,0,-0.926,0.377,0,-45.656,0.016,1.023,-0.297,0,-0.632,0.775,0,57.303,0.016,0.944,-0.681,0,-0.604,0.797,0,-85.944,0.109,0.944,-0.681,-0.563,-0.427,0.564,0.427,-89.954,0.109,0.918,-0.772,-0.563,-0.427,0.564,0.427,0,0.109,0.839,-0.75,-0.7,0.096,0.701,-0.097,0,0.5,0.644,-0.5,0,0,0,1,0,-0.5,0.64,-0.5,0,0,0,1,0
19.628,0,0.719,0,0,-1,0,0,-0.023,0.136,0.719,0,0,-0.926,0.377,0,-45.656,0.016,1.023,-0.297,0,-0.632,0.775,0,57.303,0.016,0.944,-0.681,0,-0.604,0.797,0,-85.944,0.109,0.944,-0.681,-0.563,-0.427,0.564,0.427,-89.954,0.109,0.918,-0.772,-0.563,-0.427,0.564,0.427,0,0.109,0.839,-0.75,-0.7,0.096,0.701,-0.097,0,0.5,0.644,-0.5,0,0,0,1,0,-0.5,0.64,-0.5,0,0,0,1,0
19.731,0,0.719,0,0,-1,0,0,-0.023,0.136,0.719,0,0,-0.926,0.377,0,-45.656,0.016,1.023,-0.297,0,-0.632,0.775,0,57.303,0.016,0.944,-0.681,0,-0.604,0.797,0,-85.944,0.109,0.944,-0.681,-0.563,-0.427,0.564,0.427,-89.954,0.109,0.918,-0.772,-0.563,-0.427,0.564,0.427,0,0.109,0.839,-0.75,-0.7,0.096,0.701,-0.097,0,0.5,0.644,-0.5,0,0,0,1,0,-0.5,0.64,-0.5,0,0,0,1,0
19.833,0,0.719,0,0,-1,0,0,-0.023,0.136,0.719,0,0,-0.926,0.377,0,-45.656,0.016,1.023,-0.297,0,-0.632,0.775,0,57.303,0.016,0.944,-0.681,0,-0.604,0.797,0,-85.944,0.109,0.944,-0.681,-0.563,-0.427,0.564,0.427,-89.954,0.109,0.918,-0.772,-0.563,-0.427,0.564,0.427,0,0.109,0.839,-0.75,-0.7,0.096,0.701,-0.097,0,0.5,0.644,-0.5,0,0,0,1,0,-0.5,0.64,-0.5,0,0,0,1,0
19.934,0,0.719,0,0,-1,0,0,-0.023,0.136,0.719,0,0,-0.926,0.377,0,-45.656,0.016,1.023,-0.297,0,-0.632,0.775,0,57.303,0.016,0.944,-0.681,0,-0.604,0.797,0,-85.944,0.109,0.944,-0.681,-0.563,-0.427,0.564,0.427,-89.954,0.109,0.918,-0.772,-0.563,-0.427,0.564,0.427,0,0.109,0.839,-0.75,-0.7,0.096,0.701,-0.097,0,0.5,0.644,-0.5,0,0,0,1,0,-0.5,0.64,-0.5,0,0,0,1,0
20.035,0,0.719,0,0,-1,0,0,-0.023,0.136,0.719,0,0,-0.926,0.377,0,-45.656,0.016,1.023,-0.297,0,-0.632,0.775,0,57.303,0.016,0.944,-0.681,0,-0.604,0.797,0,-85.944,0.109,0.944,-0.681,-0.563,-0.427,0.564,0.427,-89.954,0.109,0.918,-0.772,-0.563,-0.427,0.564,0.427,0,0.109,0.839,-0.75,-0.7,0.096,0.701,-0.097,0,0.5,0.644,-0.5,0,0,0,1,0,-0.5,0.64,-0.5,0,0,0,1,0
20.136,0,0.719,0,0,-1,0,0,-0.023,0.136,0.719,0,0,-0.926,0.377,0,-45.656,0.016,1.023,-0.297,0,-0.632,0.775,0,57.303,0.016,0.944,-0.681,0,-0.604,0.797,0,-85.944,0.109,0.944,-0.681,-0.563,-0.427,0.564,0.427,-89.954,0.109,0.918,-0.772,-0.563,-0.427,0.564,0.427,0,0.109,0.839,-0.75,-0.7,0.096,0.701,-0.097,0,0.5,0.644,-0.5,0,0,0,1,0,-0.5,0.64,-0.5,0,0,0,1,0
20.238,0,0.719,0,0,-1,0,0,-0.023,0.136,0.719,0,0,-0.926,0.377,0,-45.656,0.016,1.023,-0.297,0,-0.632,0.775,0,57.303,0.016,0.944,-0.681,0,-0.604,0.797,0,-85.944,0.109,0.944,-0.681,-0.563,-0.427,0.564,0.427,-89.954,0.109,0.918,-0.772,-0.563,-0.427,0.564,0.427,0,0.109,0.839,-0.75,-0.7,0.096,0.701,-0.097,0,0.5,0.644,-0.5,0,0,0,1,0,-0.5,0.64,-0.5,0,0,0,1,0
20.34,0,0.719,0,0,-1,0,0,-0.023,0.136,0.719,0,0,-0.926,0.377,0,-45.656,0.016,1.023,-0.297,0,-0.632,0.775,0,57.303,0.016,0.944,-0.681,0,-0.604,0.797,0,-85.944,0.109,0.944,-0.681,-0.563,-0.427,0.564,0.427,-89.954,0.109,0.918,-0.772,-0.563,-0.427,0.564,0.427,0,0.109,0.839,-0.75,-0.7,0.096,0.701,-0.097,0,0.5,0.644,-0.5,0,0,0,1,0,-0.5,0.64,-0.5,0,0,0,1,0
20.445,0,0.719,0,0,-1,0,0,-0.023,0.136,0.719,0,0,-0.926,0.377,0,-45.656,0.016,1.023,-0.297,0,-0.632,0.775,0,57.303,0.016,0.944,-0.681,0,-0.604,0.797,0,-85.944,0.109,0.944,-0.681,-0.563,-0.427,0.564,0.427,-89.954,0.109,0.918,-0.772,-0.563,-0.427,0.564,0.427,0,0.109,0.839,-0.75,-0.7,0.096,0.701,-0.097,0,0.5,0.644,-0.5,0,0,0,1,0,-0.5,0.64,-0.5,0,0,0,1,0
20.548,0,0.719,0,0,-1,0,0,-0.023,0.136,0.719,0,0,-0.926,0.377,0,-45.656,0.016,1.023,-0.297,0,-0.632,0.775,0,57.303,0.016,0.944,-0.681,0,-0.604,0.797,0,-85.944,0.109,0.944,-0.681,-0.563,-0.427,0.564,0.427,-89.954,0.109,0.918,-0.772,-0.563,-0.427,0.564,0.427,0,0.109,0.839,-0.75,-0.7,0.096,0.701,-0.097,0,0.5,0.644,-0.5,0,0,0,1,0,-0.5,0.64,-0.5,0,0,0,1,0
20.649,0,0.719,0,0,-1,0,0,-0.023,0.136,0.719,0,0,-0.926,0.377,0,-45.656,0.016,1.023,-0.297,0,-0.632,0.775,0,57.303,0.016,0.944,-0.681,0,-0.604,0.797,0,-85.944,0.109,0.944,-0.681,-0.563,-0.427,0.564,0.427,-89.954,0.109,0.918,-0.772,-0.563,-0.427,0.564,0.427,0,0.109,0.839,-0.75,-0.7,0.096,0.701,-0.097,0,0.5,0.644,-0.5,0,0,0,1,0,-0.5,0.64,-0.5,0,0,0,1,0
20.751,0,0.719,0,0,-1,0,0,-0.023,0.136,0.719,0,0,-0.926,0.377,0,-45.656,0.016,1.023,-0.297,0,-0.632,0.775,0,57.303,0.016,0.944,-0.681,0,-0.604,0.797,0,-85.944,0.109,0.944,-0.681,-0.563,-0.427,0.564,0.427,-89.954,0.109,0.918,-0.772,-0.563,-0.427,0.564,0.427,0,0.109,0.839,-0.75,-0.7,0.096,0.701,-0.097,0,0.5,0.644,-0.5,0,0,0,1,0,-0.5,0.64,-0.5,0,0,0,1,0
20.855,0,0.719,0,0,-1,0,0,-0.023,0.136,0.719,0,0,-0.926,0.377,0,-45.656,0.016,1.023,-0.297,0,-0.632,0.775,0,57.303,0.016,0.944,-0.681,0,-0.604,0.797,0,-85.944,0.109,0.944,-0.681,-0.563,-0.427,0.564,0.427,-89.954,0.109,0.918,-0.772,-0.563,-0.427,0.564,0.427,0,0.109,0.839,-0.75,-0.7,0.096,0.701,-0.097,0,0.5,0.644,-0.5,0,0,0,1,0,-0.5,0.64,-0.5,0,0,0,1,0
20.958,0,0.719,0,0,-1,0,0,-0.023,0.136,0.719,0,0,-0.926,0.377,0,-45.656,0.016,1.023,-0.297,0,-0.632,0.775,0,57.303,0.016,0.944,-0.681,0,-0.604,0.797,0,-85.944,0.109,0.944,-0.681,-0.563,-0.427,0.564,0.427,-89.954,0.109,0.918,-0.772,-0.563,-0.427,0.564,0.427,0,0.109,0.839,-0.75,-0.7,0.096,0.701,-0.097,0,0.5,0.644,-0.5,0,0,0,1,0,-0.5,0.64,-0.5,0,0,0,1,0
21.06,0,0.719,0,0,-1,0,0,-0.023,0.136,0.719,0,0,-0.926,0.377,0,-45.656,0.016,1.023,-0.297,0,-0.632,0.775,0,57.303,0.016,0.944,-0.681,0,-0.604,0.797,0,-85.944,0.109,0.944,-0.681,-0.563,-0.427,0.564,0.427,-89.954,0.109,0.918,-0.772,-0.563,-0.427,0.564,0.427,0,0.109,0.839,-0.75,-0.7,0.096,0.701,-0.097,0,0.5,0.644,-0.5,0,0,0,1,0,-0.5,0.64,-0.5,0,0,0,1,0
21.162,0,0.719,0,0,-1,0,0,-0.023,0.136,0.719,0,0,-0.926,0.377,0,-45.656,0.016,1.023,-0.297,0,-0.632,0.775,0,57.303,0.016,0.944,-0.681,0,-0.604,0.797,0,-85.944,0.109,0.944,-0.681,-0.563,-0.427,0.564,0.427,-89.954,0.109,0.918,-0.772,-0.563,-0.427,0.564,0.427,0,0.109,0.839,-0.75,-0.7,0.096,0.701,-0.097,0,0.5,0.644,-0.5,0,0,0,1,0,-0.5,0.64,-0.5,0,0,0,1,0
21.264,0,0.719,0,0,-1,0,0,-0.023,0.136,0.719,0,0,-0.926,0.377,0,-45.656,0.016,1.023,-0.297,0,-0.632,0.775,0,57.303,0.016,0.944,-0.681,0,-0.604,0.797,0,-85.944,0.109,0.944,-0.681,-0.563,-0.427,0.564,0.427,-89.954,0.109,0.918,-0.772,-0.563,-0.427,0.564,0.427,0,0.109,0.839,-0.75,-0.7,0.096,0.701,-0.097,0,0.5,0.644,-0.5,0,0,0,1,0,-0.5,0.64,-0.5,0,0,0,1,0
21.366,0,0.719,0,0,-1,0,0,-0.023,0.136,0.719,0,0,-0.926,0.377,0,-45.656,0.016,1.023,-0.297,0,-0.632,0.775,0,57.303,0.016,0.944,-0.681,0,-0.604,0.797,0,-85.944,0.109,0.944,-0.681,-0.563,-0.427,0.564,0.427,-89.954,0.109,0.918,-0.772,-0.563,-0.427,0.564,0.427,0,0.109,0.839,-0.75,-0.7,0.096,0.701,-0.097,0,0.5,0.644,-0.5,0,0,0,1,0,-0.5,0.64,-0.5,0,0,0,1,0
21.468,0,0.719,0,0,-1,0,0,-0.023,0.136,0.719,0,0,-0.926,0.377,0,-45.656,0.016,1.023,-0.297,0,-0.632,0.775,0,57.303,0.016,0.944,-0.681,0,-0.604,0.797,0,-85.944,0.109,0.944,-0.681,-0.563,-0.427,0.564,0.427,-89.954,0.109,0.918,-0.772,-0.563,-0.427,0.564,0.427,0,0.109,0.839,-0.75,-0.7,0.096,0.701,-0.097,0,0.5,0.644,-0.5,0,0,0,1,0,-0.5,0.64,-0.5,0,0,0,1,0
21.569,0,0.719,0,0,-1,0,0,-0.023,0.136,0.719,0,0,-0.926,0.377,0,-45.656,0.016,1.023,-0.297,0,-0.632,0.775,0,57.303,0.016,0.944,-0.681,0,-0.604,0.797,0,-85.944,0.109,0.944,-0.681,-0.563,-0.427,0.564,0.427,-89.954,0.109,0.918,-0.772,-0.563,-0.427,0.564,0.427,0,0.109,0.839,-0.75,-0.7,0.096,0.701,-0.097,0,0.5,0.644,-0.5,0,0,0,1,0,-0.5,0.64,-0.5,0,0,0,1,0
21.67,0,0.719,0,0,-1,0,0,-0.023,0.136,0.719,0,0,-0.926,0.377,0,-45.656,0.016,1.023,-0.297,0,-0.632,0.775,0,57.303,0.016,0.944,-0.681,0,-0.604,0.797,0,-85.944,0.109,0.944,-0.681,-0.563,-0.427,0.564,0.427,-89.954,0.109,0.918,-0.772,-0.563,-0.427,0.564,0.427,0,0.109,0.839,-0.75,-0.7,0.096,0.701,-0.097,0,0.5,0.644,-0.5,0,0,0,1,0,-0.5,0.64,-0.5,0,0,0,1,0
21.77,0,0.719,0,0,-1,0,0,-0.023,0.136,0.719,0,0,-0.926,0.377,0,-45.656,0.016,1.023,-0.297,0,-0.632,0.775,0,57.303,0.016,0.944,-0.681,0,-0.604,0.797,0,-85.944,0.109,0.944,-0.681,-0.563,-0.427,0.564,0.427,-89.954,0.109,0.918,-0.772,-0.563,-0.427,0.564,0.427,0,0.109,0.839,-0.75,-0.7,0.096,0.701,-0.097,0,0.5,0.644,-0.5,0,0,0,1,0,-0.5,0.64,-0.5,0,0,0,1,0
21.871,0,0.719,0,0,-1,0,0,-0.023,0.136,0.719,0,0,-0.926,0.377,0,-45.656,0.016,1.023,-0.297,0,-0.632,0.775,0,57.303,0.016,0.944,-0.681,0,-0.604,0.797,0,-85.944,0.109,0.944,-0.681,-0.563,-0.427,0.564,0.427,-89.954,0.109,0.918,-0.772,-0.563,-0.427,0.564,0.427,0,0.109,0.839,-0.75,-0.7,0.096,0.701,-0.097,0,0.5,0.644,-0.5,0,0,0,1,0,-0.5,0.64,-0.5,0,0,0,1,0
21.972,0,0.719,0,0,-1,0,0,-0.023,0.136,0.719,0,0,-0.926,0.377,0,-45.656,0.016,1.023,-0.297,0,-0.632,0.775,0,57.303,0.016,0.944,-0.681,0,-0.604,0.797,0,-85.944,0.109,0.944,-0.681,-0.563,-0.427,0.564,0.427,-89.954,0.109,0.918,-0.772,-0.563,-0.427,0.564,0.427,0,0.109,0.839,-0.75,-0.7,0.096,0.701,-0.097,0,0.5,0.644,-0.5,0,0,0,1,0,-0.5,0.64,-0.5,0,0,0,1,0
22.073,0,0.719,0,0,-1,0,0,-0.023,0.136,0.719,0,0,-0.926,0.377,0,-45.656,0.016,1.023,-0.297,0,-0.632,0.775,0,57.303,0.016,0.944,-0.681,0,-0.604,0.797,0,-85.944,0.109,0.944,-0.681,-0.563,-0.427,0.564,0.427,-89.954,0.109,0.918,-0.772,-0.563,-0.427,0.564,0.427,0,0.109,0.839,-0.75,-0.7,0.096,0.701,-0.097,0,0.5,0.644,-0.5,0,0,0,1,0,-0.5,0.64,-0.5,0,0,0,1,0
22.177,0,0.719,0,0,-1,0,0,-0.023,0.136,0.719,0,0,-0.926,0.377,0,-45.656,0.016,1.023,-0.297,0,-0.632,0.775,0,57.303,0.016,0.944,-0.681,0,-0.604,0.797,0,-85.944,0.109,0.944,-0.681,-0.563,-0.427,0.564,0.427,-89.954,0.109,0.918,-0.772,-0.563,-0.427,0.564,0.427,0,0.109,0.839,-0.75,-0.7,0.096,0.701,-0.097,0,0.5,0.644,-0.5,0,0,0,1,0,-0.5,0.64,-0.5,0,0,0,1,0
22.279,0,0.719,0,0,-1,0,0,-0.023,0.136,0.719,0,0,-0.926,0.377,0,-45.656,0.016,1.023,-0.297,0,-0.632,0.775,0,57.303,0.016,0.944,-0.681,0,-0.604,0.797,0,-85.944,0.109,0.944,-0.681,-0.563,-0.427,0.564,0.427,-89.954,0.109,0.918,-0.772,-0.563,-0.427,0.564,0.427,0,0.109,0.839,-0.75,-0.7,0.096,0.701,-0.097,0,0.5,0.644,-0.5,0,0,0,1,0,-0.5,0.64,-0.5,0,0,0,1,0
22.38,0,0.719,0,0,-1,0,0,-0.023,0.136,0.719,0,0,-0.926,0.377,0,-45.656,0.016,1.023,-0.297,0,-0.632,0.775,0,57.303,0.016,0.944,-0.681,0,-0.604,0.797,0,-85.944,0.109,0.944,-0.681,-0.563,-0.427,0.564,0.427,-89.954,0.109,0.918,-0.772,-0.563,-0.427,0.564,0.427,0,0.109,0.839,-0.75,-0.7,0.096,0.701,-0.097,0,0.5,0.644,-0.5,0,0,0,1,0,-0.5,0.64,-0.5,0,0,0,1,0
22.481,0,0.719,0,0,-1,0,0,-0.023,0.136,0.719,0,0,-0.926,0.377,0,-45.656,0.016,1.023,-0.297,0,-0.632,0.775,0,57.303,0.016,0.944,-0.681,0,-0.604,0.797,0,-85.944,0.109,0.944,-0.681,-0.563,-0.427,0.564,0.427,-89.954,0.109,0.918,-0.772,-0.563,-0.427,0.564,0.427,0,0.109,0.839,-0.75,-0.7,0.096,0.701,-0.097,0,0.5,0.644,-0.5,0,0,0,1,0,-0.5,0.64,-0.5,0,0,0,1,0
22.586,0,0.719,0,0,-1,0,0,-0.023,0.136,0.719,0,0,-0.926,0.377,0,-45.656,0.016,1.023,-0.297,0,-0.632,0.775,0,57.303,0.016,0.944,-0.681,0,-0.604,0.797,0,-85.944,0.109,0.944,-0.681,-0.563,-0.427,0.564,0.427,-89.954,0.109,0.918,-0.772,-0.563,-0.427,0.564,0.427,0,0.109,0.839,-0.75,-0.7,0.096,0.701,-0.097,0,0.5,0.644,-0.5,0,0,0,1,0,-0.5,0.64,-0.5,0,0,0,1,0
22.688,0,0.719,0,0,-1,0,0,-0.023,0.136,0.719,0,0,-0.926,0.377,0,-45.656,0.016,1.023,-0.297,0,-0.632,0.775,0,57.303,0.016,0.944,-0.681,0,-0.604,0.797,0,-85.944,0.109,0.944,-0.681,-0.563,-0.427,0.564,0.427,-89.954,0.109,0.918,-0.772,-0.563,-0.427,0.564,0.427,0,0.109,0.839,-0.75,-0.7,0.096,0.701,-0.097,0,0.5,0.644,-0.5,0,0,0,1,0,-0.5,0.64,-0.5,0,0,0,1,0
22.791,0,0.719,0,0,-1,0,0,-0.023,0.136,0.719,0,0,-0.926,0.377,0,-45.656,0.016,1.023,-0.297,0,-0.632,0.775,0,57.303,0.016,0.944,-0.681,0,-0.604,0.797,0,-85.944,0.109,0.944,-0.681,-0.563,-0.427,0.564,0.427,-89.954,0.109,0.918,-0.772,-0.563,-0.427,0.564,0.427,0,0.109,0.839,-0.75,-0.7,0.096,0.701,-0.097,0,0.5,0.644,-0.5,0,0,0,1,0,-0.5,0.64,-0.5,0,0,0,1,0
22.892,0,0.719,0,0,-1,0,0,-0.023,0.136,0.719,0,0,-0.926,0.377,0,-45.656,0.016,1.023,-0.297,0,-0.632,0.775,0,57.303,0.016,0.944,-0.681,0,-0.604,0.797,0,-85.944,0.109,0.944,-0.681,-0.563,-0.427,0.564,0.427,-89.954,0.109,0.918,-0.772,-0.563,-0.427,0.564,0.427,0,0.109,0.839,-0.75,-0.7,0.096,0.701,-0.097,0,0.5,0.644,-0.5,0,0,0,1,0,-0.5,0.64,-0.5,0,0,0,1,0
22.993,0,0.719,0,0,-1,0,0,-0.023,0.136,0.719,0,0,-0.926,0.377,0,-45.656,0.016,1.023,-0.297,0,-0.632,0.775,0,57.303,0.016,0.944,-0.681,0,-0.604,0.797,0,-85.944,0.109,0.944,-0.681,-0.563,-0.427,0.564,0.427,-89.954,0.109,0.918,-0.772,-0.563,-0.427,0.564,0.427,0,0.109,0.839,-0.75,-0.7,0.096,0.701,-0.097,0,0.5,0.644,-0.5,0,0,0,1,0,-0.5,0.64,-0.5,0,0,0,1,0
23.097,0,0.719,0,0,-1,0,0,-0.023,0.136,0.719,0,0,-0.926,0.377,0,-45.656,0.016,1.023,-0.297,0,-0.632,0.775,0,57.303,0.016,0.944,-0.681,0,-0.604,0.797,0,-85.944,0.109,0.944,-0.681,-0.563,-0.427,0.564,0.427,-89.954,0.109,0.918,-0.772,-0.563,-0.427,0.564,0.427,0,0.109,0.839,-0.75,-0.7,0.096,0.701,-0.097,0,0.5,0.644,-0.5,0,0,0,1,0,-0.5,0.64,-0.5,0,0,0,1,0
23.197,0,0.719,0,0,-1,0,0,-0.023,0.136,0.719,0,0,-0.926,0.377,0,-45.656,0.016,1.023,-0.297,0,-0.632,0.775,0,57.303,0.016,0.944,-0.681,0,-0.604,0.797,0,-85.944,0.109,0.944,-0.681,-0.563,-0.427,0.564,0.427,-89.954,0.109,0.918,-0.772,-0.563,-0.427,0.564,0.427,0,0.109,0.839,-0.75,-0.7,0.096,0.701,-0.097,0,0.5,0.644,-0.5,0,0,0,1,0,-0.5,0.64,-0.5,0,0,0,1,0
23.302,0,0.719,0,0,-1,0,0,-0.023,0.136,0.719,0,0,-0.926,0.377,0,-45.656,0.016,1.023,-0.297,0,-0.632,0.775,0,57.303,0.016,0.944,-0.681,0,-0.604,0.797,0,-85.944,0.109,0.944,-0.681,-0.563,-0.427,0.564,0.427,-89.954,0.109,0.918,-0.772,-0.563,-0.427,0.564,0.427,0,0.109,0.839,-0.75,-0.7,0.096,0.701,-0.097,0,0.5,0.644,-0.5,0,0,0,1,0,-0.5,0.64,-0.5,0,0,0,1,0
23.407,0,0.719,0,0,-1,0,0,-0.023,0.136,0.719,0,0,-0.926,0.377,0,-45.656,0.016,1.023,-0.297,0,-0.632,0.775,0,57.303,0.016,0.944,-0.681,0,-0.604,0.797,0,-85.944,0.109,0.944,-0.681,-0.563,-0.427,0.564,0.427,-89.954,0.109,0.918,-0.772,-0.563,-0.427,0.564,0.427,0,0.109,0.839,-0.75,-0.7,0.096,0.701,-0.097,0,0.5,0.644,-0.5,0,0,0,1,0,-0.5,0.64,-0.5,0,0,0,1,0
23.512,0,0.719,0,0,-1,0,0,-0.023,0.136,0.719,0,0,-0.926,0.377,0,-45.656,0.016,1.023,-0.297,0,-0.632,0.775,0,57.303,0.016,0.944,-0.681,0,-0.604,0.797,0,-85.944,0.109,0.944,-0.681,-0.563,-0.427,0.564,0.427,-89.954,0.109,0.918,-0.772,-0.563,-0.427,0.564,0.427,0,0.109,0.839,-0.75,-0.7,0.096,0.701,-0.097,0,0.5,0.644,-0.5,0,0,0,1,0,-0.5,0.64,-0.5,0,0,0,1,0
23.614,0,0.719,0,0,-1,0,0,-0.023,0.136,0.719,0,0,-0.926,0.377,0,-45.656,0.016,1.023,-0.297,0,-0.632,0.775,0,57.303,0.016,0.944,-0.681,0,-0.604,0.797,0,-85.944,0.109,0.944,-0.681,-0.563,-0.427,0.564,0.427,-89.954,0.109,0.918,-0.772,-0.563,-0.427,0.564,0.427,0,0.109,0.839,-0.75,-0.7,0.096,0.701,-0.097,0,0.5,0.644,-0.5,0,0,0,1,0,-0.5,0.64,-0.5,0,0,0,1,0
23.72,0,0.719,0,0,-1,0,0,-0.023,0.136,0.719,0,0,-0.926,0.377,0,-45.656,0.016,1.023,-0.297,0,-0.632,0.775,0,57.303,0.016,0.944,-0.681,0,-0.604,0.797,0,-85.944,0.109,0.944,-0.681,-0.563,-0.427,0.564,0.427,-89.954,0.109,0.918,-0.772,-0.563,-0.427,0.564,0.427,0,0.109,0.839,-0.75,-0.7,0.096,0.701,-0.097,0,0.5,0.644,-0.5,0,0,0,1,0,-0.5,0.64,-0.5,0,0,0,1,0
23.827,0,0.719,0,0,-1,0,0,-0.023,0.136,0.719,0,0,-0.926,0.377,0,-45.656,0.016,1.023,-0.297,0,-0.632,0.775,0,57.303,0.016,0.944,-0.681,0,-0.604,0.797,0,-85.944,0.109,0.944,-0.681,-0.563,-0.427,0.564,0.427,-89.954,0.109,0.918,-0.772,-0.563,-0.427,0.564,0.427,0,0.109,0.839,-0.75,-0.7,0.096,0.701,-0.097,0,0.5,0.644,-0.5,0,0,0,1,0,-0.5,0.64,-0.5,0,0,0,1,0
23.929,0,0.719,0,0,-1,0,0,-0.023,0.136,0.719,0,0,-0.926,0.377,0,-45.656,0.016,1.023,-0.297,0,-0.632,0.775,0,57.303,0.016,0.944,-0.681,0,-0.604,0.797,0,-85.944,0.109,0.944,-0.681,-0.563,-0.427,0.564,0.427,-89.954,0.109,0.918,-0.772,-0.563,-0.427,0.564,0.427,0,0.109,0.839,-0.75,-0.7,0.096,0.701,-0.097,0,0.5,0.644,-0.5,0,0,0,1,0,-0.5,0.64,-0.5,0,0,0,1,0
24.039,0,0.719,0,0,-1,0,0,-0.023,0.136,0.719,0,0,-0.926,0.377,0,-45.656,0.016,1.023,-0.297,0,-0.632,0.775,0,57.303,0.016,0.944,-0.681,0,-0.604,0.797,0,-85.944,0.109,0.944,-0.681,-0.563,-0.427,0.564,0.427,-89.954,0.109,0.918,-0.772,-0.563,-0.427,0.564,0.427,0,0.109,0.839,-0.75,-0.7,0.096,0.701,-0.097,0,0.5,0.644,-0.5,0,0,0,1,0,-0.5,0.64,-0.5,0,0,0,1,0
24.143,0,0.719,0,0,-1,0,0,-0.023,0.136,0.719,0,0,-0.926,0.377,0,-45.656,0.016,1.023,-0.297,0,-0.632,0.775,0,57.303,0.016,0.944,-0.681,0,-0.604,0.797,0,-85.944,0.109,0.944,-0.681,-0.563,-0.427,0.564,0.427,-89.954,0.109,0.918,-0.772,-0.563,-0.427,0.564,0.427,0,0.109,0.839,-0.75,-0.7,0.096,0.701,-0.097,0,0.5,0.644,-0.5,0,0,0,1,0,-0.5,0.64,-0.5,0,0,0,1,0
24.248,0,0.719,0,0,-1,0,0,-0.023,0.136,0.719,0,0,-0.926,0.377,0,-45.656,0.016,1.023,-0.297,0,-0.632,0.775,0,57.303,0.016,0.944,-0.681,0,-0.604,0.797,0,-85.944,0.109,0.944,-0.681,-0.563,-0.427,0.564,0.427,-89.954,0.109,0.918,-0.772,-0.563,-0.427,0.564,0.427,0,0.109,0.839,-0.75,-0.7,0.096,0.701,-0.097,0,0.5,0.644,-0.5,0,0,0,1,0,-0.5,0.64,-0.5,0,0,0,1,0
24.36,0,0.719,0,0,-1,0,0,-0.023,0.136,0.719,0,0,-0.926,0.377,0,-45.656,0.016,1.023,-0.297,0,-0.632,0.775,0,57.303,0.016,0.944,-0.681,0,-0.604,0.797,0,-85.944,0.109,0.944,-0.681,-0.563,-0.427,0.564,0.427,-89.954,0.109,0.918,-0.772,-0.563,-0.427,0.564,0.427,0,0.109,0.839,-0.75,-0.7,0.096,0.701,-0.097,0,0.5,0.644,-0.5,0,0,0,1,0,-0.5,0.64,-0.5,0,0,0,1,0
24.468,0,0.719,0,0,-1,0,0,-0.023,0.136,0.719,0,0,-0.926,0.377,0,-45.656,0.016,1.023,-0.297,0,-0.632,0.775,0,57.303,0.016,0.944,-0.681,0,-0.604,0.797,0,-85.944,0.109,0.944,-0.681,-0.563,-0.427,0.564,0.427,-89.954,0.109,0.918,-0.772,-0.563,-0.427,0.564,0.427,0,0.109,0.839,-0.75,-0.7,0.096,0.701,-0.097,0,0.5,0.644,-0.5,0,0,0,1,0,-0.5,0.64,-0.5,0,0,0,1,0
24.573,0,0.719,0,0,-1,0,0,-0.023,0.136,0.719,0,0,-0.926,0.377,0,-45.656,0.016,1.023,-0.297,0,-0.632,0.775,0,57.303,0.016,0.944,-0.681,0,-0.604,0.797,0,-85.944,0.109,0.944,-0.681,-0.563,-0.427,0.564,0.427,-89.954,0.109,0.918,-0.772,-0.563,-0.427,0.564,0.427,0,0.109,0.839,-0.75,-0.7,0.096,0.701,-0.097,0,0.5,0.644,-0.5,0,0,0,1,0,-0.5,0.64,-0.5,0,0,0,1,0
24.678,0,0.719,0,0,-1,0,0,-0.023,0.136,0.719,0,0,-0.926,0.377,0,-45.656,0.016,1.023,-0.297,0,-0.632,0.775,0,57.303,0.016,0.944,-0.681,0,-0.604,0.797,0,-85.944,0.109,0.944,-0.681,-0.563,-0.427,0.564,0.427,-89.954,0.109,0.918,-0.772,-0.563,-0.427,0.564,0.427,0,0.109,0.839,-0.75,-0.7,0.096,0.701,-0.097,0,0.5,0.644,-0.5,0,0,0,1,0,-0.5,0.64,-0.5,0,0,0,1,0
24.809,0,0.719,0,0,-1,0,0,-0.023,0.136,0.719,0,0,-0.926,0.377,0,-45.656,0.016,1.023,-0.297,0,-0.632,0.775,0,57.303,0.016,0.944,-0.681,0,-0.604,0.797,0,-85.944,0.109,0.944,-0.681,-0.563,-0.427,0.564,0.427,-89.954,0.109,0.918,-0.772,-0.563,-0.427,0.564,0.427,0,0.109,0.839,-0.75,-0.7,0.096,0.701,-0.097,0,0.5,0.644,-0.5,0,0,0,1,0,-0.5,0.64,-0.5,0,0,0,1,0
24.913,0,0.719,0,0,-1,0,0,-0.023,0.136,0.719,0,0,-0.926,0.377,0,-45.656,0.016,1.023,-0.297,0,-0.632,0.775,0,57.303,0.016,0.944,-0.681,0,-0.604,0.797,0,-85.944,0.109,0.944,-0.681,-0.563,-0.427,0.564,0.427,-89.954,0.109,0.918,-0.772,-0.563,-0.427,0.564,0.427,0,0.109,0.839,-0.75,-0.7,0.096,0.701,-0.097,0,0.5,0.644,-0.5,0,0,0,1,0,-0.5,0.64,-0.5,0,0,0,1,0
25.013,0,0.719,0,0,-1,0,0,-0.023,0.136,0.719,0,0,-0.926,0.377,0,-45.656,0.016,1.023,-0.297,0,-0.632,0.775,0,57.303,0.016,0.944,-0.681,0,-0.604,0.797,0,-85.944,0.109,0.944,-0.681,-0.563,-0.427,0.564,0.427,-89.954,0.109,0.918,-0.772,-0.563,-0.427,0.564,0.427,0,0.109,0.839,-0.75,-0.7,0.096,0.701,-0.097,0,0.5,0.644,-0.5,0,0,0,1,0,-0.5,0.64,-0.5,0,0,0,1,0
25.116,0,0.719,0,0,-1,0,0,-0.023,0.136,0.719,0,0,-0.926,0.377,0,-45.656,0.016,1.023,-0.297,0,-0.632,0.775,0,57.303,0.016,0.944,-0.681,0,-0.604,0.797,0,-85.944,0.109,0.944,-0.681,-0.563,-0.427,0.564,0.427,-89.954,0.109,0.918,-0.772,-0.563,-0.427,0.564,0.427,0,0.109,0.839,-0.75,-0.7,0.096,0.701,-0.097,0,0.5,0.644,-0.5,0,0,0,1,0,-0.5,0.64,-0.5,0,0,0,1,0
25.218,0,0.719,0,0,-1,0,0,-0.023,0.136,0.719,0,0,-0.926,0.377,0,-45.656,0.016,1.023,-0.297,0,-0.632,0.775,0,57.303,0.016,0.944,-0.681,0,-0.604,0.797,0,-85.944,0.109,0.944,-0.681,-0.563,-0.427,0.564,0.427,-89.954,0.109,0.918,-0.772,-0.563,-0.427,0.564,0.427,0,0.109,0.839,-0.75,-0.7,0.096,0.701,-0.097,0,0.5,0.644,-0.5,0,0,0,1,0,-0.5,0.64,-0.5,0,0,0,1,0
25.326,0,0.719,0,0,-1,0,0,-0.023,0.136,0.719,0,0,-0.926,0.377,0,-45.656,0.016,1.023,-0.297,0,-0.632,0.775,0,57.303,0.016,0.944,-0.681,0,-0.604,0.797,0,-85.944,0.109,0.944,-0.681,-0.563,-0.427,0.564,0.427,-89.954,0.109,0.918,-0.772,-0.563,-0.427,0.564,0.427,0,0.109,0.839,-0.75,-0.7,0.096,0.701,-0.097,0,0.5,0.644,-0.5,0,0,0,1,0,-0.5,0.64,-0.5,0,0,0,1,0
25.429,0,0.719,0,0,-1,0,0,-0.023,0.136,0.719,0,0,-0.926,0.377,0,-45.656,0.016,1.023,-0.297,0,-0.632,0.775,0,57.303,0.016,0.944,-0.681,0,-0.604,0.797,0,-85.944,0.109,0.944,-0.681,-0.563,-0.427,0.564,0.427,-89.954,0.109,0.918,-0.772,-0.563,-0.427,0.564,0.427,0,0.109,0.839,-0.75,-0.7,0.096,0.701,-0.097,0,0.5,0.644,-0.5,0,0,0,1,0,-0.5,0.64,-0.5,0,0,0,1,0
25.531,0,0.719,0,0,-1,0,0,-0.023,0.136,0.719,0,0,-0.926,0.377,0,-45.656,0.016,1.023,-0.297,0,-0.632,0.775,0,57.303,0.016,0.944,-0.681,0,-0.604,0.797,0,-85.944,0.109,0.944,-0.681,-0.563,-0.427,0.564,0.427,-89.954,0.109,0.918,-0.772,-0.563,-0.427,0.564,0.427,0,0.109,0.839,-0.75,-0.7,0.096,0.701,-0.097,0,0.5,0.644,-0.5,0,0,0,1,0,-0.5,0.64,-0.5,0,0,0,1,0
25.643,0,0.719,0,0,-1,0,0,-0.023,0.136,0.719,0,0,-0.926,0.377,0,-45.656,0.016,1.023,-0.297,0,-0.632,0.775,0,57.303,0.016,0.944,-0.681,0,-0.604,0.797,0,-85.944,0.109,0.944,-0.681,-0.563,-0.427,0.564,0.427,-89.954,0.109,0.918,-0.772,-0.563,-0.427,0.564,0.427,0,0.109,0.839,-0.75,-0.7,0.096,0.701,-0.097,0,0.5,0.644,-0.5,0,0,0,1,0,-0.5,0.64,-0.5,0,0,0,1,0
25.75,0,0.719,0,0,-1,0,0,-0.023,0.136,0.719,0,0,-0.926,0.377,0,-45.656,0.016,1.023,-0.297,0,-0.632,0.775,0,57.303,0.016,0.944,-0.681,0,-0.604,0.797,0,-85.944,0.109,0.944,-0.681,-0.563,-0.427,0.564,0.427,-89.954,0.109,0.918,-0.772,-0.563,-0.427,0.564,0.427,0,0.109,0.839,-0.75,-0.7,0.096,0.701,-0.097,0,0.5,0.644,-0.5,0,0,0,1,0,-0.5,0.64,-0.5,0,0,0,1,0
25.86,0,0.719,0,0,-1,0,0,-0.023,0.136,0.719,0,0,-0.926,0.377,0,-45.656,0.016,1.023,-0.297,0,-0.632,0.775,0,57.303,0.016,0.944,-0.681,0,-0.604,0.797,0,-85.944,0.109,0.944,-0.681,-0.563,-0.427,0.564,0.427,-89.954,0.109,0.918,-0.772,-0.563,-0.427,0.564,0.427,0,0.109,0.839,-0.75,-0.7,0.096,0.701,-0.097,0,0.5,0.644,-0.5,0,0,0,1,0,-0.5,0.64,-0.5,0,0,0,1,0
25.968,0,0.719,0,0,-1,0,0,-0.023,0.136,0.719,0,0,-0.926,0.377,0,-45.656,0.016,1.023,-0.297,0,-0.632,0.775,0,57.303,0.016,0.944,-0.681,0,-0.604,0.797,0,-85.944,0.109,0.944,-0.681,-0.563,-0.427,0.564,0.427,-89.954,0.109,0.918,-0.772,-0.563,-0.427,0.564,0.427,0,0.109,0.839,-0.75,-0.7,0.096,0.701,-0.097,0,0.5,0.644,-0.5,0,0,0,1,0,-0.5,0.64,-0.5,0,0,0,1,0
26.075,0,0.719,0,0,-1,0,0,-0.023,0.136,0.719,0,0,-0.926,0.377,0,-45.656,0.016,1.023,-0.297,0,-0.632,0.775,0,57.303,0.016,0.944,-0.681,0,-0.604,0.797,0,-85.944,0.109,0.944,-0.681,-0.563,-0.427,0.564,0.427,-89.954,0.109,0.918,-0.772,-0.563,-0.427,0.564,0.427,0,0.109,0.839,-0.75,-0.7,0.096,0.701,-0.097,0,0.5,0.644,-0.5,0,0,0,1,0,-0.5,0.64,-0.5,0,0,0,1,0
26.185,0,0.719,0,0,-1,0,0,-0.023,0.136,0.719,0,0,-0.926,0.377,0,-45.656,0.016,1.023,-0.297,0,-0.632,0.775,0,57.303,0.016,0.944,-0.681,0,-0.604,0.797,0,-85.944,0.109,0.944,-0.681,-0.563,-0.427,0.564,0.427,-89.954,0.109,0.918,-0.772,-0.563,-0.427,0.564,0.427,0,0.109,0.839,-0.75,-0.7,0.096,0.701,-0.097,0,0.5,0.644,-0.5,0,0,0,1,0,-0.5,0.64,-0.5,0,0,0,1,0
26.286,0,0.719,0,0,-1,0,0,-0.023,0.136,0.719,0,0,-0.926,0.377,0,-45.656,0.016,1.023,-0.297,0,-0.632,0.775,0,57.303,0.016,0.944,-0.681,0,-0.604,0.797,0,-85.944,0.109,0.944,-0.681,-0.563,-0.427,0.564,0.427,-89.954,0.109,0.918,-0.772,-0.563,-0.427,0.564,0.427,0,0.109,0.839,-0.75,-0.7,0.096,0.701,-0.097,0,0.5,0.644,-0.5,0,0,0,1,0,-0.5,0.64,-0.5,0,0,0,1,0
26.399,0,0.719,0,0,-1,0,0,-0.023,0.136,0.719,0,0,-0.926,0.377,0,-45.656,0.016,1.023,-0.297,0,-0.632,0.775,0,57.303,0.016,0.944,-0.681,0,-0.604,0.797,0,-85.944,0.109,0.944,-0.681,-0.563,-0.427,0.564,0.427,-89.954,0.109,0.918,-0.772,-0.563,-0.427,0.564,0.427,0,0.109,0.839,-0.75,-0.7,0.096,0.701,-0.097,0,0.5,0.644,-0.5,0,0,0,1,0,-0.5,0.64,-0.5,0,0,0,1,0
26.514,0,0.719,0,0,-1,0,0,-0.023,0.136,0.719,0,0,-0.926,0.377,0,-45.656,0.016,1.023,-0.297,0,-0.632,0.775,0,57.303,0.016,0.944,-0.681,0,-0.604,0.797,0,-85.944,0.109,0.944,-0.681,-0.563,-0.427,0.564,0.427,-89.954,0.109,0.918,-0.772,-0.563,-0.427,0.564,0.427,0,0.109,0.839,-0.75,-0.7,0.096,0.701,-0.097,0,0.5,0.644,-0.5,0,0,0,1,0,-0.5,0.64,-0.5,0,0,0,1,0
26.629,0,0.719,0,0,-1,0,0,-0.023,0.136,0.719,0,0,-0.926,0.377,0,-45.656,0.016,1.023,-0.297,0,-0.632,0.775,0,57.303,0.016,0.944,-0.681,0,-0.604,0.797,0,-85.944,0.109,0.944,-0.681,-0.563,-0.427,0.564,0.427,-89.954,0.109,0.918,-0.772,-0.563,-0.427,0.564,0.427,0,0.109,0.839,-0.75,-0.7,0.096,0.701,-0.097,0,0.5,0.644,-0.5,0,0,0,1,0,-0.5,0.64,-0.5,0,0,0,1,0
26.732,0,0.719,0,0,-1,0,0,0.031,0.136,0.719,0,0,-0.926,0.377,0,-45.656,0.016,1.023,-0.297,0,-0.632,0.775,0,57.303,0.017,0.944,-0.681,0,-0.604,0.797,0,-85.944,0.11,0.944,-0.681,-0.564,-0.427,0.564,0.427,-89.954,0.11,0.918,-0.772,-0.564,-0.427,0.564,0.427,0,0.11,0.839,-0.75,-0.701,0.096,0.7,-0.097,0,0.5,0.644,-0.5,0,0,0,1,0,-0.5,0.64,-0.5,0,0,0,1,0
26.835,0,0.719,0,0,-1,0,-0.007,0.834,0.136,0.719,0.002,-0.003,-0.926,0.377,-0.007,-45.656,0.02,1.023,-0.297,-0.006,-0.632,0.775,-0.005,57.303,0.026,0.944,-0.681,-0.006,-0.604,0.797,-0.004,-85.944,0.119,0.944,-0.68,-0.567,-0.43,0.56,0.424,-89.954,0.12,0.918,-0.771,-0.567,-0.43,0.56,0.424,0,0.12,0.839,-0.748,-0.706,0.097,0.695,-0.096,0,0.5,0.644,-0.5,0,0,0,1,0,-0.5,0.64,-0.5,0,0,0,1,0
26.938,0,0.719,0,0,-1,0,-0.018,2.08,0.136,0.719,0.005,-0.007,-0.926,0.377,-0.017,-45.656,0.027,1.023,-0.296,-0.014,-0.632,0.775,-0.011,57.303,0.041,0.944,-0.68,-0.014,-0.604,0.797,-0.011,-85.944,0.134,0.944,-0.677,-0.574,-0.435,0.554,0.419,-89.954,0.137,0.918,-0.768,-0.574,-0.435,0.554,0.419,0,0.136,0.839,-0.746,-0.713,0.098,0.688,-0.095,0,0.5,0.644,-0.5,0,0,0,1,0,-0.5,0.64,-0.5,0,0,0,1,0
27.038,0,0.719,0,0,-1,0,-0.03,3.487,0.136,0.719,0.008,-0.011,-0.926,0.377,-0.028,-45.656,0.034,1.023,-0.296,-0.024,-0.631,0.775,-0.019,57.303,0.058,0.944,-0.679,-0.024,-0.604,0.797,-0.018,-85.944,0.15,0.944,-0.673,-0.58,-0.44,0.546,0.414,-89.954,0.156,0.918,-0.764,-0.58,-0.44,0.546,0.414,0,0.155,0.839,-0.742,-0.721,0.099,0.679,-0.094,0,0.5,0.644,-0.5,0,0,0,1,0,-0.5,0.64,-0.5,0,0,0,1,0
27.143,0,0.719,0,0,-0.999,0,-0.046,5.25,0.135,0.719,0.012,-0.017,-0.925,0.377,-0.042,-45.656,0.043,1.023,-0.294,-0.036,-0.631,0.774,-0.029,57.303,0.078,0.944,-0.677,-0.037,-0.603,0.796,-0.028,-85.944,0.171,0.944,-0.668,-0.589,-0.446,0.537,0.407,-89.954,0.179,0.918,-0.759,-0.589,-0.446,0.537,0.407,0,0.177,0.839,-0.737,-0.732,0.101,0.668,-0.092,0,0.5,0.644,-0.5,0,0,0,1,0,-0.5,0.64,-0.5,0,0,0,1,0
27.246,0,0.719,0,0,-0.998,0,-0.059,6.739,0.135,0.719,0.016,-0.022,-0.924,0.377,-0.054,-45.656,0.051,1.023,-0.293,-0.046,-0.631,0.774,-0.037,57.303,0.096,0.944,-0.675,-0.047,-0.603,0.796,-0.035,-85.944,0.188,0.944,-0.664,-0.596,-0.452,0.53,0.401,-89.954,0.199,0.918,-0.754,-0.596,-0.452,0.53,0.401,0,0.196,0.839,-0.732,-0.74,0.102,0.658,-0.091,0,0.5,0.644,-0.5,0,0,0,1,0,-0.5,0.64,-0.5,0,0,0,1,0
27.353,0,0.719,0,0,-0.997,0,-0.072,8.236,0.134,0.719,0.019,-0.027,-0.924,0.376,-0.066,-45.656,0.059,1.023,-0.292,-0.056,-0.63,0.773,-0.045,57.303,0.114,0.944,-0.672,-0.057,-0.602,0.795,-0.043,-85.944,0.206,0.944,-0.659,-0.602,-0.457,0.522,0.395,-89.954,0.219,0.918,-0.749,-0.602,-0.457,0.522,0.395,0,0.216,0.839,-0.727,-0.749,0.103,0.648,-0.09,0,0.5,0.644,-0.5,0,0,0,1,0,-0.5,0.64,-0.5,0,0,0,1,0
27.454,0,0.719,0,0,-0.996,0,-0.085,9.734,0.134,0.719,0.023,-0.032,-0.923,0.376,-0.079,-45.656,0.066,1.023,-0.29,-0.066,-0.629,0.772,-0.054,57.303,0.131,0.944,-0.669,-0.068,-0.602,0.794,-0.051,-85.944,0.223,0.944,-0.653,-0.609,-0.462,0.514,0.389,-89.954,0.238,0.918,-0.743,-0.609,-0.462,0.514,0.389,0,0.234,0.839,-0.721,-0.757,0.104,0.639,-0.088,0,0.5,0.644,-0.5,0,0,0,1,0,-0.5,0.64,-0.5,0,0,0,1,0
27.555,0,0.719,0,0,-0.995,0,-0.098,11.234,0.133,0.719,0.026,-0.037,-0.922,0.376,-0.091,-45.656,0.074,1.023,-0.288,-0.076,-0.629,0.771,-0.062,57.303,0.149,0.944,-0.665,-0.078,-0.601,0.793,-0.059,-85.944,0.24,0.944,-0.647,-0.616,-0.467,0.506,0.383,-89.954,0.258,0.918,-0.736,-0.616,-0.467,0.506,0.383,0,0.253,0.839,-0.714,-0.766,0.105,0.629,-0.087,0,0.5,0.644,-0.5,0,0,0,1,0,-0.5,0.64,-0.5,0,0,0,1,0
27.66,0,0.719,0,0,-0.994,0,-0.111,12.734,0.133,0.719,0.03,-0.042,-0.92,0.375,-0.103,-45.656,0.081,1.023,-0.286,-0.086,-0.628,0.77,-0.07,57.303,0.166,0.944,-0.661,-0.088,-0.6,0.792,-0.067,-85.944,0.257,0.944,-0.64,-0.622,-0.472,0.498,0.377,-89.954,0.277,0.918,-0.729,-0.622,-0.472,0.498,0.377,0,0.272,0.839,-0.708,-0.774,0.106,0.619,-0.086,0,0.5,0.644,-0.5,0,0,0,1,0,-0.5,0.64,-0.5,0,0,0,1,0
27.763,0,0.719,0,0,-0.992,0,-0.126,14.534,0.132,0.719,0.034,-0.048,-0.919,0.374,-0.117,-45.656,0.09,1.023,-0.284,-0.098,-0.627,0.769,-0.08,57.303,0.187,0.944,-0.655,-0.101,-0.599,0.791,-0.076,-85.944,0.277,0.944,-0.632,-0.63,-0.478,0.488,0.369,-89.954,0.299,0.918,-0.72,-0.63,-0.478,0.488,0.369,0,0.294,0.839,-0.699,-0.783,0.108,0.606,-0.084,0,0.5,0.644,-0.5,0,0,0,1,0,-0.5,0.64,-0.5,0,0,0,1,0
27.865,0,0.719,0,0,-0.99,0,-0.139,16.034,0.131,0.719,0.038,-0.053,-0.917,0.374,-0.129,-45.656,0.098,1.023,-0.281,-0.108,-0.626,0.768,-0.088,57.303,0.204,0.944,-0.65,-0.111,-0.598,0.789,-0.084,-85.944,0.293,0.944,-0.625,-0.637,-0.483,0.48,0.363,-89.954,0.318,0.918,-0.712,-0.637,-0.483,0.48,0.363,0,0.312,0.839,-0.691,-0.791,0.109,0.596,-0.082,0,0.5,0.644,-0.5,0,0,0,1,0,-0.5,0.64,-0.5,0,0,0,1,0
27.966,0,0.719,0,0,-0.988,0,-0.152,17.534,0.13,0.719,0.041,-0.058,-0.915,0.373,-0.141,-45.656,0.105,1.023,-0.278,-0.118,-0.624,0.766,-0.096,57.303,0.221,0.944,-0.645,-0.121,-0.597,0.788,-0.092,-85.944,0.309,0.944,-0.617,-0.643,-0.487,0.471,0.357,-89.954,0.337,0.918,-0.704,-0.643,-0.487,0.471,0.357,0,0.33,0.839,-0.682,-0.799,0.11,0.586,-0.081,0,0.5,0.644,-0.5,0,0,0,1,0,-0.5,0.64,-0.5,0,0,0,1,0
28.069,0,0.719,0,0,-0.986,0,-0.165,19.034,0.128,0.719,0.044,-0.062,-0.913,0.372,-0.153,-45.656,0.112,1.023,-0.276,-0.128,-0.623,0.765,-0.104,57.303,0.237,0.944,-0.639,-0.132,-0.596,0.786,-0.1,-85.944,0.325,0.944,-0.608,-0.649,-0.492,0.463,0.35,-89.954,0.355,0.918,-0.695,-0.649,-0.492,0.463,0.35,0,0.348,0.839,-0.673,-0.807,0.111,0.575,-0.08,0,0.5,0.644,-0.5,0,0,0,1,0,-0.5,0.64,-0.5,0,0,0,1,0
28.171,0,0.719,0,0,-0.984,0,-0.178,20.534,0.127,0.719,0.048,-0.067,-0.911,0.371,-0.165,-45.656,0.119,1.023,-0.273,-0.138,-0.622,0.763,-0.113,57.303,0.254,0.944,-0.632,-0.142,-0.594,0.784,-0.108,-85.944,0.341,0.944,-0.6,-0.655,-0.496,0.454,0.344,-89.954,0.373,0.918,-0.685,-0.655,-0.496,0.454,0.344,0,0.365,0.839,-0.664,-0.814,0.112,0.564,-0.078,0,0.5,0.644,-0.5,0,0,0,1,0,-0.5,0.64,-0.5,0,0,0,1,0
28.275,0,0.719,0,0,-0.982,0,-0.191,22.034,0.126,0.719,0.051,-0.072,-0.909,0.37,-0.177,-45.656,0.126,1.023,-0.269,-0.148,-0.62,0.761,-0.121,57.303,0.271,0.944,-0.625,-0.152,-0.593,0.782,-0.115,-85.944,0.357,0.944,-0.591,-0.661,-0.501,0.446,0.337,-89.954,0.391,0.918,-0.675,-0.661,-0.501,0.446,0.337,0,0.383,0.839,-0.654,-0.821,0.113,0.554,-0.077,0,0.5,0.644,-0.5,0,0,0,1,0,-0.5,0.64,-0.5,0,0,0,1,0
28.376,0,0.719,0,0,-0.979,0,-0.204,23.534,0.125,0.719,0.054,-0.077,-0.907,0.369,-0.189,-45.656,0.133,1.023,-0.266,-0.158,-0.618,0.759,-0.129,57.303,0.287,0.944,-0.618,-0.163,-0.591,0.78,-0.123,-85.944,0.372,0.944,-0.581,-0.667,-0.505,0.437,0.331,-89.954,0.408,0.918,-0.665,-0.667,-0.505,0.437,0.331,0,0.4,0.839,-0.644,-0.829,0.114,0.543,-0.075,0,0.5,0.644,-0.5,0,0,0,1,0,-0.5,0.64,-0.5,0,0,0,1,0
28.478,0,0.719,0,0,-0.976,0,-0.217,25.034,0.123,0.719,0.057,-0.082,-0.904,0.368,-0.201,-45.656,0.14,1.023,-0.262,-0.168,-0.617,0.757,-0.137,57.303,0.303,0.944,-0.61,-0.173,-0.59,0.778,-0.131,-85.944,0.387,0.944,-0.571,-0.672,-0.51,0.428,0.324,-89.954,0.426,0.918,-0.654,-0.672,-0.51,0.428,0.324,0,0.416,0.839,-0.633,-0.836,0.115,0.532,-0.074,0,0.5,0.644,-0.5,0,0,0,1,0,-0.5,0.64,-0.5,0,0,0,1,0
28.579,0,0.719,0,0,-0.973,0,-0.229,26.534,0.122,0.719,0.061,-0.087,-0.901,0.367,-0.213,-45.656,0.147,1.023,-0.259,-0.178,-0.615,0.755,-0.145,57.303,0.319,0.944,-0.602,-0.183,-0.588,0.776,-0.139,-85.944,0.402,0.944,-0.561,-0.678,-0.514,0.42,0.317,-89.954,0.443,0.918,-0.642,-0.678,-0.514,0.42,0.317,0,0.433,0.839,-0.622,-0.843,0.116,0.521,-0.072,0,0.5,0.644,-0.5,0,0,0,1,0,-0.5,0.64,-0.5,0,0,0,1,0
28.679,0,0.719,0,0,-0.97,0,-0.242,28.034,0.12,0.719,0.064,-0.091,-0.898,0.366,-0.224,-45.656,0.154,1.023,-0.255,-0.188,-0.613,0.752,-0.153,57.303,0.334,0.944,-0.594,-0.193,-0.586,0.773,-0.146,-85.944,0.417,0.944,-0.55,-0.683,-0.518,0.411,0.311,-89.954,0.459,0.918,-0.63,-0.683,-0.518,0.411,0.311,0,0.449,0.839,-0.611,-0.849,0.117,0.51,-0.071,0,0.5,0.644,-0.5,0,0,0,1,0,-0.5,0.64,-0.5,0,0,0,1,0
28.781,0,0.719,0,0,-0.966,0,-0.257,29.834,0.118,0.719,0.068,-0.097,-0.895,0.365,-0.238,-45.656,0.162,1.023,-0.25,-0.2,-0.61,0.749,-0.163,57.303,0.353,0.944,-0.583,-0.205,-0.584,0.77,-0.155,-85.944,0.434,0.944,-0.537,-0.69,-0.523,0.4,0.302,-89.954,0.479,0.918,-0.616,-0.69,-0.523,0.4,0.302,0,0.468,0.839,-0.596,-0.857,0.118,0.497,-0.069,0,0.5,0.644,-0.5,0,0,0,1,0,-0.5,0.64,-0.5,0,0,0,1,0
28.885,0,0.719,0,0,-0.963,0,-0.27,31.334,0.116,0.719,0.071,-0.102,-0.892,0.363,-0.25,-45.656,0.168,1.023,-0.245,-0.209,-0.608,0.746,-0.171,57.303,0.368,0.944,-0.573,-0.215,-0.581,0.767,-0.163,-85.944,0.447,0.944,-0.525,-0.695,-0.527,0.391,0.296,-89.954,0.495,0.918,-0.603,-0.695,-0.527,0.391,0.296,0,0.483,0.839,-0.584,-0.864,0.119,0.485,-0.067,0,0.5,0.644,-0.5,0,0,0,1,0,-0.5,0.64,-0.5,0,0,0,1,0
28.985,0,0.719,0,0,-0.959,0,-0.283,32.834,0.114,0.719,0.074,-0.107,-0.888,0.362,-0.262,-45.656,0.175,1.023,-0.241,-0.219,-0.606,0.744,-0.179,57.303,0.383,0.944,-0.564,-0.225,-0.579,0.765,-0.171,-85.944,0.461,0.944,-0.513,-0.7,-0.53,0.382,0.289,-89.954,0.51,0.918,-0.59,-0.7,-0.53,0.382,0.289,0,0.498,0.839,-0.571,-0.87,0.12,0.474,-0.066,0,0.5,0.644,-0.5,0,0,0,1,0,-0.5,0.64,-0.5,0,0,0,1,0
29.086,0,0.719,0,0,-0.955,0,-0.295,34.334,0.112,0.719,0.077,-0.111,-0.885,0.361,-0.273,-45.656,0.181,1.023,-0.236,-0.229,-0.604,0.741,-0.186,57.303,0.398,0.944,-0.553,-0.235,-0.577,0.762,-0.178,-85.944,0.474,0.944,-0.501,-0.705,-0.534,0.372,0.282,-89.954,0.526,0.918,-0.576,-0.705,-0.534,0.372,0.282,0,0.513,0.839,-0.558,-0.876,0.121,0.463,-0.064,0,0.5,0.644,-0.5,0,0,0,1,0,-0.5,0.64,-0.5,0,0,0,1,0
29.19,0,0.719,0,0,-0.952,0,-0.308,35.834,0.11,0.719,0.08,-0.116,-0.881,0.359,-0.285,-45.656,0.187,1.023,-0.231,-0.238,-0.601,0.738,-0.194,57.303,0.412,0.944,-0.543,-0.245,-0.575,0.758,-0.186,-85.944,0.487,0.944,-0.488,-0.71,-0.538,0.363,0.275,-89.954,0.541,0.918,-0.562,-0.71,-0.538,0.363,0.275,0,0.528,0.839,-0.544,-0.882,0.121,0.451,-0.063,0,0.5,0.644,-0.5,0,0,0,1,0,-0.5,0.64,-0.5,0,0,0,1,0
29.291,0,0.719,0,0,-0.947,0,-0.32,37.334,0.108,0.719,0.082,-0.121,-0.877,0.358,-0.296,-45.656,0.193,1.023,-0.226,-0.248,-0.598,0.734,-0.202,57.303,0.426,0.944,-0.532,-0.255,-0.572,0.755,-0.193,-85.944,0.5,0.944,-0.475,-0.714,-0.541,0.354,0.268,-89.954,0.555,0.918,-0.548,-0.714,-0.541,0.354,0.268,0,0.542,0.839,-0.53,-0.888,0.122,0.439,-0.061,0,0.5,0.644,-0.5,0,0,0,1,0,-0.5,0.64,-0.5,0,0,0,1,0
