kendriklim/UROP-VLM-Robotics/ur5_simulation/Imports/SampleTrajectory_Test3.csv
Timestamp,base_PosX,base_PosY,base_PosZ,base_RotX,base_RotY,base_RotZ,base_RotW,base_jointAngle,shoulder_PosX,shoulder_PosY,shoulder_PosZ,shoulder_RotX,shoulder_RotY,shoulder_RotZ,shoulder_RotW,shoulder_jointAngle,elbow_PosX,elbow_PosY,elbow_PosZ,elbow_RotX,elbow_RotY,elbow_RotZ,elbow_RotW,elbow_jointAngle,wrist1_PosX,wrist1_PosY,wrist1_PosZ,wrist1_RotX,wrist1_RotY,wrist1_RotZ,wrist1_RotW,wrist1_jointAngle,wrist2_PosX,wrist2_PosY,wrist2_PosZ,wrist2_RotX,wrist2_RotY,wrist2_RotZ,wrist2_RotW,wrist2_jointAngle,wrist3_PosX,wrist3_PosY,wrist3_PosZ,wrist3_RotX,wrist3_RotY,wrist3_RotZ,wrist3_RotW,wrist3_jointAngle,ee_PosX,ee_PosY,ee_PosZ,ee_RotX,ee_RotY,ee_RotZ,ee_RotW,suctionOn,block_PosX,block_PosY,block_PosZ,block_RotX,block_RotY,block_RotZ,block_RotW,platform_PosX,platform_PosY,platform_PosZ,platform_RotX,platform_RotY,platform_RotZ,platform_RotW
0.000,0.000,0.719,0.000,0.000,-1.000,0.000,-0.002,0.264,0.136,0.719,0.001,-0.001,-0.857,0.516,-0.002,-27.872,0.018,0.918,-0.376,-0.002,-0.553,0.833,-0.001,50.719,0.020,0.766,-0.737,-0.002,-0.464,0.886,-0.001,-78.091,0.113,0.766,-0.737,-0.526,-0.374,0.713,0.273,-72.523,0.113,0.712,-0.814,-0.547,-0.434,0.678,0.227,-9.873,0.137,0.647,-0.770,-0.694,0.080,0.640,-0.319,False,0.500,0.644,-0.500,-0.001,0.000,-0.001,1.000,-0.500,0.640,-0.500,0.000,0.000,0.000,1.000
0.147,0.000,0.719,0.000,0.000,-1.000,0.000,0.000,0.056,0.136,0.719,0.000,0.000,-0.923,0.384,0.000,-44.827,0.016,1.019,-0.301,0.000,-0.626,0.780,0.000,57.277,0.017,0.934,-0.684,0.000,-0.598,0.801,0.000,-85.942,0.110,0.934,-0.684,-0.567,-0.423,0.567,0.423,-89.945,0.110,0.907,-0.775,-0.567,-0.423,0.567,0.423,0.000,0.110,0.828,-0.752,-0.700,0.101,0.699,-0.102,False,0.500,0.644,-0.500,0.000,0.000,0.000,1.000,-0.500,0.640,-0.500,0.000,0.000,0.000,1.000
0.253,0.000,0.719,0.000,0.000,-1.000,0.000,0.000,0.008,0.136,0.719,0.000,0.000,-0.926,0.378,0.000,-45.523,0.016,1.022,-0.298,0.000,-0.631,0.776,0.000,57.302,0.016,0.942,-0.682,0.000,-0.603,0.798,0.000,-85.944,0.109,0.942,-0.682,-0.564,-0.427,0.564,0.426,-89.954,0.109,0.917,-0.773,-0.564,-0.427,0.564,0.426,0.000,0.109,0.837,-0.750,-0.700,0.097,0.700,-0.098,False,0.500,0.644,-0.500,0.000,0.000,0.000,1.000,-0.500,0.640,-0.500,0.000,0.000,0.000,1.000
0.353,0.000,0.719,0.000,0.000,-1.000,0.000,0.000,-0.012,0.136,0.719,0.000,0.000,-0.926,0.378,0.000,-45.634,0.016,1.023,-0.297,0.000,-0.632,0.775,0.000,57.303,0.016,0.944,-0.681,0.000,-0.604,0.797,0.000,-85.944,0.109,0.944,-0.681,-0.563,-0.427,0.564,0.427,-89.954,0.109,0.918,-0.772,-0.563,-0.427,0.564,0.427,0.000,0.109,0.839,-0.750,-0.700,0.096,0.701,-0.097,False,0.500,0.644,-0.500,0.000,0.000,0.000,1.000,-0.500,0.640,-0.500,0.000,0.000,0.000,1.000
0.453,0.000,0.719,0.000,0.000,-1.000,0.000,0.000,-0.019,0.136,0.719,0.000,0.000,-0.926,0.377,0.000,-45.652,0.016,1.023,-0.297,0.000,-0.632,0.775,0.000,57.303,0.016,0.944,-0.681,0.000,-0.604,0.797,0.000,-85.944,0.109,0.944,-0.681,-0.563,-0.427,0.564,0.427,-89.954,0.109,0.918,-0.772,-0.563,-0.427,0.564,0.427,0.000,0.109,0.839,-0.750,-0.700,0.096,0.701,-0.097,False,0.500,0.644,-0.500,0.000,0.000,0.000,1.000,-0.500,0.640,-0.500,0.000,0.000,0.000,1.000
0.554,0.000,0.719,0.000,0.000,-1.000,0.000,0.000,-0.022,0.136,0.719,0.000,0.000,-0.926,0.377,0.000,-45.655,0.016,1.023,-0.297,0.000,-0.632,0.775,0.000,57.303,0.016,0.944,-0.681,0.000,-0.604,0.797,0.000,-85.944,0.109,0.944,-0.681,-0.563,-0.427,0.564,0.427,-89.954,0.109,0.918,-0.772,-0.563,-0.427,0.564,0.427,0.000,0.109,0.839,-0.750,-0.700,0.096,0.701,-0.097,False,0.500,0.644,-0.500,0.000,0.000,0.000,1.000,-0.500,0.640,-0.500,0.000,0.000,0.000,1.000
0.661,0.000,0.719,0.000,0.000,-1.000,0.000,0.000,-0.023,0.136,0.719,0.000,0.000,-0.926,0.377,0.000,-45.656,0.016,1.023,-0.297,0.000,-0.632,0.775,0.000,57.303,0.016,0.944,-0.681,0.000,-0.604,0.797,0.000,-85.944,0.109,0.944,-0.681,-0.563,-0.427,0.564,0.427,-89.954,0.109,0.918,-0.772,-0.563,-0.427,0.564,0.427,0.000,0.109,0.839,-0.750,-0.700,0.096,0.701,-0.097,False,0.500,0.644,-0.500,0.000,0.000,0.000,1.000,-0.500,0.640,-0.500,0.000,0.000,0.000,1.000
0.767,0.000,0.719,0.000,0.000,-1.000,0.000,0.000,-0.023,0.136,0.719,0.000,0.000,-0.926,0.377,0.000,-45.656,0.016,1.023,-0.297,0.000,-0.632,0.775,0.000,57.303,0.016,0.944,-0.681,0.000,-0.604,0.797,0.000,-85.944,0.109,0.944,-0.681,-0.563,-0.427,0.564,0.427,-89.954,0.109,0.918,-0.772,-0.563,-0.427,0.564,0.427,0.000,0.109,0.839,-0.750,-0.700,0.096,0.701,-0.097,False,0.500,0.644,-0.500,0.000,0.000,0.000,1.000,-0.500,0.640,-0.500,0.000,0.000,0.000,1.000
0.868,0.000,0.719,0.000,0.000,-1.000,0.000,0.000,-0.023,0.136,0.719,0.000,0.000,-0.926,0.377,0.000,-45.656,0.016,1.023,-0.297,0.000,-0.632,0.775,0.000,57.303,0.016,0.944,-0.681,0.000,-0.604,0.797,0.000,-85.944,0.109,0.944,-0.681,-0.563,-0.427,0.564,0.427,-89.954,0.109,0.918,-0.772,-0.563,-0.427,0.564,0.427,0.000,0.109,0.839,-0.750,-0.700,0.096,0.701,-0.097,False,0.500,0.644,-0.500,0.000,0.000,0.000,1.000,-0.500,0.640,-0.500,0.000,0.000,0.000,1.000
0.968,0.000,0.719,0.000,0.000,-1.000,0.000,0.000,-0.023,0.136,0.719,0.000,0.000,-0.926,0.377,0.000,-45.656,0.016,1.023,-0.297,0.000,-0.632,0.775,0.000,57.303,0.016,0.944,-0.681,0.000,-0.604,0.797,0.000,-85.944,0.109,0.944,-0.681,-0.563,-0.427,0.564,0.427,-89.954,0.109,0.918,-0.772,-0.563,-0.427,0.564,0.427,0.000,0.109,0.839,-0.750,-0.700,0.096,0.701,-0.097,False,0.500,0.644,-0.500,0.000,0.000,0.000,1.000,-0.500,0.640,-0.500,0.000,0.000,0.000,1.000
1.073,0.000,0.719,0.000,0.000,-1.000,0.000,0.000,-0.023,0.136,0.719,0.000,0.000,-0.926,0.377,0.000,-45.656,0.016,1.023,-0.297,0.000,-0.632,0.775,0.000,57.303,0.016,0.944,-0.681,0.000,-0.604,0.797,0.000,-85.944,0.109,0.944,-0.681,-0.563,-0.427,0.564,0.427,-89.954,0.109,0.918,-0.772,-0.563,-0.427,0.564,0.427,0.000,0.109,0.839,-0.750,-0.700,0.096,0.701,-0.097,False,0.500,0.644,-0.500,0.000,0.000,0.000,1.000,-0.500,0.640,-0.500,0.000,0.000,0.000,1.000
1.174,0.000,0.719,0.000,0.000,-1.000,0.000,0.000,-0.023,0.136,0.719,0.000,0.000,-0.926,0.377,0.000,-45.656,0.016,1.023,-0.297,0.000,-0.632,0.775,0.000,57.303,0.016,0.944,-0.681,0.000,-0.604,0.797,0.000,-85.944,0.109,0.944,-0.681,-0.563,-0.427,0.564,0.427,-89.954,0.109,0.918,-0.772,-0.563,-0.427,0.564,0.427,0.000,0.109,0.839,-0.750,-0.700,0.096,0.701,-0.097,False,0.500,0.644,-0.500,0.000,0.000,0.000,1.000,-0.500,0.640,-0.500,0.000,0.000,0.000,1.000
1.276,0.000,0.719,0.000,0.000,-1.000,0.000,0.000,-0.023,0.136,0.719,0.000,0.000,-0.926,0.377,0.000,-45.656,0.016,1.023,-0.297,0.000,-0.632,0.775,0.000,57.303,0.016,0.944,-0.681,0.000,-0.604,0.797,0.000,-85.944,0.109,0.944,-0.681,-0.563,-0.427,0.564,0.427,-89.954,0.109,0.918,-0.772,-0.563,-0.427,0.564,0.427,0.000,0.109,0.839,-0.750,-0.700,0.096,0.701,-0.097,False,0.500,0.644,-0.500,0.000,0.000,0.000,1.000,-0.500,0.640,-0.500,0.000,0.000,0.000,1.000
1.381,0.000,0.719,0.000,0.000,-1.000,0.000,0.000,-0.023,0.136,0.719,0.000,0.000,-0.926,0.377,0.000,-45.656,0.016,1.023,-0.297,0.000,-0.632,0.775,0.000,57.303,0.016,0.944,-0.681,0.000,-0.604,0.797,0.000,-85.944,0.109,0.944,-0.681,-0.563,-0.427,0.564,0.427,-89.954,0.109,0.918,-0.772,-0.563,-0.427,0.564,0.427,0.000,0.109,0.839,-0.750,-0.700,0.096,0.701,-0.097,False,0.500,0.644,-0.500,0.000,0.000,0.000,1.000,-0.500,0.640,-0.500,0.000,0.000,0.000,1.000
1.484,0.000,0.719,0.000,0.000,-1.000,0.000,0.000,-0.023,0.136,0.719,0.000,0.000,-0.926,0.377,0.000,-45.656,0.016,1.023,-0.297,0.000,-0.632,0.775,0.000,57.303,0.016,0.944,-0.681,0.000,-0.604,0.797,0.000,-85.944,0.109,0.944,-0.681,-0.563,-0.427,0.564,0.427,-89.954,0.109,0.918,-0.772,-0.563,-0.427,0.564,0.427,0.000,0.109,0.839,-0.750,-0.700,0.096,0.701,-0.097,False,0.500,0.644,-0.500,0.000,0.000,0.000,1.000,-0.500,0.640,-0.500,0.000,0.000,0.000,1.000
1.585,0.000,0.719,0.000,0.000,-1.000,0.000,0.000,-0.023,0.136,0.719,0.000,0.000,-0.926,0.377,0.000,-45.656,0.016,1.023,-0.297,0.000,-0.632,0.775,0.000,57.303,0.016,0.944,-0.681,0.000,-0.604,0.797,0.000,-85.944,0.109,0.944,-0.681,-0.563,-0.427,0.564,0.427,-89.954,0.109,0.918,-0.772,-0.563,-0.427,0.564,0.427,0.000,0.109,0.839,-0.750,-0.700,0.096,0.701,-0.097,False,0.500,0.644,-0.500,0.000,0.000,0.000,1.000,-0.500,0.640,-0.500,0.000,0.000,0.000,1.000
1.688,0.000,0.719,0.000,0.000,-1.000,0.000,0.000,-0.023,0.136,0.719,0.000,0.000,-0.926,0.377,0.000,-45.656,0.016,1.023,-0.297,0.000,-0.632,0.775,0.000,57.303,0.016,0.944,-0.681,0.000,-0.604,0.797,0.000,-85.944,0.109,0.944,-0.681,-0.563,-0.427,0.564,0.427,-89.954,0.109,0.918,-0.772,-0.563,-0.427,0.564,0.427,0.000,0.109,0.839,-0.750,-0.700,0.096,0.701,-0.097,False,0.500,0.644,-0.500,0.000,0.000,0.000,1.000,-0.500,0.640,-0.500,0.000,0.000,0.000,1.000
1.789,0.000,0.719,0.000,0.000,-1.000,0.000,0.000,-0.023,0.136,0.719,0.000,0.000,-0.926,0.377,0.000,-45.656,0.016,1.023,-0.297,0.000,-0.632,0.775,0.000,57.303,0.016,0.944,-0.681,0.000,-0.604,0.797,0.000,-85.944,0.109,0.944,-0.681,-0.563,-0.427,0.564,0.427,-89.954,0.109,0.918,-0.772,-0.563,-0.427,0.564,0.427,0.000,0.109,0.839,-0.750,-0.700,0.096,0.701,-0.097,False,0.500,0.644,-0.500,0.000,0.000,0.000,1.000,-0.500,0.640,-0.500,0.000,0.000,0.000,1.000
1.890,0.000,0.719,0.000,0.000,-1.000,0.000,0.000,-0.023,0.136,0.719,0.000,0.000,-0.926,0.377,0.000,-45.656,0.016,1.023,-0.297,0.000,-0.632,0.775,0.000,57.303,0.016,0.944,-0.681,0.000,-0.604,0.797,0.000,-85.944,0.109,0.944,-0.681,-0.563,-0.427,0.564,0.427,-89.954,0.109,0.918,-0.772,-0.563,-0.427,0.564,0.427,0.000,0.109,0.839,-0.750,-0.700,0.096,0.701,-0.097,False,0.500,0.644,-0.500,0.000,0.000,0.000,1.000,-0.500,0.640,-0.500,0.000,0.000,0.000,1.000
1.991,0.000,0.719,0.000,0.000,-1.000,0.000,0.000,-0.023,0.136,0.719,0.000,0.000,-0.926,0.377,0.000,-45.656,0.016,1.023,-0.297,0.000,-0.632,0.775,0.000,57.303,0.016,0.944,-0.681,0.000,-0.604,0.797,0.000,-85.944,0.109,0.944,-0.681,-0.563,-0.427,0.564,0.427,-89.954,0.109,0.918,-0.772,-0.563,-0.427,0.564,0.427,0.000,0.109,0.839,-0.750,-0.700,0.096,0.701,-0.097,False,0.500,0.644,-0.500,0.000,0.000,0.000,1.000,-0.500,0.640,-0.500,0.000,0.000,0.000,1.000
2.092,0.000,0.719,0.000,0.000,-1.000,0.000,0.000,-0.023,0.136,0.719,0.000,0.000,-0.926,0.377,0.000,-45.656,0.016,1.023,-0.297,0.000,-0.632,0.775,0.000,57.303,0.016,0.944,-0.681,0.000,-0.604,0.797,0.000,-85.944,0.109,0.944,-0.681,-0.563,-0.427,0.564,0.427,-89.954,0.109,0.918,-0.772,-0.563,-0.427,0.564,0.427,0.000,0.109,0.839,-0.750,-0.700,0.096,0.701,-0.097,False,0.500,0.644,-0.500,0.000,0.000,0.000,1.000,-0.500,0.640,-0.500,0.000,0.000,0.000,1.000
2.193,0.000,0.719,0.000,0.000,-1.000,0.000,0.000,-0.023,0.136,0.719,0.000,0.000,-0.926,0.377,0.000,-45.656,0.016,1.023,-0.297,0.000,-0.632,0.775,0.000,57.303,0.016,0.944,-0.681,0.000,-0.604,0.797,0.000,-85.944,0.109,0.944,-0.681,-0.563,-0.427,0.564,0.427,-89.954,0.109,0.918,-0.772,-0.563,-0.427,0.564,0.427,0.000,0.109,0.839,-0.750,-0.700,0.096,0.701,-0.097,False,0.500,0.644,-0.500,0.000,0.000,0.000,1.000,-0.500,0.640,-0.500,0.000,0.000,0.000,1.000
2.295,0.000,0.719,0.000,0.000,-1.000,0.000,0.000,-0.023,0.136,0.719,0.000,0.000,-0.926,0.377,0.000,-45.656,0.016,1.023,-0.297,0.000,-0.632,0.775,0.000,57.303,0.016,0.944,-0.681,0.000,-0.604,0.797,0.000,-85.944,0.109,0.944,-0.681,-0.563,-0.427,0.564,0.427,-89.954,0.109,0.918,-0.772,-0.563,-0.427,0.564,0.427,0.000,0.109,0.839,-0.750,-0.700,0.096,0.701,-0.097,False,0.500,0.644,-0.500,0.000,0.000,0.000,1.000,-0.500,0.640,-0.500,0.000,0.000,0.000,1.000
2.399,0.000,0.719,0.000,0.000,-1.000,0.000,0.000,-0.023,0.136,0.719,0.000,0.000,-0.926,0.377,0.000,-45.656,0.016,1.023,-0.297,0.000,-0.632,0.775,0.000,57.303,0.016,0.944,-0.681,0.000,-0.604,0.797,0.000,-85.944,0.109,0.944,-0.681,-0.563,-0.427,0.564,0.427,-89.954,0.109,0.918,-0.772,-0.563,-0.427,0.564,0.427,0.000,0.109,0.839,-0.750,-0.700,0.096,0.701,-0.097,False,0.500,0.644,-0.500,0.000,0.000,0.000,1.000,-0.500,0.640,-0.500,0.000,0.000,0.000,1.000
2.504,0.000,0.719,0.000,0.000,-1.000,0.000,0.000,-0.023,0.136,0.719,0.000,0.000,-0.926,0.377,0.000,-45.656,0.016,1.023,-0.297,0.000,-0.632,0.775,0.000,57.303,0.016,0.944,-0.681,0.000,-0.604,0.797,0.000,-85.944,0.109,0.944,-0.681,-0.563,-0.427,0.564,0.427,-89.954,0.109,0.918,-0.772,-0.563,-0.427,0.564,0.427,0.000,0.109,0.839,-0.750,-0.700,0.096,0.701,-0.097,False,0.500,0.644,-0.500,0.000,0.000,0.000,1.000,-0.500,0.640,-0.500,0.000,0.000,0.000,1.000
2.612,0.000,0.719,0.000,0.000,-1.000,0.000,0.000,-0.023,0.136,0.719,0.000,0.000,-0.926,0.377,0.000,-45.656,0.016,1.023,-0.297,0.000,-0.632,0.775,0.000,57.303,0.016,0.944,-0.681,0.000,-0.604,0.797,0.000,-85.944,0.109,0.944,-0.681,-0.563,-0.427,0.564,0.427,-89.954,0.109,0.918,-0.772,-0.563,-0.427,0.564,0.427,0.000,0.109,0.839,-0.750,-0.700,0.096,0.701,-0.097,False,0.500,0.644,-0.500,0.000,0.000,0.000,1.000,-0.500,0.640,-0.500,0.000,0.000,0.000,1.000
2.719,0.000,0.719,0.000,0.000,-1.000,0.000,0.000,-0.023,0.136,0.719,0.000,0.000,-0.926,0.377,0.000,-45.656,0.016,1.023,-0.297,0.000,-0.632,0.775,0.000,57.303,0.016,0.944,-0.681,0.000,-0.604,0.797,0.000,-85.944,0.109,0.944,-0.681,-0.563,-0.427,0.564,0.427,-89.954,0.109,0.918,-0.772,-0.563,-0.427,0.564,0.427,0.000,0.109,0.839,-0.750,-0.700,0.096,0.701,-0.097,False,0.500,0.644,-0.500,0.000,0.000,0.000,1.000,-0.500,0.640,-0.500,0.000,0.000,0.000,1.000
2.823,0.000,0.719,0.000,0.000,-1.000,0.000,0.000,-0.023,0.136,0.719,0.000,0.000,-0.926,0.377,0.000,-45.656,0.016,1.023,-0.297,0.000,-0.632,0.775,0.000,57.303,0.016,0.944,-0.681,0.000,-0.604,0.797,0.000,-85.944,0.109,0.944,-0.681,-0.563,-0.427,0.564,0.427,-89.954,0.109,0.918,-0.772,-0.563,-0.427,0.564,0.427,0.000,0.109,0.839,-0.750,-0.700,0.096,0.701,-0.097,False,0.500,0.644,-0.500,0.000,0.000,0.000,1.000,-0.500,0.640,-0.500,0.000,0.000,0.000,1.000
2.925,0.000,0.719,0.000,0.000,-1.000,0.000,0.000,-0.023,0.136,0.719,0.000,0.000,-0.926,0.377,0.000,-45.656,0.016,1.023,-0.297,0.000,-0.632,0.775,0.000,57.303,0.016,0.944,-0.681,0.000,-0.604,0.797,0.000,-85.944,0.109,0.944,-0.681,-0.563,-0.427,0.564,0.427,-89.954,0.109,0.918,-0.772,-0.563,-0.427,0.564,0.427,0.000,0.109,0.839,-0.750,-0.700,0.096,0.701,-0.097,False,0.500,0.644,-0.500,0.000,0.000,0.000,1.000,-0.500,0.640,-0.500,0.000,0.000,0.000,1.000
3.025,0.000,0.719,0.000,0.000,-1.000,0.000,0.000,-0.023,0.136,0.719,0.000,0.000,-0.926,0.377,0.000,-45.656,0.016,1.023,-0.297,0.000,-0.632,0.775,0.000,57.303,0.016,0.944,-0.681,0.000,-0.604,0.797,0.000,-85.944,0.109,0.944,-0.681,-0.563,-0.427,0.564,0.427,-89.954,0.109,0.918,-0.772,-0.563,-0.427,0.564,0.427,0.000,0.109,0.839,-0.750,-0.700,0.096,0.701,-0.097,False,0.500,0.644,-0.500,0.000,0.000,0.000,1.000,-0.500,0.640,-0.500,0.000,0.000,0.000,1.000
3.127,0.000,0.719,0.000,0.000,-1.000,0.000,0.000,-0.023,0.136,0.719,0.000,0.000,-0.926,0.377,0.000,-45.656,0.016,1.023,-0.297,0.000,-0.632,0.775,0.000,57.303,0.016,0.944,-0.681,0.000,-0.604,0.797,0.000,-85.944,0.109,0.944,-0.681,-0.563,-0.427,0.564,0.427,-89.954,0.109,0.918,-0.772,-0.563,-0.427,0.564,0.427,0.000,0.109,0.839,-0.750,-0.700,0.096,0.701,-0.097,False,0.500,0.644,-0.500,0.000,0.000,0.000,1.000,-0.500,0.640,-0.500,0.000,0.000,0.000,1.000
3.229,0.000,0.719,0.000,0.000,-1.000,0.000,0.000,-0.023,0.136,0.719,0.000,0.000,-0.926,0.377,0.000,-45.656,0.016,1.023,-0.297,0.000,-0.632,0.775,0.000,57.303,0.016,0.944,-0.681,0.000,-0.604,0.797,0.000,-85.944,0.109,0.944,-0.681,-0.563,-0.427,0.564,0.427,-89.954,0.109,0.918,-0.772,-0.563,-0.427,0.564,0.427,0.000,0.109,0.839,-0.750,-0.700,0.096,0.701,-0.097,False,0.500,0.644,-0.500,0.000,0.000,0.000,1.000,-0.500,0.640,-0.500,0.000,0.000,0.000,1.000
3.332,0.000,0.719,0.000,0.000,-1.000,0.000,0.000,-0.023,0.136,0.719,0.000,0.000,-0.926,0.377,0.000,-45.656,0.016,1.023,-0.297,0.000,-0.632,0.775,0.000,57.303,0.016,0.944,-0.681,0.000,-0.604,0.797,0.000,-85.944,0.109,0.944,-0.681,-0.563,-0.427,0.564,0.427,-89.954,0.109,0.918,-0.772,-0.563,-0.427,0.564,0.427,0.000,0.109,0.839,-0.750,-0.700,0.096,0.701,-0.097,False,0.500,0.644,-0.500,0.000,0.000,0.000,1.000,-0.500,0.640,-0.500,0.000,0.000,0.000,1.000
3.434,0.000,0.719,0.000,0.000,-1.000,0.000,0.000,-0.023,0.136,0.719,0.000,0.000,-0.926,0.377,0.000,-45.656,0.016,1.023,-0.297,0.000,-0.632,0.775,0.000,57.303,0.016,0.944,-0.681,0.000,-0.604,0.797,0.000,-85.944,0.109,0.944,-0.681,-0.563,-0.427,0.564,0.427,-89.954,0.109,0.918,-0.772,-0.563,-0.427,0.564,0.427,0.000,0.109,0.839,-0.750,-0.700,0.096,0.701,-0.097,False,0.500,0.644,-0.500,0.000,0.000,0.000,1.000,-0.500,0.640,-0.500,0.000,0.000,0.000,1.000
3.537,0.000,0.719,0.000,0.000,-1.000,0.000,0.000,-0.023,0.136,0.719,0.000,0.000,-0.926,0.377,0.000,-45.656,0.016,1.023,-0.297,0.000,-0.632,0.775,0.000,57.303,0.016,0.944,-0.681,0.000,-0.604,0.797,0.000,-85.944,0.109,0.944,-0.681,-0.563,-0.427,0.564,0.427,-89.954,0.109,0.918,-0.772,-0.563,-0.427,0.564,0.427,0.000,0.109,0.839,-0.750,-0.700,0.096,0.701,-0.097,False,0.500,0.644,-0.500,0.000,0.000,0.000,1.000,-0.500,0.640,-0.500,0.000,0.000,0.000,1.000
3.640,0.000,0.719,0.000,0.000,-1.000,0.000,0.000,-0.023,0.136,0.719,0.000,0.000,-0.926,0.377,0.000,-45.656,0.016,1.023,-0.297,0.000,-0.632,0.775,0.000,57.303,0.016,0.944,-0.681,0.000,-0.604,0.797,0.000,-85.944,0.109,0.944,-0.681,-0.563,-0.427,0.564,0.427,-89.954,0.109,0.918,-0.772,-0.563,-0.427,0.564,0.427,0.000,0.109,0.839,-0.750,-0.700,0.096,0.701,-0.097,False,0.500,0.644,-0.500,0.000,0.000,0.000,1.000,-0.500,0.640,-0.500,0.000,0.000,0.000,1.000
3.741,0.000,0.719,0.000,0.000,-1.000,0.000,0.000,-0.023,0.136,0.719,0.000,0.000,-0.926,0.377,0.000,-45.656,0.016,1.023,-0.297,0.000,-0.632,0.775,0.000,57.303,0.016,0.944,-0.681,0.000,-0.604,0.797,0.000,-85.944,0.109,0.944,-0.681,-0.563,-0.427,0.564,0.427,-89.954,0.109,0.918,-0.772,-0.563,-0.427,0.564,0.427,0.000,0.109,0.839,-0.750,-0.700,0.096,0.701,-0.097,False,0.500,0.644,-0.500,0.000,0.000,0.000,1.000,-0.500,0.640,-0.500,0.000,0.000,0.000,1.000
3.845,0.000,0.719,0.000,0.000,-1.000,0.000,0.000,-0.023,0.136,0.719,0.000,0.000,-0.926,0.377,0.000,-45.656,0.016,1.023,-0.297,0.000,-0.632,0.775,0.000,57.303,0.016,0.944,-0.681,0.000,-0.604,0.797,0.000,-85.944,0.109,0.944,-0.681,-0.563,-0.427,0.564,0.427,-89.954,0.109,0.918,-0.772,-0.563,-0.427,0.564,0.427,0.000,0.109,0.839,-0.750,-0.700,0.096,0.701,-0.097,False,0.500,0.644,-0.500,0.000,0.000,0.000,1.000,-0.500,0.640,-0.500,0.000,0.000,0.000,1.000
3.946,0.000,0.719,0.000,0.000,-1.000,0.000,0.000,-0.023,0.136,0.719,0.000,0.000,-0.926,0.377,0.000,-45.656,0.016,1.023,-0.297,0.000,-0.632,0.775,0.000,57.303,0.016,0.944,-0.681,0.000,-0.604,0.797,0.000,-85.944,0.109,0.944,-0.681,-0.563,-0.427,0.564,0.427,-89.954,0.109,0.918,-0.772,-0.563,-0.427,0.564,0.427,0.000,0.109,0.839,-0.750,-0.700,0.096,0.701,-0.097,False,0.500,0.644,-0.500,0.000,0.000,0.000,1.000,-0.500,0.640,-0.500,0.000,0.000,0.000,1.000
4.048,0.000,0.719,0.000,0.000,-1.000,0.000,0.000,-0.023,0.136,0.719,0.000,0.000,-0.926,0.377,0.000,-45.656,0.016,1.023,-0.297,0.000,-0.632,0.775,0.000,57.303,0.016,0.944,-0.681,0.000,-0.604,0.797,0.000,-85.944,0.109,0.944,-0.681,-0.563,-0.427,0.564,0.427,-89.954,0.109,0.918,-0.772,-0.563,-0.427,0.564,0.427,0.000,0.109,0.839,-0.750,-0.700,0.096,0.701,-0.097,False,0.500,0.644,-0.500,0.000,0.000,0.000,1.000,-0.500,0.640,-0.500,0.000,0.000,0.000,1.000
4.149,0.000,0.719,0.000,0.000,-1.000,0.000,0.000,-0.023,0.136,0.719,0.000,0.000,-0.926,0.377,0.000,-45.656,0.016,1.023,-0.297,0.000,-0.632,0.775,0.000,57.303,0.016,0.944,-0.681,0.000,-0.604,0.797,0.000,-85.944,0.109,0.944,-0.681,-0.563,-0.427,0.564,0.427,-89.954,0.109,0.918,-0.772,-0.563,-0.427,0.564,0.427,0.000,0.109,0.839,-0.750,-0.700,0.096,0.701,-0.097,False,0.500,0.644,-0.500,0.000,0.000,0.000,1.000,-0.500,0.640,-0.500,0.000,0.000,0.000,1.000
4.251,0.000,0.719,0.000,0.000,-1.000,0.000,0.000,-0.023,0.136,0.719,0.000,0.000,-0.926,0.377,0.000,-45.656,0.016,1.023,-0.297,0.000,-0.632,0.775,0.000,57.303,0.016,0.944,-0.681,0.000,-0.604,0.797,0.000,-85.944,0.109,0.944,-0.681,-0.563,-0.427,0.564,0.427,-89.954,0.109,0.918,-0.772,-0.563,-0.427,0.564,0.427,0.000,0.109,0.839,-0.750,-0.700,0.096,0.701,-0.097,False,0.500,0.644,-0.500,0.000,0.000,0.000,1.000,-0.500,0.640,-0.500,0.000,0.000,0.000,1.000
4.353,0.000,0.719,0.000,0.000,-1.000,0.000,0.000,-0.023,0.136,0.719,0.000,0.000,-0.926,0.377,0.000,-45.656,0.016,1.023,-0.297,0.000,-0.632,0.775,0.000,57.303,0.016,0.944,-0.681,0.000,-0.604,0.797,0.000,-85.944,0.109,0.944,-0.681,-0.563,-0.427,0.564,0.427,-89.954,0.109,0.918,-0.772,-0.563,-0.427,0.564,0.427,0.000,0.109,0.839,-0.750,-0.700,0.096,0.701,-0.097,False,0.500,0.644,-0.500,0.000,0.000,0.000,1.000,-0.500,0.640,-0.500,0.000,0.000,0.000,1.000
4.456,0.000,0.719,0.000,0.000,-1.000,0.000,0.000,-0.023,0.136,0.719,0.000,0.000,-0.926,0.377,0.000,-45.656,0.016,1.023,-0.297,0.000,-0.632,0.775,0.000,57.303,0.016,0.944,-0.681,0.000,-0.604,0.797,0.000,-85.944,0.109,0.944,-0.681,-0.563,-0.427,0.564,0.427,-89.954,0.109,0.918,-0.772,-0.563,-0.427,0.564,0.427,0.000,0.109,0.839,-0.750,-0.700,0.096,0.701,-0.097,False,0.500,0.644,-0.500,0.000,0.000,0.000,1.000,-0.500,0.640,-0.500,0.000,0.000,0.000,1.000
4.558,0.000,0.719,0.000,0.000,-1.000,0.000,0.000,-0.023,0.136,0.719,0.000,0.000,-0.926,0.377,0.000,-45.656,0.016,1.023,-0.297,0.000,-0.632,0.775,0.000,57.303,0.016,0.944,-0.681,0.000,-0.604,0.797,0.000,-85.944,0.109,0.944,-0.681,-0.563,-0.427,0.564,0.427,-89.954,0.109,0.918,-0.772,-0.563,-0.427,0.564,0.427,0.000,0.109,0.839,-0.750,-0.700,0.096,0.701,-0.097,False,0.500,0.644,-0.500,0.000,0.000,0.000,1.000,-0.500,0.640,-0.500,0.000,0.000,0.000,1.000
4.658,0.000,0.719,0.000,0.000,-1.000,0.000,0.000,-0.023,0.136,0.719,0.000,0.000,-0.926,0.377,0.000,-45.656,0.016,1.023,-0.297,0.000,-0.632,0.775,0.000,57.303,0.016,0.944,-0.681,0.000,-0.604,0.797,0.000,-85.944,0.109,0.944,-0.681,-0.563,-0.427,0.564,0.427,-89.954,0.109,0.918,-0.772,-0.563,-0.427,0.564,0.427,0.000,0.109,0.839,-0.750,-0.700,0.096,0.701,-0.097,False,0.500,0.644,-0.500,0.000,0.000,0.000,1.000,-0.500,0.640,-0.500,0.000,0.000,0.000,1.000
4.761,0.000,0.719,0.000,0.000,-1.000,0.000,0.000,-0.023,0.136,0.719,0.000,0.000,-0.926,0.377,0.000,-45.656,0.016,1.023,-0.297,0.000,-0.632,0.775,0.000,57.303,0.016,0.944,-0.681,0.000,-0.604,0.797,0.000,-85.944,0.109,0.944,-0.681,-0.563,-0.427,0.564,0.427,-89.954,0.109,0.918,-0.772,-0.563,-0.427,0.564,0.427,0.000,0.109,0.839,-0.750,-0.700,0.096,0.701,-0.097,False,0.500,0.644,-0.500,0.000,0.000,0.000,1.000,-0.500,0.640,-0.500,0.000,0.000,0.000,1.000
4.864,0.000,0.719,0.000,0.000,-1.000,0.000,0.000,-0.023,0.136,0.719,0.000,0.000,-0.926,0.377,0.000,-45.656,0.016,1.023,-0.297,0.000,-0.632,0.775,0.000,57.303,0.016,0.944,-0.681,0.000,-0.604,0.797,0.000,-85.944,0.109,0.944,-0.681,-0.563,-0.427,0.564,0.427,-89.954,0.109,0.918,-0.772,-0.563,-0.427,0.564,0.427,0.000,0.109,0.839,-0.750,-0.700,0.096,0.701,-0.097,False,0.500,0.644,-0.500,0.000,0.000,0.000,1.000,-0.500,0.640,-0.500,0.000,0.000,0.000,1.000
4.969,0.000,0.719,0.000,0.000,-1.000,0.000,0.000,-0.023,0.136,0.719,0.000,0.000,-0.926,0.377,0.000,-45.656,0.016,1.023,-0.297,0.000,-0.632,0.775,0.000,57.303,0.016,0.944,-0.681,0.000,-0.604,0.797,0.000,-85.944,0.109,0.944,-0.681,-0.563,-0.427,0.564,0.427,-89.954,0.109,0.918,-0.772,-0.563,-0.427,0.564,0.427,0.000,0.109,0.839,-0.750,-0.700,0.096,0.701,-0.097,False,0.500,0.644,-0.500,0.000,0.000,0.000,1.000,-0.500,0.640,-0.500,0.000,0.000,0.000,1.000
5.073,0.000,0.719,0.000,0.000,-1.000,0.000,0.000,-0.023,0.136,0.719,0.000,0.000,-0.926,0.377,0.000,-45.656,0.016,1.023,-0.297,0.000,-0.632,0.775,0.000,57.303,0.016,0.944,-0.681,0.000,-0.604,0.797,0.000,-85.944,0.109,0.944,-0.681,-0.563,-0.427,0.564,0.427,-89.954,0.109,0.918,-0.772,-0.563,-0.427,0.564,0.427,0.000,0.109,0.839,-0.750,-0.700,0.096,0.701,-0.097,False,0.500,0.644,-0.500,0.000,0.000,0.000,1.000,-0.500,0.640,-0.500,0.000,0.000,0.000,1.000
5.175,0.000,0.719,0.000,0.000,-1.000,0.000,0.000,-0.023,0.136,0.719,0.000,0.000,-0.926,0.377,0.000,-45.656,0.016,1.023,-0.297,0.000,-0.632,0.775,0.000,57.303,0.016,0.944,-0.681,0.000,-0.604,0.797,0.000,-85.944,0.109,0.944,-0.681,-0.563,-0.427,0.564,0.427,-89.954,0.109,0.918,-0.772,-0.563,-0.427,0.564,0.427,0.000,0.109,0.839,-0.750,-0.700,0.096,0.701,-0.097,False,0.500,0.644,-0.500,0.000,0.000,0.000,1.000,-0.500,0.640,-0.500,0.000,0.000,0.000,1.000
5.278,0.000,0.719,0.000,0.000,-1.000,0.000,0.000,-0.023,0.136,0.719,0.000,0.000,-0.926,0.377,0.000,-45.656,0.016,1.023,-0.297,0.000,-0.632,0.775,0.000,57.303,0.016,0.944,-0.681,0.000,-0.604,0.797,0.000,-85.944,0.109,0.944,-0.681,-0.563,-0.427,0.564,0.427,-89.954,0.109,0.918,-0.772,-0.563,-0.427,0.564,0.427,0.000,0.109,0.839,-0.750,-0.700,0.096,0.701,-0.097,False,0.500,0.644,-0.500,0.000,0.000,0.000,1.000,-0.500,0.640,-0.500,0.000,0.000,0.000,1.000
5.382,0.000,0.719,0.000,0.000,-1.000,0.000,0.000,-0.023,0.136,0.719,0.000,0.000,-0.926,0.377,0.000,-45.656,0.016,1.023,-0.297,0.000,-0.632,0.775,0.000,57.303,0.016,0.944,-0.681,0.000,-0.604,0.797,0.000,-85.944,0.109,0.944,-0.681,-0.563,-0.427,0.564,0.427,-89.954,0.109,0.918,-0.772,-0.563,-0.427,0.564,0.427,0.000,0.109,0.839,-0.750,-0.700,0.096,0.701,-0.097,False,0.500,0.644,-0.500,0.000,0.000,0.000,1.000,-0.500,0.640,-0.500,0.000,0.000,0.000,1.000
5.485,0.000,0.719,0.000,0.000,-1.000,0.000,0.000,-0.023,0.136,0.719,0.000,0.000,-0.926,0.377,0.000,-45.656,0.016,1.023,-0.297,0.000,-0.632,0.775,0.000,57.303,0.016,0.944,-0.681,0.000,-0.604,0.797,0.000,-85.944,0.109,0.944,-0.681,-0.563,-0.427,0.564,0.427,-89.954,0.109,0.918,-0.772,-0.563,-0.427,0.564,0.427,0.000,0.109,0.839,-0.750,-0.700,0.096,0.701,-0.097,False,0.500,0.644,-0.500,0.000,0.000,0.000,1.000,-0.500,0.640,-0.500,0.000,0.000,0.000,1.000
5.587,0.000,0.719,0.000,0.000,-1.000,0.000,0.000,-0.023,0.136,0.719,0.000,0.000,-0.926,0.377,0.000,-45.656,0.016,1.023,-0.297,0.000,-0.632,0.775,0.000,57.303,0.016,0.944,-0.681,0.000,-0.604,0.797,0.000,-85.944,0.109,0.944,-0.681,-0.563,-0.427,0.564,0.427,-89.954,0.109,0.918,-0.772,-0.563,-0.427,0.564,0.427,0.000,0.109,0.839,-0.750,-0.700,0.096,0.701,-0.097,False,0.500,0.644,-0.500,0.000,0.000,0.000,1.000,-0.500,0.640,-0.500,0.000,0.000,0.000,1.000
5.691,0.000,0.719,0.000,0.000,-1.000,0.000,0.000,-0.023,0.136,0.719,0.000,0.000,-0.926,0.377,0.000,-45.656,0.016,1.023,-0.297,0.000,-0.632,0.775,0.000,57.303,0.016,0.944,-0.681,0.000,-0.604,0.797,0.000,-85.944,0.109,0.944,-0.681,-0.563,-0.427,0.564,0.427,-89.954,0.109,0.918,-0.772,-0.563,-0.427,0.564,0.427,0.000,0.109,0.839,-0.750,-0.700,0.096,0.701,-0.097,False,0.500,0.644,-0.500,0.000,0.000,0.000,1.000,-0.500,0.640,-0.500,0.000,0.000,0.000,1.000
5.791,0.000,0.719,0.000,0.000,-1.000,0.000,0.000,-0.023,0.136,0.719,0.000,0.000,-0.926,0.377,0.000,-45.656,0.016,1.023,-0.297,0.000,-0.632,0.775,0.000,57.303,0.016,0.944,-0.681,0.000,-0.604,0.797,0.000,-85.944,0.109,0.944,-0.681,-0.563,-0.427,0.564,0.427,-89.954,0.109,0.918,-0.772,-0.563,-0.427,0.564,0.427,0.000,0.109,0.839,-0.750,-0.700,0.096,0.701,-0.097,False,0.500,0.644,-0.500,0.000,0.000,0.000,1.000,-0.500,0.640,-0.500,0.000,0.000,0.000,1.000
5.891,0.000,0.719,0.000,0.000,-1.000,0.000,0.000,-0.023,0.136,0.719,0.000,0.000,-0.926,0.377,0.000,-45.656,0.016,1.023,-0.297,0.000,-0.632,0.775,0.000,57.303,0.016,0.944,-0.681,0.000,-0.604,0.797,0.000,-85.944,0.109,0.944,-0.681,-0.563,-0.427,0.564,0.427,-89.954,0.109,0.918,-0.772,-0.563,-0.427,0.564,0.427,0.000,0.109,0.839,-0.750,-0.700,0.096,0.701,-0.097,False,0.500,0.644,-0.500,0.000,0.000,0.000,1.000,-0.500,0.640,-0.500,0.000,0.000,0.000,1.000
5.994,0.000,0.719,0.000,0.000,-1.000,0.000,0.000,-0.023,0.136,0.719,0.000,0.000,-0.926,0.377,0.000,-45.656,0.016,1.023,-0.297,0.000,-0.632,0.775,0.000,57.303,0.016,0.944,-0.681,0.000,-0.604,0.797,0.000,-85.944,0.109,0.944,-0.681,-0.563,-0.427,0.564,0.427,-89.954,0.109,0.918,-0.772,-0.563,-0.427,0.564,0.427,0.000,0.109,0.839,-0.750,-0.700,0.096,0.701,-0.097,False,0.500,0.644,-0.500,0.000,0.000,0.000,1.000,-0.500,0.640,-0.500,0.000,0.000,0.000,1.000
6.098,0.000,0.719,0.000,0.000,-1.000,0.000,0.000,-0.023,0.136,0.719,0.000,0.000,-0.926,0.377,0.000,-45.656,0.016,1.023,-0.297,0.000,-0.632,0.775,0.000,57.303,0.016,0.944,-0.681,0.000,-0.604,0.797,0.000,-85.944,0.109,0.944,-0.681,-0.563,-0.427,0.564,0.427,-89.954,0.109,0.918,-0.772,-0.563,-0.427,0.564,0.427,0.000,0.109,0.839,-0.750,-0.700,0.096,0.701,-0.097,False,0.500,0.644,-0.500,0.000,0.000,0.000,1.000,-0.500,0.640,-0.500,0.000,0.000,0.000,1.000
6.203,0.000,0.719,0.000,0.000,-1.000,0.000,0.000,-0.023,0.136,0.719,0.000,0.000,-0.926,0.377,0.000,-45.656,0.016,1.023,-0.297,0.000,-0.632,0.775,0.000,57.303,0.016,0.944,-0.681,0.000,-0.604,0.797,0.000,-85.944,0.109,0.944,-0.681,-0.563,-0.427,0.564,0.427,-89.954,0.109,0.918,-0.772,-0.563,-0.427,0.564,0.427,0.000,0.109,0.839,-0.750,-0.700,0.096,0.701,-0.097,False,0.500,0.644,-0.500,0.000,0.000,0.000,1.000,-0.500,0.640,-0.500,0.000,0.000,0.000,1.000
6.304,0.000,0.719,0.000,0.000,-1.000,0.000,0.000,-0.023,0.136,0.719,0.000,0.000,-0.926,0.377,0.000,-45.656,0.016,1.023,-0.297,0.000,-0.632,0.775,0.000,57.303,0.016,0.944,-0.681,0.000,-0.604,0.797,0.000,-85.944,0.109,0.944,-0.681,-0.563,-0.427,0.564,0.427,-89.954,0.109,0.918,-0.772,-0.563,-0.427,0.564,0.427,0.000,0.109,0.839,-0.750,-0.700,0.096,0.701,-0.097,False,0.500,0.644,-0.500,0.000,0.000,0.000,1.000,-0.500,0.640,-0.500,0.000,0.000,0.000,1.000
6.409,0.000,0.719,0.000,0.000,-1.000,0.000,0.000,-0.023,0.136,0.719,0.000,0.000,-0.926,0.377,0.000,-45.656,0.016,1.023,-0.297,0.000,-0.632,0.775,0.000,57.303,0.016,0.944,-0.681,0.000,-0.604,0.797,0.000,-85.944,0.109,0.944,-0.681,-0.563,-0.427,0.564,0.427,-89.954,0.109,0.918,-0.772,-0.563,-0.427,0.564,0.427,0.000,0.109,0.839,-0.750,-0.700,0.096,0.701,-0.097,False,0.500,0.644,-0.500,0.000,0.000,0.000,1.000,-0.500,0.640,-0.500,0.000,0.000,0.000,1.000
6.509,0.000,0.719,0.000,0.000,-1.000,0.000,0.000,-0.023,0.136,0.719,0.000,0.000,-0.926,0.377,0.000,-45.656,0.016,1.023,-0.297,0.000,-0.632,0.775,0.000,57.303,0.016,0.944,-0.681,0.000,-0.604,0.797,0.000,-85.944,0.109,0.944,-0.681,-0.563,-0.427,0.564,0.427,-89.954,0.109,0.918,-0.772,-0.563,-0.427,0.564,0.427,0.000,0.109,0.839,-0.750,-0.700,0.096,0.701,-0.097,False,0.500,0.644,-0.500,0.000,0.000,0.000,1.000,-0.500,0.640,-0.500,0.000,0.000,0.000,1.000
6.612,0.000,0.719,0.000,0.000,-1.000,0.000,0.000,-0.023,0.136,0.719,0.000,0.000,-0.926,0.377,0.000,-45.656,0.016,1.023,-0.297,0.000,-0.632,0.775,0.000,57.303,0.016,0.944,-0.681,0.000,-0.604,0.797,0.000,-85.944,0.109,0.944,-0.681,-0.563,-0.427,0.564,0.427,-89.954,0.109,0.918,-0.772,-0.563,-0.427,0.564,0.427,0.000,0.109,0.839,-0.750,-0.700,0.096,0.701,-0.097,False,0.500,0.644,-0.500,0.000,0.000,0.000,1.000,-0.500,0.640,-0.500,0.000,0.000,0.000,1.000
6.716,0.000,0.719,0.000,0.000,-1.000,0.000,0.000,-0.023,0.136,0.719,0.000,0.000,-0.926,0.377,0.000,-45.656,0.016,1.023,-0.297,0.000,-0.632,0.775,0.000,57.303,0.016,0.944,-0.681,0.000,-0.604,0.797,0.000,-85.944,0.109,0.944,-0.681,-0.563,-0.427,0.564,0.427,-89.954,0.109,0.918,-0.772,-0.563,-0.427,0.564,0.427,0.000,0.109,0.839,-0.750,-0.700,0.096,0.701,-0.097,False,0.500,0.644,-0.500,0.000,0.000,0.000,1.000,-0.500,0.640,-0.500,0.000,0.000,0.000,1.000
6.820,0.000,0.719,0.000,0.000,-1.000,0.000,0.000,-0.023,0.136,0.719,0.000,0.000,-0.926,0.377,0.000,-45.656,0.016,1.023,-0.297,0.000,-0.632,0.775,0.000,57.303,0.016,0.944,-0.681,0.000,-0.604,0.797,0.000,-85.944,0.109,0.944,-0.681,-0.563,-0.427,0.564,0.427,-89.954,0.109,0.918,-0.772,-0.563,-0.427,0.564,0.427,0.000,0.109,0.839,-0.750,-0.700,0.096,0.701,-0.097,False,0.500,0.644,-0.500,0.000,0.000,0.000,1.000,-0.500,0.640,-0.500,0.000,0.000,0.000,1.000
6.924,0.000,0.719,0.000,0.000,-1.000,0.000,0.000,-0.023,0.136,0.719,0.000,0.000,-0.926,0.377,0.000,-45.656,0.016,1.023,-0.297,0.000,-0.632,0.775,0.000,57.303,0.016,0.944,-0.681,0.000,-0.604,0.797,0.000,-85.944,0.109,0.944,-0.681,-0.563,-0.427,0.564,0.427,-89.954,0.109,0.918,-0.772,-0.563,-0.427,0.564,0.427,0.000,0.109,0.839,-0.750,-0.700,0.096,0.701,-0.097,False,0.500,0.644,-0.500,0.000,0.000,0.000,1.000,-0.500,0.640,-0.500,0.000,0.000,0.000,1.000
7.028,0.000,0.719,0.000,0.000,-1.000,0.000,0.000,-0.023,0.136,0.719,0.000,0.000,-0.926,0.377,0.000,-45.656,0.016,1.023,-0.297,0.000,-0.632,0.775,0.000,57.303,0.016,0.944,-0.681,0.000,-0.604,0.797,0.000,-85.944,0.109,0.944,-0.681,-0.563,-0.427,0.564,0.427,-89.954,0.109,0.918,-0.772,-0.563,-0.427,0.564,0.427,0.000,0.109,0.839,-0.750,-0.700,0.096,0.701,-0.097,False,0.500,0.644,-0.500,0.000,0.000,0.000,1.000,-0.500,0.640,-0.500,0.000,0.000,0.000,1.000
7.130,0.000,0.719,0.000,0.000,-1.000,0.000,0.000,-0.023,0.136,0.719,0.000,0.000,-0.926,0.377,0.000,-45.656,0.016,1.023,-0.297,0.000,-0.632,0.775,0.000,57.303,0.016,0.944,-0.681,0.000,-0.604,0.797,0.000,-85.944,0.109,0.944,-0.681,-0.563,-0.427,0.564,0.427,-89.954,0.109,0.918,-0.772,-0.563,-0.427,0.564,0.427,0.000,0.109,0.839,-0.750,-0.700,0.096,0.701,-0.097,False,0.500,0.644,-0.500,0.000,0.000,0.000,1.000,-0.500,0.640,-0.500,0.000,0.000,0.000,1.000
7.232,0.000,0.719,0.000,0.000,-1.000,0.000,0.000,-0.023,0.136,0.719,0.000,0.000,-0.926,0.377,0.000,-45.656,0.016,1.023,-0.297,0.000,-0.632,0.775,0.000,57.303,0.016,0.944,-0.681,0.000,-0.604,0.797,0.000,-85.944,0.109,0.944,-0.681,-0.563,-0.427,0.564,0.427,-89.954,0.109,0.918,-0.772,-0.563,-0.427,0.564,0.427,0.000,0.109,0.839,-0.750,-0.700,0.096,0.701,-0.097,False,0.500,0.644,-0.500,0.000,0.000,0.000,1.000,-0.500,0.640,-0.500,0.000,0.000,0.000,1.000
7.333,0.000,0.719,0.000,0.000,-1.000,0.000,0.000,-0.023,0.136,0.719,0.000,0.000,-0.926,0.377,0.000,-45.656,0.016,1.023,-0.297,0.000,-0.632,0.775,0.000,57.303,0.016,0.944,-0.681,0.000,-0.604,0.797,0.000,-85.944,0.109,0.944,-0.681,-0.563,-0.427,0.564,0.427,-89.954,0.109,0.918,-0.772,-0.563,-0.427,0.564,0.427,0.000,0.109,0.839,-0.750,-0.700,0.096,0.701,-0.097,False,0.500,0.644,-0.500,0.000,0.000,0.000,1.000,-0.500,0.640,-0.500,0.000,0.000,0.000,1.000
7.434,0.000,0.719,0.000,0.000,-1.000,0.000,0.000,-0.023,0.136,0.719,0.000,0.000,-0.926,0.377,0.000,-45.656,0.016,1.023,-0.297,0.000,-0.632,0.775,0.000,57.303,0.016,0.944,-0.681,0.000,-0.604,0.797,0.000,-85.944,0.109,0.944,-0.681,-0.563,-0.427,0.564,0.427,-89.954,0.109,0.918,-0.772,-0.563,-0.427,0.564,0.427,0.000,0.109,0.839,-0.750,-0.700,0.096,0.701,-0.097,False,0.500,0.644,-0.500,0.000,0.000,0.000,1.000,-0.500,0.640,-0.500,0.000,0.000,0.000,1.000
7.537,0.000,0.719,0.000,0.000,-1.000,0.000,0.000,-0.023,0.136,0.719,0.000,0.000,-0.926,0.377,0.000,-45.656,0.016,1.023,-0.297,0.000,-0.632,0.775,0.000,57.303,0.016,0.944,-0.681,0.000,-0.604,0.797,0.000,-85.944,0.109,0.944,-0.681,-0.563,-0.427,0.564,0.427,-89.954,0.109,0.918,-0.772,-0.563,-0.427,0.564,0.427,0.000,0.109,0.839,-0.750,-0.700,0.096,0.701,-0.097,False,0.500,0.644,-0.500,0.000,0.000,0.000,1.000,-0.500,0.640,-0.500,0.000,0.000,0.000,1.000
7.641,0.000,0.719,0.000,0.000,-1.000,0.000,0.000,-0.023,0.136,0.719,0.000,0.000,-0.926,0.377,0.000,-45.656,0.016,1.023,-0.297,0.000,-0.632,0.775,0.000,57.303,0.016,0.944,-0.681,0.000,-0.604,0.797,0.000,-85.944,0.109,0.944,-0.681,-0.563,-0.427,0.564,0.427,-89.954,0.109,0.918,-0.772,-0.563,-0.427,0.564,0.427,0.000,0.109,0.839,-0.750,-0.700,0.096,0.701,-0.097,False,0.500,0.644,-0.500,0.000,0.000,0.000,1.000,-0.500,0.640,-0.500,0.000,0.000,0.000,1.000
7.746,0.000,0.719,0.000,0.000,-1.000,0.000,0.000,-0.023,0.136,0.719,0.000,0.000,-0.926,0.377,0.000,-45.656,0.016,1.023,-0.297,0.000,-0.632,0.775,0.000,57.303,0.016,0.944,-0.681,0.000,-0.604,0.797,0.000,-85.944,0.109,0.944,-0.681,-0.563,-0.427,0.564,0.427,-89.954,0.109,0.918,-0.772,-0.563,-0.427,0.564,0.427,0.000,0.109,0.839,-0.750,-0.700,0.096,0.701,-0.097,False,0.500,0.644,-0.500,0.000,0.000,0.000,1.000,-0.500,0.640,-0.500,0.000,0.000,0.000,1.000
7.847,0.000,0.719,0.000,0.000,-1.000,0.000,0.000,-0.023,0.136,0.719,0.000,0.000,-0.926,0.377,0.000,-45.656,0.016,1.023,-0.297,0.000,-0.632,0.775,0.000,57.303,0.016,0.944,-0.681,0.000,-0.604,0.797,0.000,-85.944,0.109,0.944,-0.681,-0.563,-0.427,0.564,0.427,-89.954,0.109,0.918,-0.772,-0.563,-0.427,0.564,0.427,0.000,0.109,0.839,-0.750,-0.700,0.096,0.701,-0.097,False,0.500,0.644,-0.500,0.000,0.000,0.000,1.000,-0.500,0.640,-0.500,0.000,0.000,0.000,1.000
7.947,0.000,0.719,0.000,0.000,-1.000,0.000,0.000,-0.023,0.136,0.719,0.000,0.000,-0.926,0.377,0.000,-45.656,0.016,1.023,-0.297,0.000,-0.632,0.775,0.000,57.303,0.016,0.944,-0.681,0.000,-0.604,0.797,0.000,-85.944,0.109,0.944,-0.681,-0.563,-0.427,0.564,0.427,-89.954,0.109,0.918,-0.772,-0.563,-0.427,0.564,0.427,0.000,0.109,0.839,-0.750,-0.700,0.096,0.701,-0.097,False,0.500,0.644,-0.500,0.000,0.000,0.000,1.000,-0.500,0.640,-0.500,0.000,0.000,0.000,1.000
8.048,0.000,0.719,0.000,0.000,-1.000,0.000,0.000,-0.023,0.136,0.719,0.000,0.000,-0.926,0.377,0.000,-45.656,0.016,1.023,-0.297,0.000,-0.632,0.775,0.000,57.303,0.016,0.944,-0.681,0.000,-0.604,0.797,0.000,-85.944,0.109,0.944,-0.681,-0.563,-0.427,0.564,0.427,-89.954,0.109,0.918,-0.772,-0.563,-0.427,0.564,0.427,0.000,0.109,0.839,-0.750,-0.700,0.096,0.701,-0.097,False,0.500,0.644,-0.500,0.000,0.000,0.000,1.000,-0.500,0.640,-0.500,0.000,0.000,0.000,1.000
8.148,0.000,0.719,0.000,0.000,-1.000,0.000,0.000,-0.023,0.136,0.719,0.000,0.000,-0.926,0.377,0.000,-45.656,0.016,1.023,-0.297,0.000,-0.632,0.775,0.000,57.303,0.016,0.944,-0.681,0.000,-0.604,0.797,0.000,-85.944,0.109,0.944,-0.681,-0.563,-0.427,0.564,0.427,-89.954,0.109,0.918,-0.772,-0.563,-0.427,0.564,0.427,0.000,0.109,0.839,-0.750,-0.700,0.096,0.701,-0.097,False,0.500,0.644,-0.500,0.000,0.000,0.000,1.000,-0.500,0.640,-0.500,0.000,0.000,0.000,1.000
8.251,0.000,0.719,0.000,0.000,-1.000,0.000,0.000,-0.023,0.136,0.719,0.000,0.000,-0.926,0.377,0.000,-45.656,0.016,1.023,-0.297,0.000,-0.632,0.775,0.000,57.303,0.016,0.944,-0.681,0.000,-0.604,0.797,0.000,-85.944,0.109,0.944,-0.681,-0.563,-0.427,0.564,0.427,-89.954,0.109,0.918,-0.772,-0.563,-0.427,0.564,0.427,0.000,0.109,0.839,-0.750,-0.700,0.096,0.701,-0.097,False,0.500,0.644,-0.500,0.000,0.000,0.000,1.000,-0.500,0.640,-0.500,0.000,0.000,0.000,1.000
8.354,0.000,0.719,0.000,0.000,-1.000,0.000,0.000,-0.023,0.136,0.719,0.000,0.000,-0.926,0.377,0.000,-45.656,0.016,1.023,-0.297,0.000,-0.632,0.775,0.000,57.303,0.016,0.944,-0.681,0.000,-0.604,0.797,0.000,-85.944,0.109,0.944,-0.681,-0.563,-0.427,0.564,0.427,-89.954,0.109,0.918,-0.772,-0.563,-0.427,0.564,0.427,0.000,0.109,0.839,-0.750,-0.700,0.096,0.701,-0.097,False,0.500,0.644,-0.500,0.000,0.000,0.000,1.000,-0.500,0.640,-0.500,0.000,0.000,0.000,1.000
8.457,0.000,0.719,0.000,0.000,-1.000,0.000,0.000,-0.023,0.136,0.719,0.000,0.000,-0.926,0.377,0.000,-45.656,0.016,1.023,-0.297,0.000,-0.632,0.775,0.000,57.303,0.016,0.944,-0.681,0.000,-0.604,0.797,0.000,-85.944,0.109,0.944,-0.681,-0.563,-0.427,0.564,0.427,-89.954,0.109,0.918,-0.772,-0.563,-0.427,0.564,0.427,0.000,0.109,0.839,-0.750,-0.700,0.096,0.701,-0.097,False,0.500,0.644,-0.500,0.000,0.000,0.000,1.000,-0.500,0.640,-0.500,0.000,0.000,0.000,1.000
8.559,0.000,0.719,0.000,0.000,-1.000,0.000,0.000,-0.023,0.136,0.719,0.000,0.000,-0.926,0.377,0.000,-45.656,0.016,1.023,-0.297,0.000,-0.632,0.775,0.000,57.303,0.016,0.944,-0.681,0.000,-0.604,0.797,0.000,-85.944,0.109,0.944,-0.681,-0.563,-0.427,0.564,0.427,-89.954,0.109,0.918,-0.772,-0.563,-0.427,0.564,0.427,0.000,0.109,0.839,-0.750,-0.700,0.096,0.701,-0.097,False,0.500,0.644,-0.500,0.000,0.000,0.000,1.000,-0.500,0.640,-0.500,0.000,0.000,0.000,1.000
8.661,0.000,0.719,0.000,0.000,-1.000,0.000,0.000,-0.023,0.136,0.719,0.000,0.000,-0.926,0.377,0.000,-45.656,0.016,1.023,-0.297,0.000,-0.632,0.775,0.000,57.303,0.016,0.944,-0.681,0.000,-0.604,0.797,0.000,-85.944,0.109,0.944,-0.681,-0.563,-0.427,0.564,0.427,-89.954,0.109,0.918,-0.772,-0.563,-0.427,0.564,0.427,0.000,0.109,0.839,-0.750,-0.700,0.096,0.701,-0.097,False,0.500,0.644,-0.500,0.000,0.000,0.000,1.000,-0.500,0.640,-0.500,0.000,0.000,0.000,1.000
8.764,0.000,0.719,0.000,0.000,-1.000,0.000,0.000,-0.023,0.136,0.719,0.000,0.000,-0.926,0.377,0.000,-45.656,0.016,1.023,-0.297,0.000,-0.632,0.775,0.000,57.303,0.016,0.944,-0.681,0.000,-0.604,0.797,0.000,-85.944,0.109,0.944,-0.681,-0.563,-0.427,0.564,0.427,-89.954,0.109,0.918,-0.772,-0.563,-0.427,0.564,0.427,0.000,0.109,0.839,-0.750,-0.700,0.096,0.701,-0.097,False,0.500,0.644,-0.500,0.000,0.000,0.000,1.000,-0.500,0.640,-0.500,0.000,0.000,0.000,1.000
8.867,0.000,0.719,0.000,0.000,-1.000,0.000,0.000,-0.023,0.136,0.719,0.000,0.000,-0.926,0.377,0.000,-45.656,0.016,1.023,-0.297,0.000,-0.632,0.775,0.000,57.303,0.016,0.944,-0.681,0.000,-0.604,0.797,0.000,-85.944,0.109,0.944,-0.681,-0.563,-0.427,0.564,0.427,-89.954,0.109,0.918,-0.772,-0.563,-0.427,0.564,0.427,0.000,0.109,0.839,-0.750,-0.700,0.096,0.701,-0.097,False,0.500,0.644,-0.500,0.000,0.000,0.000,1.000,-0.500,0.640,-0.500,0.000,0.000,0.000,1.000
8.969,0.000,0.719,0.000,0.000,-1.000,0.000,0.000,-0.023,0.136,0.719,0.000,0.000,-0.926,0.377,0.000,-45.656,0.016,1.023,-0.297,0.000,-0.632,0.775,0.000,57.303,0.016,0.944,-0.681,0.000,-0.604,0.797,0.000,-85.944,0.109,0.944,-0.681,-0.563,-0.427,0.564,0.427,-89.954,0.109,0.918,-0.772,-0.563,-0.427,0.564,0.427,0.000,0.109,0.839,-0.750,-0.700,0.096,0.701,-0.097,False,0.500,0.644,-0.500,0.000,0.000,0.000,1.000,-0.500,0.640,-0.500,0.000,0.000,0.000,1.000
9.072,0.000,0.719,0.000,0.000,-1.000,0.000,0.000,-0.023,0.136,0.719,0.000,0.000,-0.926,0.377,0.000,-45.656,0.016,1.023,-0.297,0.000,-0.632,0.775,0.000,57.303,0.016,0.944,-0.681,0.000,-0.604,0.797,0.000,-85.944,0.109,0.944,-0.681,-0.563,-0.427,0.564,0.427,-89.954,0.109,0.918,-0.772,-0.563,-0.427,0.564,0.427,0.000,0.109,0.839,-0.750,-0.700,0.096,0.701,-0.097,False,0.500,0.644,-0.500,0.000,0.000,0.000,1.000,-0.500,0.640,-0.500,0.000,0.000,0.000,1.000
9.173,0.000,0.719,0.000,0.000,-1.000,0.000,0.000,-0.023,0.136,0.719,0.000,0.000,-0.926,0.377,0.000,-45.656,0.016,1.023,-0.297,0.000,-0.632,0.775,0.000,57.303,0.016,0.944,-0.681,0.000,-0.604,0.797,0.000,-85.944,0.109,0.944,-0.681,-0.563,-0.427,0.564,0.427,-89.954,0.109,0.918,-0.772,-0.563,-0.427,0.564,0.427,0.000,0.109,0.839,-0.750,-0.700,0.096,0.701,-0.097,False,0.500,0.644,-0.500,0.000,0.000,0.000,1.000,-0.500,0.640,-0.500,0.000,0.000,0.000,1.000
9.274,0.000,0.719,0.000,0.000,-1.000,0.000,0.000,-0.023,0.136,0.719,0.000,0.000,-0.926,0.377,0.000,-45.656,0.016,1.023,-0.297,0.000,-0.632,0.775,0.000,57.303,0.016,0.944,-0.681,0.000,-0.604,0.797,0.000,-85.944,0.109,0.944,-0.681,-0.563,-0.427,0.564,0.427,-89.954,0.109,0.918,-0.772,-0.563,-0.427,0.564,0.427,0.000,0.109,0.839,-0.750,-0.700,0.096,0.701,-0.097,False,0.500,0.644,-0.500,0.000,0.000,0.000,1.000,-0.500,0.640,-0.500,0.000,0.000,0.000,1.000
9.375,0.000,0.719,0.000,0.000,-1.000,0.000,0.000,-0.023,0.136,0.719,0.000,0.000,-0.926,0.377,0.000,-45.656,0.016,1.023,-0.297,0.000,-0.632,0.775,0.000,57.303,0.016,0.944,-0.681,0.000,-0.604,0.797,0.000,-85.944,0.109,0.944,-0.681,-0.563,-0.427,0.564,0.427,-89.954,0.109,0.918,-0.772,-0.563,-0.427,0.564,0.427,0.000,0.109,0.839,-0.750,-0.700,0.096,0.701,-0.097,False,0.500,0.644,-0.500,0.000,0.000,0.000,1.000,-0.500,0.640,-0.500,0.000,0.000,0.000,1.000
9.475,0.000,0.719,0.000,0.000,-1.000,0.000,0.000,-0.023,0.136,0.719,0.000,0.000,-0.926,0.377,0.000,-45.656,0.016,1.023,-0.297,0.000,-0.632,0.775,0.000,57.303,0.016,0.944,-0.681,0.000,-0.604,0.797,0.000,-85.944,0.109,0.944,-0.681,-0.563,-0.427,0.564,0.427,-89.954,0.109,0.918,-0.772,-0.563,-0.427,0.564,0.427,0.000,0.109,0.839,-0.750,-0.700,0.096,0.701,-0.097,False,0.500,0.644,-0.500,0.000,0.000,0.000,1.000,-0.500,0.640,-0.500,0.000,0.000,0.000,1.000
9.579,0.000,0.719,0.000,0.000,-1.000,0.000,0.000,-0.023,0.136,0.719,0.000,0.000,-0.926,0.377,0.000,-45.656,0.016,1.023,-0.297,0.000,-0.632,0.775,0.000,57.303,0.016,0.944,-0.681,0.000,-0.604,0.797,0.000,-85.944,0.109,0.944,-0.681,-0.563,-0.427,0.564,0.427,-89.954,0.109,0.918,-0.772,-0.563,-0.427,0.564,0.427,0.000,0.109,0.839,-0.750,-0.700,0.096,0.701,-0.097,False,0.500,0.644,-0.500,0.000,0.000,0.000,1.000,-0.500,0.640,-0.500,0.000,0.000,0.000,1.000
9.683,0.000,0.719,0.000,0.000,-1.000,0.000,0.000,-0.023,0.136,0.719,0.000,0.000,-0.926,0.377,0.000,-45.656,0.016,1.023,-0.297,0.000,-0.632,0.775,0.000,57.303,0.016,0.944,-0.681,0.000,-0.604,0.797,0.000,-85.944,0.109,0.944,-0.681,-0.563,-0.427,0.564,0.427,-89.954,0.109,0.918,-0.772,-0.563,-0.427,0.564,0.427,0.000,0.109,0.839,-0.750,-0.700,0.096,0.701,-0.097,False,0.500,0.644,-0.500,0.000,0.000,0.000,1.000,-0.500,0.640,-0.500,0.000,0.000,0.000,1.000
9.785,0.000,0.719,0.000,0.000,-1.000,0.000,0.000,-0.023,0.136,0.719,0.000,0.000,-0.926,0.377,0.000,-45.656,0.016,1.023,-0.297,0.000,-0.632,0.775,0.000,57.303,0.016,0.944,-0.681,0.000,-0.604,0.797,0.000,-85.944,0.109,0.944,-0.681,-0.563,-0.427,0.564,0.427,-89.954,0.109,0.918,-0.772,-0.563,-0.427,0.564,0.427,0.000,0.109,0.839,-0.750,-0.700,0.096,0.701,-0.097,False,0.500,0.644,-0.500,0.000,0.000,0.000,1.000,-0.500,0.640,-0.500,0.000,0.000,0.000,1.000
9.889,0.000,0.719,0.000,0.000,-1.000,0.000,0.000,-0.023,0.136,0.719,0.000,0.000,-0.926,0.377,0.000,-45.656,0.016,1.023,-0.297,0.000,-0.632,0.775,0.000,57.303,0.016,0.944,-0.681,0.000,-0.604,0.797,0.000,-85.944,0.109,0.944,-0.681,-0.563,-0.427,0.564,0.427,-89.954,0.109,0.918,-0.772,-0.563,-0.427,0.564,0.427,0.000,0.109,0.839,-0.750,-0.700,0.096,0.701,-0.097,False,0.500,0.644,-0.500,0.000,0.000,0.000,1.000,-0.500,0.640,-0.500,0.000,0.000,0.000,1.000
9.991,0.000,0.719,0.000,0.000,-1.000,0.000,0.000,-0.023,0.136,0.719,0.000,0.000,-0.926,0.377,0.000,-45.656,0.016,1.023,-0.297,0.000,-0.632,0.775,0.000,57.303,0.016,0.944,-0.681,0.000,-0.604,0.797,0.000,-85.944,0.109,0.944,-0.681,-0.563,-0.427,0.564,0.427,-89.954,0.109,0.918,-0.772,-0.563,-0.427,0.564,0.427,0.000,0.109,0.839,-0.750,-0.700,0.096,0.701,-0.097,False,0.500,0.644,-0.500,0.000,0.000,0.000,1.000,-0.500,0.640,-0.500,0.000,0.000,0.000,1.000
10.094,0.000,0.719,0.000,0.000,-1.000,0.000,0.000,-0.023,0.136,0.719,0.000,0.000,-0.926,0.377,0.000,-45.656,0.016,1.023,-0.297,0.000,-0.632,0.775,0.000,57.303,0.016,0.944,-0.681,0.000,-0.604,0.797,0.000,-85.944,0.109,0.944,-0.681,-0.563,-0.427,0.564,0.427,-89.954,0.109,0.918,-0.772,-0.563,-0.427,0.564,0.427,0.000,0.109,0.839,-0.750,-0.700,0.096,0.701,-0.097,False,0.500,0.644,-0.500,0.000,0.000,0.000,1.000,-0.500,0.640,-0.500,0.000,0.000,0.000,1.000
10.197,0.000,0.719,0.000,0.000,-1.000,0.000,0.000,-0.023,0.136,0.719,0.000,0.000,-0.926,0.377,0.000,-45.656,0.016,1.023,-0.297,0.000,-0.632,0.775,0.000,57.303,0.016,0.944,-0.681,0.000,-0.604,0.797,0.000,-85.944,0.109,0.944,-0.681,-0.563,-0.427,0.564,0.427,-89.954,0.109,0.918,-0.772,-0.563,-0.427,0.564,0.427,0.000,0.109,0.839,-0.750,-0.700,0.096,0.701,-0.097,False,0.500,0.644,-0.500,0.000,0.000,0.000,1.000,-0.500,0.640,-0.500,0.000,0.000,0.000,1.000
10.298,0.000,0.719,0.000,0.000,-1.000,0.000,0.000,-0.023,0.136,0.719,0.000,0.000,-0.926,0.377,0.000,-45.656,0.016,1.023,-0.297,0.000,-0.632,0.775,0.000,57.303,0.016,0.944,-0.681,0.000,-0.604,0.797,0.000,-85.944,0.109,0.944,-0.681,-0.563,-0.427,0.564,0.427,-89.954,0.109,0.918,-0.772,-0.563,-0.427,0.564,0.427,0.000,0.109,0.839,-0.750,-0.700,0.096,0.701,-0.097,False,0.500,0.644,-0.500,0.000,0.000,0.000,1.000,-0.500,0.640,-0.500,0.000,0.000,0.000,1.000
10.402,0.000,0.719,0.000,0.000,-1.000,0.000,0.000,-0.023,0.136,0.719,0.000,0.000,-0.926,0.377,0.000,-45.656,0.016,1.023,-0.297,0.000,-0.632,0.775,0.000,57.303,0.016,0.944,-0.681,0.000,-0.604,0.797,0.000,-85.944,0.109,0.944,-0.681,-0.563,-0.427,0.564,0.427,-89.954,0.109,0.918,-0.772,-0.563,-0.427,0.564,0.427,0.000,0.109,0.839,-0.750,-0.700,0.096,0.701,-0.097,False,0.500,0.644,-0.500,0.000,0.000,0.000,1.000,-0.500,0.640,-0.500,0.000,0.000,0.000,1.000
10.504,0.000,0.719,0.000,0.000,-1.000,0.000,0.000,-0.023,0.136,0.719,0.000,0.000,-0.926,0.377,0.000,-45.656,0.016,1.023,-0.297,0.000,-0.632,0.775,0.000,57.303,0.016,0.944,-0.681,0.000,-0.604,0.797,0.000,-85.944,0.109,0.944,-0.681,-0.563,-0.427,0.564,0.427,-89.954,0.109,0.918,-0.772,-0.563,-0.427,0.564,0.427,0.000,0.109,0.839,-0.750,-0.700,0.096,0.701,-0.097,False,0.500,0.644,-0.500,0.000,0.000,0.000,1.000,-0.500,0.640,-0.500,0.000,0.000,0.000,1.000
10.607,0.000,0.719,0.000,0.000,-1.000,0.000,0.000,-0.023,0.136,0.719,0.000,0.000,-0.926,0.377,0.000,-45.656,0.016,1.023,-0.297,0.000,-0.632,0.775,0.000,57.303,0.016,0.944,-0.681,0.000,-0.604,0.797,0.000,-85.944,0.109,0.944,-0.681,-0.563,-0.427,0.564,0.427,-89.954,0.109,0.918,-0.772,-0.563,-0.427,0.564,0.427,0.000,0.109,0.839,-0.750,-0.700,0.096,0.701,-0.097,False,0.500,0.644,-0.500,0.000,0.000,0.000,1.000,-0.500,0.640,-0.500,0.000,0.000,0.000,1.000
10.708,0.000,0.719,0.000,0.000,-1.000,0.000,0.000,-0.023,0.136,0.719,0.000,0.000,-0.926,0.377,0.000,-45.656,0.016,1.023,-0.297,0.000,-0.632,0.775,0.000,57.303,0.016,0.944,-0.681,0.000,-0.604,0.797,0.000,-85.944,0.109,0.944,-0.681,-0.563,-0.427,0.564,0.427,-89.954,0.109,0.918,-0.772,-0.563,-0.427,0.564,0.427,0.000,0.109,0.839,-0.750,-0.700,0.096,0.701,-0.097,False,0.500,0.644,-0.500,0.000,0.000,0.000,1.000,-0.500,0.640,-0.500,0.000,0.000,0.000,1.000
10.809,0.000,0.719,0.000,0.000,-1.000,0.000,0.000,-0.023,0.136,0.719,0.000,0.000,-0.926,0.377,0.000,-45.656,0.016,1.023,-0.297,0.000,-0.632,0.775,0.000,57.303,0.016,0.944,-0.681,0.000,-0.604,0.797,0.000,-85.944,0.109,0.944,-0.681,-0.563,-0.427,0.564,0.427,-89.954,0.109,0.918,-0.772,-0.563,-0.427,0.564,0.427,0.000,0.109,0.839,-0.750,-0.700,0.096,0.701,-0.097,False,0.500,0.644,-0.500,0.000,0.000,0.000,1.000,-0.500,0.640,-0.500,0.000,0.000,0.000,1.000
10.911,0.000,0.719,0.000,0.000,-1.000,0.000,0.000,-0.023,0.136,0.719,0.000,0.000,-0.926,0.377,0.000,-45.656,0.016,1.023,-0.297,0.000,-0.632,0.775,0.000,57.303,0.016,0.944,-0.681,0.000,-0.604,0.797,0.000,-85.944,0.109,0.944,-0.681,-0.563,-0.427,0.564,0.427,-89.954,0.109,0.918,-0.772,-0.563,-0.427,0.564,0.427,0.000,0.109,0.839,-0.750,-0.700,0.096,0.701,-0.097,False,0.500,0.644,-0.500,0.000,0.000,0.000,1.000,-0.500,0.640,-0.500,0.000,0.000,0.000,1.000
11.013,0.000,0.719,0.000,0.000,-1.000,0.000,0.000,-0.023,0.136,0.719,0.000,0.000,-0.926,0.377,0.000,-45.656,0.016,1.023,-0.297,0.000,-0.632,0.775,0.000,57.303,0.016,0.944,-0.681,0.000,-0.604,0.797,0.000,-85.944,0.109,0.944,-0.681,-0.563,-0.427,0.564,0.427,-89.954,0.109,0.918,-0.772,-0.563,-0.427,0.564,0.427,0.000,0.109,0.839,-0.750,-0.700,0.096,0.701,-0.097,False,0.500,0.644,-0.500,0.000,0.000,0.000,1.000,-0.500,0.640,-0.500,0.000,0.000,0.000,1.000
11.116,0.000,0.719,0.000,0.000,-1.000,0.000,0.000,-0.023,0.136,0.719,0.000,0.000,-0.926,0.377,0.000,-45.656,0.016,1.023,-0.297,0.000,-0.632,0.775,0.000,57.303,0.016,0.944,-0.681,0.000,-0.604,0.797,0.000,-85.944,0.109,0.944,-0.681,-0.563,-0.427,0.564,0.427,-89.954,0.109,0.918,-0.772,-0.563,-0.427,0.564,0.427,0.000,0.109,0.839,-0.750,-0.700,0.096,0.701,-0.097,False,0.500,0.644,-0.500,0.000,0.000,0.000,1.000,-0.500,0.640,-0.500,0.000,0.000,0.000,1.000
11.218,0.000,0.719,0.000,0.000,-1.000,0.000,0.000,-0.023,0.136,0.719,0.000,0.000,-0.926,0.377,0.000,-45.656,0.016,1.023,-0.297,0.000,-0.632,0.775,0.000,57.303,0.016,0.944,-0.681,0.000,-0.604,0.797,0.000,-85.944,0.109,0.944,-0.681,-0.563,-0.427,0.564,0.427,-89.954,0.109,0.918,-0.772,-0.563,-0.427,0.564,0.427,0.000,0.109,0.839,-0.750,-0.700,0.096,0.701,-0.097,False,0.500,0.644,-0.500,0.000,0.000,0.000,1.000,-0.500,0.640,-0.500,0.000,0.000,0.000,1.000
11.318,0.000,0.719,0.000,0.000,-1.000,0.000,0.000,-0.023,0.136,0.719,0.000,0.000,-0.926,0.377,0.000,-45.656,0.016,1.023,-0.297,0.000,-0.632,0.775,0.000,57.303,0.016,0.944,-0.681,0.000,-0.604,0.797,0.000,-85.944,0.109,0.944,-0.681,-0.563,-0.427,0.564,0.427,-89.954,0.109,0.918,-0.772,-0.563,-0.427,0.564,0.427,0.000,0.109,0.839,-0.750,-0.700,0.096,0.701,-0.097,False,0.500,0.644,-0.500,0.000,0.000,0.000,1.000,-0.500,0.640,-0.500,0.000,0.000,0.000,1.000
11.419,0.000,0.719,0.000,0.000,-1.000,0.000,0.000,-0.023,0.136,0.719,0.000,0.000,-0.926,0.377,0.000,-45.656,0.016,1.023,-0.297,0.000,-0.632,0.775,0.000,57.303,0.016,0.944,-0.681,0.000,-0.604,0.797,0.000,-85.944,0.109,0.944,-0.681,-0.563,-0.427,0.564,0.427,-89.954,0.109,0.918,-0.772,-0.563,-0.427,0.564,0.427,0.000,0.109,0.839,-0.750,-0.700,0.096,0.701,-0.097,False,0.500,0.644,-0.500,0.000,0.000,0.000,1.000,-0.500,0.640,-0.500,0.000,0.000,0.000,1.000
11.519,0.000,0.719,0.000,0.000,-1.000,0.000,0.000,-0.023,0.136,0.719,0.000,0.000,-0.926,0.377,0.000,-45.656,0.016,1.023,-0.297,0.000,-0.632,0.775,0.000,57.303,0.016,0.944,-0.681,0.000,-0.604,0.797,0.000,-85.944,0.109,0.944,-0.681,-0.563,-0.427,0.564,0.427,-89.954,0.109,0.918,-0.772,-0.563,-0.427,0.564,0.427,0.000,0.109,0.839,-0.750,-0.700,0.096,0.701,-0.097,False,0.500,0.644,-0.500,0.000,0.000,0.000,1.000,-0.500,0.640,-0.500,0.000,0.000,0.000,1.000
11.621,0.000,0.719,0.000,0.000,-1.000,0.000,0.000,-0.023,0.136,0.719,0.000,0.000,-0.926,0.377,0.000,-45.656,0.016,1.023,-0.297,0.000,-0.632,0.775,0.000,57.303,0.016,0.944,-0.681,0.000,-0.604,0.797,0.000,-85.944,0.109,0.944,-0.681,-0.563,-0.427,0.564,0.427,-89.954,0.109,0.918,-0.772,-0.563,-0.427,0.564,0.427,0.000,0.109,0.839,-0.750,-0.700,0.096,0.701,-0.097,False,0.500,0.644,-0.500,0.000,0.000,0.000,1.000,-0.500,0.640,-0.500,0.000,0.000,0.000,1.000
11.724,0.000,0.719,0.000,0.000,-1.000,0.000,0.000,-0.023,0.136,0.719,0.000,0.000,-0.926,0.377,0.000,-45.656,0.016,1.023,-0.297,0.000,-0.632,0.775,0.000,57.303,0.016,0.944,-0.681,0.000,-0.604,0.797,0.000,-85.944,0.109,0.944,-0.681,-0.563,-0.427,0.564,0.427,-89.954,0.109,0.918,-0.772,-0.563,-0.427,0.564,0.427,0.000,0.109,0.839,-0.750,-0.700,0.096,0.701,-0.097,False,0.500,0.644,-0.500,0.000,0.000,0.000,1.000,-0.500,0.640,-0.500,0.000,0.000,0.000,1.000
11.827,0.000,0.719,0.000,0.000,-1.000,0.000,0.000,-0.023,0.136,0.719,0.000,0.000,-0.926,0.377,0.000,-45.656,0.016,1.023,-0.297,0.000,-0.632,0.775,0.000,57.303,0.016,0.944,-0.681,0.000,-0.604,0.797,0.000,-85.944,0.109,0.944,-0.681,-0.563,-0.427,0.564,0.427,-89.954,0.109,0.918,-0.772,-0.563,-0.427,0.564,0.427,0.000,0.109,0.839,-0.750,-0.700,0.096,0.701,-0.097,False,0.500,0.644,-0.500,0.000,0.000,0.000,1.000,-0.500,0.640,-0.500,0.000,0.000,0.000,1.000
11.930,0.000,0.719,0.000,0.000,-1.000,0.000,0.000,-0.023,0.136,0.719,0.000,0.000,-0.926,0.377,0.000,-45.656,0.016,1.023,-0.297,0.000,-0.632,0.775,0.000,57.303,0.016,0.944,-0.681,0.000,-0.604,0.797,0.000,-85.944,0.109,0.944,-0.681,-0.563,-0.427,0.564,0.427,-89.954,0.109,0.918,-0.772,-0.563,-0.427,0.564,0.427,0.000,0.109,0.839,-0.750,-0.700,0.096,0.701,-0.097,False,0.500,0.644,-0.500,0.000,0.000,0.000,1.000,-0.500,0.640,-0.500,0.000,0.000,0.000,1.000
12.032,0.000,0.719,0.000,0.000,-1.000,0.000,0.000,-0.023,0.136,0.719,0.000,0.000,-0.926,0.377,0.000,-45.656,0.016,1.023,-0.297,0.000,-0.632,0.775,0.000,57.303,0.016,0.944,-0.681,0.000,-0.604,0.797,0.000,-85.944,0.109,0.944,-0.681,-0.563,-0.427,0.564,0.427,-89.954,0.109,0.918,-0.772,-0.563,-0.427,0.564,0.427,0.000,0.109,0.839,-0.750,-0.700,0.096,0.701,-0.097,False,0.500,0.644,-0.500,0.000,0.000,0.000,1.000,-0.500,0.640,-0.500,0.000,0.000,0.000,1.000
12.132,0.000,0.719,0.000,0.000,-1.000,0.000,0.000,-0.023,0.136,0.719,0.000,0.000,-0.926,0.377,0.000,-45.656,0.016,1.023,-0.297,0.000,-0.632,0.775,0.000,57.303,0.016,0.944,-0.681,0.000,-0.604,0.797,0.000,-85.944,0.109,0.944,-0.681,-0.563,-0.427,0.564,0.427,-89.954,0.109,0.918,-0.772,-0.563,-0.427,0.564,0.427,0.000,0.109,0.839,-0.750,-0.700,0.096,0.701,-0.097,False,0.500,0.644,-0.500,0.000,0.000,0.000,1.000,-0.500,0.640,-0.500,0.000,0.000,0.000,1.000
12.233,0.000,0.719,0.000,0.000,-1.000,0.000,0.000,-0.023,0.136,0.719,0.000,0.000,-0.926,0.377,0.000,-45.656,0.016,1.023,-0.297,0.000,-0.632,0.775,0.000,57.303,0.016,0.944,-0.681,0.000,-0.604,0.797,0.000,-85.944,0.109,0.944,-0.681,-0.563,-0.427,0.564,0.427,-89.954,0.109,0.918,-0.772,-0.563,-0.427,0.564,0.427,0.000,0.109,0.839,-0.750,-0.700,0.096,0.701,-0.097,False,0.500,0.644,-0.500,0.000,0.000,0.000,1.000,-0.500,0.640,-0.500,0.000,0.000,0.000,1.000
12.336,0.000,0.719,0.000,0.000,-1.000,0.000,0.000,-0.023,0.136,0.719,0.000,0.000,-0.926,0.377,0.000,-45.656,0.016,1.023,-0.297,0.000,-0.632,0.775,0.000,57.303,0.016,0.944,-0.681,0.000,-0.604,0.797,0.000,-85.944,0.109,0.944,-0.681,-0.563,-0.427,0.564,0.427,-89.954,0.109,0.918,-0.772,-0.563,-0.427,0.564,0.427,0.000,0.109,0.839,-0.750,-0.700,0.096,0.701,-0.097,False,0.500,0.644,-0.500,0.000,0.000,0.000,1.000,-0.500,0.640,-0.500,0.000,0.000,0.000,1.000
12.437,0.000,0.719,0.000,0.000,-1.000,0.000,0.000,-0.023,0.136,0.719,0.000,0.000,-0.926,0.377,0.000,-45.656,0.016,1.023,-0.297,0.000,-0.632,0.775,0.000,57.303,0.016,0.944,-0.681,0.000,-0.604,0.797,0.000,-85.944,0.109,0.944,-0.681,-0.563,-0.427,0.564,0.427,-89.954,0.109,0.918,-0.772,-0.563,-0.427,0.564,0.427,0.000,0.109,0.839,-0.750,-0.700,0.096,0.701,-0.097,False,0.500,0.644,-0.500,0.000,0.000,0.000,1.000,-0.500,0.640,-0.500,0.000,0.000,0.000,1.000
12.539,0.000,0.719,0.000,0.000,-1.000,0.000,0.000,-0.023,0.136,0.719,0.000,0.000,-0.926,0.377,0.000,-45.656,0.016,1.023,-0.297,0.000,-0.632,0.775,0.000,57.303,0.016,0.944,-0.681,0.000,-0.604,0.797,0.000,-85.944,0.109,0.944,-0.681,-0.563,-0.427,0.564,0.427,-89.954,0.109,0.918,-0.772,-0.563,-0.427,0.564,0.427,0.000,0.109,0.839,-0.750,-0.700,0.096,0.701,-0.097,False,0.500,0.644,-0.500,0.000,0.000,0.000,1.000,-0.500,0.640,-0.500,0.000,0.000,0.000,1.000
12.639,0.000,0.719,0.000,0.000,-1.000,0.000,0.000,-0.023,0.136,0.719,0.000,0.000,-0.926,0.377,0.000,-45.656,0.016,1.023,-0.297,0.000,-0.632,0.775,0.000,57.303,0.016,0.944,-0.681,0.000,-0.604,0.797,0.000,-85.944,0.109,0.944,-0.681,-0.563,-0.427,0.564,0.427,-89.954,0.109,0.918,-0.772,-0.563,-0.427,0.564,0.427,0.000,0.109,0.839,-0.750,-0.700,0.096,0.701,-0.097,False,0.500,0.644,-0.500,0.000,0.000,0.000,1.000,-0.500,0.640,-0.500,0.000,0.000,0.000,1.000
12.742,0.000,0.719,0.000,0.000,-1.000,0.000,0.000,-0.023,0.136,0.719,0.000,0.000,-0.926,0.377,0.000,-45.656,0.016,1.023,-0.297,0.000,-0.632,0.775,0.000,57.303,0.016,0.944,-0.681,0.000,-0.604,0.797,0.000,-85.944,0.109,0.944,-0.681,-0.563,-0.427,0.564,0.427,-89.954,0.109,0.918,-0.772,-0.563,-0.427,0.564,0.427,0.000,0.109,0.839,-0.750,-0.700,0.096,0.701,-0.097,False,0.500,0.644,-0.500,0.000,0.000,0.000,1.000,-0.500,0.640,-0.500,0.000,0.000,0.000,1.000
12.846,0.000,0.719,0.000,0.000,-1.000,0.000,0.000,-0.023,0.136,0.719,0.000,0.000,-0.926,0.377,0.000,-45.656,0.016,1.023,-0.297,0.000,-0.632,0.775,0.000,57.303,0.016,0.944,-0.681,0.000,-0.604,0.797,0.000,-85.944,0.109,0.944,-0.681,-0.563,-0.427,0.564,0.427,-89.954,0.109,0.918,-0.772,-0.563,-0.427,0.564,0.427,0.000,0.109,0.839,-0.750,-0.700,0.096,0.701,-0.097,False,0.500,0.644,-0.500,0.000,0.000,0.000,1.000,-0.500,0.640,-0.500,0.000,0.000,0.000,1.000
12.948,0.000,0.719,0.000,0.000,-1.000,0.000,0.000,-0.023,0.136,0.719,0.000,0.000,-0.926,0.377,0.000,-45.656,0.016,1.023,-0.297,0.000,-0.632,0.775,0.000,57.303,0.016,0.944,-0.681,0.000,-0.604,0.797,0.000,-85.944,0.109,0.944,-0.681,-0.563,-0.427,0.564,0.427,-89.954,0.109,0.918,-0.772,-0.563,-0.427,0.564,0.427,0.000,0.109,0.839,-0.750,-0.700,0.096,0.701,-0.097,False,0.500,0.644,-0.500,0.000,0.000,0.000,1.000,-0.500,0.640,-0.500,0.000,0.000,0.000,1.000
13.050,0.000,0.719,0.000,0.000,-1.000,0.000,0.000,-0.023,0.136,0.719,0.000,0.000,-0.926,0.377,0.000,-45.656,0.016,1.023,-0.297,0.000,-0.632,0.775,0.000,57.303,0.016,0.944,-0.681,0.000,-0.604,0.797,0.000,-85.944,0.109,0.944,-0.681,-0.563,-0.427,0.564,0.427,-89.954,0.109,0.918,-0.772,-0.563,-0.427,0.564,0.427,0.000,0.109,0.839,-0.750,-0.700,0.096,0.701,-0.097,False,0.500,0.644,-0.500,0.000,0.000,0.000,1.000,-0.500,0.640,-0.500,0.000,0.000,0.000,1.000
13.152,0.000,0.719,0.000,0.000,-1.000,0.000,0.000,-0.023,0.136,0.719,0.000,0.000,-0.926,0.377,0.000,-45.656,0.016,1.023,-0.297,0.000,-0.632,0.775,0.000,57.303,0.016,0.944,-0.681,0.000,-0.604,0.797,0.000,-85.944,0.109,0.944,-0.681,-0.563,-0.427,0.564,0.427,-89.954,0.109,0.918,-0.772,-0.563,-0.427,0.564,0.427,0.000,0.109,0.839,-0.750,-0.700,0.096,0.701,-0.097,False,0.500,0.644,-0.500,0.000,0.000,0.000,1.000,-0.500,0.640,-0.500,0.000,0.000,0.000,1.000
13.253,0.000,0.719,0.000,0.000,-1.000,0.000,0.000,-0.023,0.136,0.719,0.000,0.000,-0.926,0.377,0.000,-45.656,0.016,1.023,-0.297,0.000,-0.632,0.775,0.000,57.303,0.016,0.944,-0.681,0.000,-0.604,0.797,0.000,-85.944,0.109,0.944,-0.681,-0.563,-0.427,0.564,0.427,-89.954,0.109,0.918,-0.772,-0.563,-0.427,0.564,0.427,0.000,0.109,0.839,-0.750,-0.700,0.096,0.701,-0.097,False,0.500,0.644,-0.500,0.000,0.000,0.000,1.000,-0.500,0.640,-0.500,0.000,0.000,0.000,1.000
13.356,0.000,0.719,0.000,0.000,-1.000,0.000,0.000,-0.023,0.136,0.719,0.000,0.000,-0.926,0.377,0.000,-45.656,0.016,1.023,-0.297,0.000,-0.632,0.775,0.000,57.303,0.016,0.944,-0.681,0.000,-0.604,0.797,0.000,-85.944,0.109,0.944,-0.681,-0.563,-0.427,0.564,0.427,-89.954,0.109,0.918,-0.772,-0.563,-0.427,0.564,0.427,0.000,0.109,0.839,-0.750,-0.700,0.096,0.701,-0.097,False,0.500,0.644,-0.500,0.000,0.000,0.000,1.000,-0.500,0.640,-0.500,0.000,0.000,0.000,1.000
13.459,0.000,0.719,0.000,0.000,-1.000,0.000,0.000,-0.023,0.136,0.719,0.000,0.000,-0.926,0.377,0.000,-45.656,0.016,1.023,-0.297,0.000,-0.632,0.775,0.000,57.303,0.016,0.944,-0.681,0.000,-0.604,0.797,0.000,-85.944,0.109,0.944,-0.681,-0.563,-0.427,0.564,0.427,-89.954,0.109,0.918,-0.772,-0.563,-0.427,0.564,0.427,0.000,0.109,0.839,-0.750,-0.700,0.096,0.701,-0.097,False,0.500,0.644,-0.500,0.000,0.000,0.000,1.000,-0.500,0.640,-0.500,0.000,0.000,0.000,1.000
13.560,0.000,0.719,0.000,0.000,-1.000,0.000,0.000,-0.023,0.136,0.719,0.000,0.000,-0.926,0.377,0.000,-45.656,0.016,1.023,-0.297,0.000,-0.632,0.775,0.000,57.303,0.016,0.944,-0.681,0.000,-0.604,0.797,0.000,-85.944,0.109,0.944,-0.681,-0.563,-0.427,0.564,0.427,-89.954,0.109,0.918,-0.772,-0.563,-0.427,0.564,0.427,0.000,0.109,0.839,-0.750,-0.700,0.096,0.701,-0.097,False,0.500,0.644,-0.500,0.000,0.000,0.000,1.000,-0.500,0.640,-0.500,0.000,0.000,0.000,1.000
13.663,0.000,0.719,0.000,0.000,-1.000,0.000,0.000,-0.023,0.136,0.719,0.000,0.000,-0.926,0.377,0.000,-45.656,0.016,1.023,-0.297,0.000,-0.632,0.775,0.000,57.303,0.016,0.944,-0.681,0.000,-0.604,0.797,0.000,-85.944,0.109,0.944,-0.681,-0.563,-0.427,0.564,0.427,-89.954,0.109,0.918,-0.772,-0.563,-0.427,0.564,0.427,0.000,0.109,0.839,-0.750,-0.700,0.096,0.701,-0.097,False,0.500,0.644,-0.500,0.000,0.000,0.000,1.000,-0.500,0.640,-0.500,0.000,0.000,0.000,1.000
13.766,0.000,0.719,0.000,0.000,-1.000,0.000,0.000,-0.023,0.136,0.719,0.000,0.000,-0.926,0.377,0.000,-45.656,0.016,1.023,-0.297,0.000,-0.632,0.775,0.000,57.303,0.016,0.944,-0.681,0.000,-0.604,0.797,0.000,-85.944,0.109,0.944,-0.681,-0.563,-0.427,0.564,0.427,-89.954,0.109,0.918,-0.772,-0.563,-0.427,0.564,0.427,0.000,0.109,0.839,-0.750,-0.700,0.096,0.701,-0.097,False,0.500,0.644,-0.500,0.000,0.000,0.000,1.000,-0.500,0.640,-0.500,0.000,0.000,0.000,1.000
13.868,0.000,0.719,0.000,0.000,-1.000,0.000,0.000,-0.023,0.136,0.719,0.000,0.000,-0.926,0.377,0.000,-45.656,0.016,1.023,-0.297,0.000,-0.632,0.775,0.000,57.303,0.016,0.944,-0.681,0.000,-0.604,0.797,0.000,-85.944,0.109,0.944,-0.681,-0.563,-0.427,0.564,0.427,-89.954,0.109,0.918,-0.772,-0.563,-0.427,0.564,0.427,0.000,0.109,0.839,-0.750,-0.700,0.096,0.701,-0.097,False,0.500,0.644,-0.500,0.000,0.000,0.000,1.000,-0.500,0.640,-0.500,0.000,0.000,0.000,1.000
13.972,0.000,0.719,0.000,0.000,-1.000,0.000,0.000,-0.023,0.136,0.719,0.000,0.000,-0.926,0.377,0.000,-45.656,0.016,1.023,-0.297,0.000,-0.632,0.775,0.000,57.303,0.016,0.944,-0.681,0.000,-0.604,0.797,0.000,-85.944,0.109,0.944,-0.681,-0.563,-0.427,0.564,0.427,-89.954,0.109,0.918,-0.772,-0.563,-0.427,0.564,0.427,0.000,0.109,0.839,-0.750,-0.700,0.096,0.701,-0.097,False,0.500,0.644,-0.500,0.000,0.000,0.000,1.000,-0.500,0.640,-0.500,0.000,0.000,0.000,1.000
14.073,0.000,0.719,0.000,0.000,-1.000,0.000,0.000,-0.023,0.136,0.719,0.000,0.000,-0.926,0.377,0.000,-45.656,0.016,1.023,-0.297,0.000,-0.632,0.775,0.000,57.303,0.016,0.944,-0.681,0.000,-0.604,0.797,0.000,-85.944,0.109,0.944,-0.681,-0.563,-0.427,0.564,0.427,-89.954,0.109,0.918,-0.772,-0.563,-0.427,0.564,0.427,0.000,0.109,0.839,-0.750,-0.700,0.096,0.701,-0.097,False,0.500,0.644,-0.500,0.000,0.000,0.000,1.000,-0.500,0.640,-0.500,0.000,0.000,0.000,1.000
14.177,0.000,0.719,0.000,0.000,-1.000,0.000,0.000,-0.023,0.136,0.719,0.000,0.000,-0.926,0.377,0.000,-45.656,0.016,1.023,-0.297,0.000,-0.632,0.775,0.000,57.303,0.016,0.944,-0.681,0.000,-0.604,0.797,0.000,-85.944,0.109,0.944,-0.681,-0.563,-0.427,0.564,0.427,-89.954,0.109,0.918,-0.772,-0.563,-0.427,0.564,0.427,0.000,0.109,0.839,-0.750,-0.700,0.096,0.701,-0.097,False,0.500,0.644,-0.500,0.000,0.000,0.000,1.000,-0.500,0.640,-0.500,0.000,0.000,0.000,1.000
14.280,0.000,0.719,0.000,0.000,-1.000,0.000,0.000,-0.023,0.136,0.719,0.000,0.000,-0.926,0.377,0.000,-45.656,0.016,1.023,-0.297,0.000,-0.632,0.775,0.000,57.303,0.016,0.944,-0.681,0.000,-0.604,0.797,0.000,-85.944,0.109,0.944,-0.681,-0.563,-0.427,0.564,0.427,-89.954,0.109,0.918,-0.772,-0.563,-0.427,0.564,0.427,0.000,0.109,0.839,-0.750,-0.700,0.096,0.701,-0.097,False,0.500,0.644,-0.500,0.000,0.000,0.000,1.000,-0.500,0.640,-0.500,0.000,0.000,0.000,1.000
14.383,0.000,0.719,0.000,0.000,-1.000,0.000,0.000,-0.023,0.136,0.719,0.000,0.000,-0.926,0.377,0.000,-45.656,0.016,1.023,-0.297,0.000,-0.632,0.775,0.000,57.303,0.016,0.944,-0.681,0.000,-0.604,0.797,0.000,-85.944,0.109,0.944,-0.681,-0.563,-0.427,0.564,0.427,-89.954,0.109,0.918,-0.772,-0.563,-0.427,0.564,0.427,0.000,0.109,0.839,-0.750,-0.700,0.096,0.701,-0.097,False,0.500,0.644,-0.500,0.000,0.000,0.000,1.000,-0.500,0.640,-0.500,0.000,0.000,0.000,1.000
14.486,0.000,0.719,0.000,0.000,-1.000,0.000,0.000,-0.023,0.136,0.719,0.000,0.000,-0.926,0.377,0.000,-45.656,0.016,1.023,-0.297,0.000,-0.632,0.775,0.000,57.303,0.016,0.944,-0.681,0.000,-0.604,0.797,0.000,-85.944,0.109,0.944,-0.681,-0.563,-0.427,0.564,0.427,-89.954,0.109,0.918,-0.772,-0.563,-0.427,0.564,0.427,0.000,0.109,0.839,-0.750,-0.700,0.096,0.701,-0.097,False,0.500,0.644,-0.500,0.000,0.000,0.000,1.000,-0.500,0.640,-0.500,0.000,0.000,0.000,1.000
14.588,0.000,0.719,0.000,0.000,-1.000,0.000,0.000,-0.023,0.136,0.719,0.000,0.000,-0.926,0.377,0.000,-45.656,0.016,1.023,-0.297,0.000,-0.632,0.775,0.000,57.303,0.016,0.944,-0.681,0.000,-0.604,0.797,0.000,-85.944,0.109,0.944,-0.681,-0.563,-0.427,0.564,0.427,-89.954,0.109,0.918,-0.772,-0.563,-0.427,0.564,0.427,0.000,0.109,0.839,-0.750,-0.700,0.096,0.701,-0.097,False,0.500,0.644,-0.500,0.000,0.000,0.000,1.000,-0.500,0.640,-0.500,0.000,0.000,0.000,1.000
14.688,0.000,0.719,0.000,0.000,-1.000,0.000,0.000,-0.023,0.136,0.719,0.000,0.000,-0.926,0.377,0.000,-45.656,0.016,1.023,-0.297,0.000,-0.632,0.775,0.000,57.303,0.016,0.944,-0.681,0.000,-0.604,0.797,0.000,-85.944,0.109,0.944,-0.681,-0.563,-0.427,0.564,0.427,-89.954,0.109,0.918,-0.772,-0.563,-0.427,0.564,0.427,0.000,0.109,0.839,-0.750,-0.700,0.096,0.701,-0.097,False,0.500,0.644,-0.500,0.000,0.000,0.000,1.000,-0.500,0.640,-0.500,0.000,0.000,0.000,1.000
14.789,0.000,0.719,0.000,0.000,-1.000,0.000,0.000,-0.023,0.136,0.719,0.000,0.000,-0.926,0.377,0.000,-45.656,0.016,1.023,-0.297,0.000,-0.632,0.775,0.000,57.303,0.016,0.944,-0.681,0.000,-0.604,0.797,0.000,-85.944,0.109,0.944,-0.681,-0.563,-0.427,0.564,0.427,-89.954,0.109,0.918,-0.772,-0.563,-0.427,0.564,0.427,0.000,0.109,0.839,-0.750,-0.700,0.096,0.701,-0.097,False,0.500,0.644,-0.500,0.000,0.000,0.000,1.000,-0.500,0.640,-0.500,0.000,0.000,0.000,1.000
14.892,0.000,0.719,0.000,0.000,-1.000,0.000,0.000,-0.023,0.136,0.719,0.000,0.000,-0.926,0.377,0.000,-45.656,0.016,1.023,-0.297,0.000,-0.632,0.775,0.000,57.303,0.016,0.944,-0.681,0.000,-0.604,0.797,0.000,-85.944,0.109,0.944,-0.681,-0.563,-0.427,0.564,0.427,-89.954,0.109,0.918,-0.772,-0.563,-0.427,0.564,0.427,0.000,0.109,0.839,-0.750,-0.700,0.096,0.701,-0.097,False,0.500,0.644,-0.500,0.000,0.000,0.000,1.000,-0.500,0.640,-0.500,0.000,0.000,0.000,1.000
14.995,0.000,0.719,0.000,0.000,-1.000,0.000,0.000,-0.023,0.136,0.719,0.000,0.000,-0.926,0.377,0.000,-45.656,0.016,1.023,-0.297,0.000,-0.632,0.775,0.000,57.303,0.016,0.944,-0.681,0.000,-0.604,0.797,0.000,-85.944,0.109,0.944,-0.681,-0.563,-0.427,0.564,0.427,-89.954,0.109,0.918,-0.772,-0.563,-0.427,0.564,0.427,0.000,0.109,0.839,-0.750,-0.700,0.096,0.701,-0.097,False,0.500,0.644,-0.500,0.000,0.000,0.000,1.000,-0.500,0.640,-0.500,0.000,0.000,0.000,1.000
15.097,0.000,0.719,0.000,0.000,-1.000,0.000,0.000,-0.023,0.136,0.719,0.000,0.000,-0.926,0.377,0.000,-45.656,0.016,1.023,-0.297,0.000,-0.632,0.775,0.000,57.303,0.016,0.944,-0.681,0.000,-0.604,0.797,0.000,-85.944,0.109,0.944,-0.681,-0.563,-0.427,0.564,0.427,-89.954,0.109,0.918,-0.772,-0.563,-0.427,0.564,0.427,0.000,0.109,0.839,-0.750,-0.700,0.096,0.701,-0.097,False,0.500,0.644,-0.500,0.000,0.000,0.000,1.000,-0.500,0.640,-0.500,0.000,0.000,0.000,1.000
15.201,0.000,0.719,0.000,0.000,-1.000,0.000,0.000,-0.023,0.136,0.719,0.000,0.000,-0.926,0.377,0.000,-45.656,0.016,1.023,-0.297,0.000,-0.632,0.775,0.000,57.303,0.016,0.944,-0.681,0.000,-0.604,0.797,0.000,-85.944,0.109,0.944,-0.681,-0.563,-0.427,0.564,0.427,-89.954,0.109,0.918,-0.772,-0.563,-0.427,0.564,0.427,0.000,0.109,0.839,-0.750,-0.700,0.096,0.701,-0.097,False,0.500,0.644,-0.500,0.000,0.000,0.000,1.000,-0.500,0.640,-0.500,0.000,0.000,0.000,1.000
15.303,0.000,0.719,0.000,0.000,-1.000,0.000,0.000,-0.023,0.136,0.719,0.000,0.000,-0.926,0.377,0.000,-45.656,0.016,1.023,-0.297,0.000,-0.632,0.775,0.000,57.303,0.016,0.944,-0.681,0.000,-0.604,0.797,0.000,-85.944,0.109,0.944,-0.681,-0.563,-0.427,0.564,0.427,-89.954,0.109,0.918,-0.772,-0.563,-0.427,0.564,0.427,0.000,0.109,0.839,-0.750,-0.700,0.096,0.701,-0.097,False,0.500,0.644,-0.500,0.000,0.000,0.000,1.000,-0.500,0.640,-0.500,0.000,0.000,0.000,1.000
15.407,0.000,0.719,0.000,0.000,-1.000,0.000,0.000,-0.023,0.136,0.719,0.000,0.000,-0.926,0.377,0.000,-45.656,0.016,1.023,-0.297,0.000,-0.632,0.775,0.000,57.303,0.016,0.944,-0.681,0.000,-0.604,0.797,0.000,-85.944,0.109,0.944,-0.681,-0.563,-0.427,0.564,0.427,-89.954,0.109,0.918,-0.772,-0.563,-0.427,0.564,0.427,0.000,0.109,0.839,-0.750,-0.700,0.096,0.701,-0.097,False,0.500,0.644,-0.500,0.000,0.000,0.000,1.000,-0.500,0.640,-0.500,0.000,0.000,0.000,1.000
15.508,0.000,0.719,0.000,0.000,-1.000,0.000,0.000,-0.023,0.136,0.719,0.000,0.000,-0.926,0.377,0.000,-45.656,0.016,1.023,-0.297,0.000,-0.632,0.775,0.000,57.303,0.016,0.944,-0.681,0.000,-0.604,0.797,0.000,-85.944,0.109,0.944,-0.681,-0.563,-0.427,0.564,0.427,-89.954,0.109,0.918,-0.772,-0.563,-0.427,0.564,0.427,0.000,0.109,0.839,-0.750,-0.700,0.096,0.701,-0.097,False,0.500,0.644,-0.500,0.000,0.000,0.000,1.000,-0.500,0.640,-0.500,0.000,0.000,0.000,1.000
15.610,0.000,0.719,0.000,0.000,-1.000,0.000,0.000,-0.023,0.136,0.719,0.000,0.000,-0.926,0.377,0.000,-45.656,0.016,1.023,-0.297,0.000,-0.632,0.775,0.000,57.303,0.016,0.944,-0.681,0.000,-0.604,0.797,0.000,-85.944,0.109,0.944,-0.681,-0.563,-0.427,0.564,0.427,-89.954,0.109,0.918,-0.772,-0.563,-0.427,0.564,0.427,0.000,0.109,0.839,-0.750,-0.700,0.096,0.701,-0.097,False,0.500,0.644,-0.500,0.000,0.000,0.000,1.000,-0.500,0.640,-0.500,0.000,0.000,0.000,1.000
15.887,0.000,0.719,0.000,0.000,-1.000,0.000,0.000,-0.023,0.136,0.719,0.000,0.000,-0.926,0.377,0.000,-45.656,0.016,1.023,-0.297,0.000,-0.632,0.775,0.000,57.303,0.016,0.944,-0.681,0.000,-0.604,0.797,0.000,-85.944,0.109,0.944,-0.681,-0.563,-0.427,0.564,0.427,-89.954,0.109,0.918,-0.772,-0.563,-0.427,0.564,0.427,0.000,0.109,0.839,-0.750,-0.700,0.096,0.701,-0.097,False,0.500,0.644,-0.500,0.000,0.000,0.000,1.000,-0.500,0.640,-0.500,0.000,0.000,0.000,1.000
15.993,0.000,0.719,0.000,0.000,-1.000,0.000,0.000,-0.023,0.136,0.719,0.000,0.000,-0.926,0.377,0.000,-45.656,0.016,1.023,-0.297,0.000,-0.632,0.775,0.000,57.303,0.016,0.944,-0.681,0.000,-0.604,0.797,0.000,-85.944,0.109,0.944,-0.681,-0.563,-0.427,0.564,0.427,-89.954,0.109,0.918,-0.772,-0.563,-0.427,0.564,0.427,0.000,0.109,0.839,-0.750,-0.700,0.096,0.701,-0.097,False,0.500,0.644,-0.500,0.000,0.000,0.000,1.000,-0.500,0.640,-0.500,0.000,0.000,0.000,1.000
16.098,0.000,0.719,0.000,0.000,-1.000,0.000,0.000,-0.023,0.136,0.719,0.000,0.000,-0.926,0.377,0.000,-45.656,0.016,1.023,-0.297,0.000,-0.632,0.775,0.000,57.303,0.016,0.944,-0.681,0.000,-0.604,0.797,0.000,-85.944,0.109,0.944,-0.681,-0.563,-0.427,0.564,0.427,-89.954,0.109,0.918,-0.772,-0.563,-0.427,0.564,0.427,0.000,0.109,0.839,-0.750,-0.700,0.096,0.701,-0.097,False,0.500,0.644,-0.500,0.000,0.000,0.000,1.000,-0.500,0.640,-0.500,0.000,0.000,0.000,1.000
16.199,0.000,0.719,0.000,0.000,-1.000,0.000,0.000,-0.023,0.136,0.719,0.000,0.000,-0.926,0.377,0.000,-45.656,0.016,1.023,-0.297,0.000,-0.632,0.775,0.000,57.303,0.016,0.944,-0.681,0.000,-0.604,0.797,0.000,-85.944,0.109,0.944,-0.681,-0.563,-0.427,0.564,0.427,-89.954,0.109,0.918,-0.772,-0.563,-0.427,0.564,0.427,0.000,0.109,0.839,-0.750,-0.700,0.096,0.701,-0.097,False,0.500,0.644,-0.500,0.000,0.000,0.000,1.000,-0.500,0.640,-0.500,0.000,0.000,0.000,1.000
16.303,0.000,0.719,0.000,0.000,-1.000,0.000,0.000,-0.023,0.136,0.719,0.000,0.000,-0.926,0.377,0.000,-45.656,0.016,1.023,-0.297,0.000,-0.632,0.775,0.000,57.303,0.016,0.944,-0.681,0.000,-0.604,0.797,0.000,-85.944,0.109,0.944,-0.681,-0.563,-0.427,0.564,0.427,-89.954,0.109,0.918,-0.772,-0.563,-0.427,0.564,0.427,0.000,0.109,0.839,-0.750,-0.700,0.096,0.701,-0.097,False,0.500,0.644,-0.500,0.000,0.000,0.000,1.000,-0.500,0.640,-0.500,0.000,0.000,0.000,1.000
16.404,0.000,0.719,0.000,0.000,-1.000,0.000,0.000,-0.023,0.136,0.719,0.000,0.000,-0.926,0.377,0.000,-45.656,0.016,1.023,-0.297,0.000,-0.632,0.775,0.000,57.303,0.016,0.944,-0.681,0.000,-0.604,0.797,0.000,-85.944,0.109,0.944,-0.681,-0.563,-0.427,0.564,0.427,-89.954,0.109,0.918,-0.772,-0.563,-0.427,0.564,0.427,0.000,0.109,0.839,-0.750,-0.700,0.096,0.701,-0.097,False,0.500,0.644,-0.500,0.000,0.000,0.000,1.000,-0.500,0.640,-0.500,0.000,0.000,0.000,1.000
16.506,0.000,0.719,0.000,0.000,-1.000,0.000,0.000,-0.023,0.136,0.719,0.000,0.000,-0.926,0.377,0.000,-45.656,0.016,1.023,-0.297,0.000,-0.632,0.775,0.000,57.303,0.016,0.944,-0.681,0.000,-0.604,0.797,0.000,-85.944,0.109,0.944,-0.681,-0.563,-0.427,0.564,0.427,-89.954,0.109,0.918,-0.772,-0.563,-0.427,0.564,0.427,0.000,0.109,0.839,-0.750,-0.700,0.096,0.701,-0.097,False,0.500,0.644,-0.500,0.000,0.000,0.000,1.000,-0.500,0.640,-0.500,0.000,0.000,0.000,1.000
16.609,0.000,0.719,0.000,0.000,-1.000,0.000,0.000,-0.023,0.136,0.719,0.000,0.000,-0.926,0.377,0.000,-45.656,0.016,1.023,-0.297,0.000,-0.632,0.775,0.000,57.303,0.016,0.944,-0.681,0.000,-0.604,0.797,0.000,-85.944,0.109,0.944,-0.681,-0.563,-0.427,0.564,0.427,-89.954,0.109,0.918,-0.772,-0.563,-0.427,0.564,0.427,0.000,0.109,0.839,-0.750,-0.700,0.096,0.701,-0.097,False,0.500,0.644,-0.500,0.000,0.000,0.000,1.000,-0.500,0.640,-0.500,0.000,0.000,0.000,1.000
16.712,0.000,0.719,0.000,0.000,-1.000,0.000,0.000,-0.023,0.136,0.719,0.000,0.000,-0.926,0.377,0.000,-45.656,0.016,1.023,-0.297,0.000,-0.632,0.775,0.000,57.303,0.016,0.944,-0.681,0.000,-0.604,0.797,0.000,-85.944,0.109,0.944,-0.681,-0.563,-0.427,0.564,0.427,-89.954,0.109,0.918,-0.772,-0.563,-0.427,0.564,0.427,0.000,0.109,0.839,-0.750,-0.700,0.096,0.701,-0.097,False,0.500,0.644,-0.500,0.000,0.000,0.000,1.000,-0.500,0.640,-0.500,0.000,0.000,0.000,1.000
16.816,0.000,0.719,0.000,0.000,-1.000,0.000,0.000,-0.023,0.136,0.719,0.000,0.000,-0.926,0.377,0.000,-45.656,0.016,1.023,-0.297,0.000,-0.632,0.775,0.000,57.303,0.016,0.944,-0.681,0.000,-0.604,0.797,0.000,-85.944,0.109,0.944,-0.681,-0.563,-0.427,0.564,0.427,-89.954,0.109,0.918,-0.772,-0.563,-0.427,0.564,0.427,0.000,0.109,0.839,-0.750,-0.700,0.096,0.701,-0.097,False,0.500,0.644,-0.500,0.000,0.000,0.000,1.000,-0.500,0.640,-0.500,0.000,0.000,0.000,1.000
16.917,0.000,0.719,0.000,0.000,-1.000,0.000,0.000,-0.023,0.136,0.719,0.000,0.000,-0.926,0.377,0.000,-45.656,0.016,1.023,-0.297,0.000,-0.632,0.775,0.000,57.303,0.016,0.944,-0.681,0.000,-0.604,0.797,0.000,-85.944,0.109,0.944,-0.681,-0.563,-0.427,0.564,0.427,-89.954,0.109,0.918,-0.772,-0.563,-0.427,0.564,0.427,0.000,0.109,0.839,-0.750,-0.700,0.096,0.701,-0.097,False,0.500,0.644,-0.500,0.000,0.000,0.000,1.000,-0.500,0.640,-0.500,0.000,0.000,0.000,1.000
17.020,0.000,0.719,0.000,0.000,-1.000,0.000,0.000,-0.023,0.136,0.719,0.000,0.000,-0.926,0.377,0.000,-45.656,0.016,1.023,-0.297,0.000,-0.632,0.775,0.000,57.303,0.016,0.944,-0.681,0.000,-0.604,0.797,0.000,-85.944,0.109,0.944,-0.681,-0.563,-0.427,0.564,0.427,-89.954,0.109,0.918,-0.772,-0.563,-0.427,0.564,0.427,0.000,0.109,0.839,-0.750,-0.700,0.096,0.701,-0.097,False,0.500,0.644,-0.500,0.000,0.000,0.000,1.000,-0.500,0.640,-0.500,0.000,0.000,0.000,1.000
17.124,0.000,0.719,0.000,0.000,-1.000,0.000,0.000,-0.023,0.136,0.719,0.000,0.000,-0.926,0.377,0.000,-45.656,0.016,1.023,-0.297,0.000,-0.632,0.775,0.000,57.303,0.016,0.944,-0.681,0.000,-0.604,0.797,0.000,-85.944,0.109,0.944,-0.681,-0.563,-0.427,0.564,0.427,-89.954,0.109,0.918,-0.772,-0.563,-0.427,0.564,0.427,0.000,0.109,0.839,-0.750,-0.700,0.096,0.701,-0.097,False,0.500,0.644,-0.500,0.000,0.000,0.000,1.000,-0.500,0.640,-0.500,0.000,0.000,0.000,1.000
17.226,0.000,0.719,0.000,0.000,-1.000,0.000,0.000,-0.023,0.136,0.719,0.000,0.000,-0.926,0.377,0.000,-45.656,0.016,1.023,-0.297,0.000,-0.632,0.775,0.000,57.303,0.016,0.944,-0.681,0.000,-0.604,0.797,0.000,-85.944,0.109,0.944,-0.681,-0.563,-0.427,0.564,0.427,-89.954,0.109,0.918,-0.772,-0.563,-0.427,0.564,0.427,0.000,0.109,0.839,-0.750,-0.700,0.096,0.701,-0.097,False,0.500,0.644,-0.500,0.000,0.000,0.000,1.000,-0.500,0.640,-0.500,0.000,0.000,0.000,1.000
17.329,0.000,0.719,0.000,0.000,-1.000,0.000,0.000,-0.023,0.136,0.719,0.000,0.000,-0.926,0.377,0.000,-45.656,0.016,1.023,-0.297,0.000,-0.632,0.775,0.000,57.303,0.016,0.944,-0.681,0.000,-0.604,0.797,0.000,-85.944,0.109,0.944,-0.681,-0.563,-0.427,0.564,0.427,-89.954,0.109,0.918,-0.772,-0.563,-0.427,0.564,0.427,0.000,0.109,0.839,-0.750,-0.700,0.096,0.701,-0.097,False,0.500,0.644,-0.500,0.000,0.000,0.000,1.000,-0.500,0.640,-0.500,0.000,0.000,0.000,1.000
17.431,0.000,0.719,0.000,0.000,-1.000,0.000,0.000,-0.023,0.136,0.719,0.000,0.000,-0.926,0.377,0.000,-45.656,0.016,1.023,-0.297,0.000,-0.632,0.775,0.000,57.303,0.016,0.944,-0.681,0.000,-0.604,0.797,0.000,-85.944,0.109,0.944,-0.681,-0.563,-0.427,0.564,0.427,-89.954,0.109,0.918,-0.772,-0.563,-0.427,0.564,0.427,0.000,0.109,0.839,-0.750,-0.700,0.096,0.701,-0.097,False,0.500,0.644,-0.500,0.000,0.000,0.000,1.000,-0.500,0.640,-0.500,0.000,0.000,0.000,1.000
17.532,0.000,0.719,0.000,0.000,-1.000,0.000,0.000,-0.023,0.136,0.719,0.000,0.000,-0.926,0.377,0.000,-45.656,0.016,1.023,-0.297,0.000,-0.632,0.775,0.000,57.303,0.016,0.944,-0.681,0.000,-0.604,0.797,0.000,-85.944,0.109,0.944,-0.681,-0.563,-0.427,0.564,0.427,-89.954,0.109,0.918,-0.772,-0.563,-0.427,0.564,0.427,0.000,0.109,0.839,-0.750,-0.700,0.096,0.701,-0.097,False,0.500,0.644,-0.500,0.000,0.000,0.000,1.000,-0.500,0.640,-0.500,0.000,0.000,0.000,1.000
17.634,0.000,0.719,0.000,0.000,-1.000,0.000,0.000,-0.023,0.136,0.719,0.000,0.000,-0.926,0.377,0.000,-45.656,0.016,1.023,-0.297,0.000,-0.632,0.775,0.000,57.303,0.016,0.944,-0.681,0.000,-0.604,0.797,0.000,-85.944,0.109,0.944,-0.681,-0.563,-0.427,0.564,0.427,-89.954,0.109,0.918,-0.772,-0.563,-0.427,0.564,0.427,0.000,0.109,0.839,-0.750,-0.700,0.096,0.701,-0.097,False,0.500,0.644,-0.500,0.000,0.000,0.000,1.000,-0.500,0.640,-0.500,0.000,0.000,0.000,1.000
17.736,0.000,0.719,0.000,0.000,-1.000,0.000,0.000,-0.023,0.136,0.719,0.000,0.000,-0.926,0.377,0.000,-45.656,0.016,1.023,-0.297,0.000,-0.632,0.775,0.000,57.303,0.016,0.944,-0.681,0.000,-0.604,0.797,0.000,-85.944,0.109,0.944,-0.681,-0.563,-0.427,0.564,0.427,-89.954,0.109,0.918,-0.772,-0.563,-0.427,0.564,0.427,0.000,0.109,0.839,-0.750,-0.700,0.096,0.701,-0.097,False,0.500,0.644,-0.500,0.000,0.000,0.000,1.000,-0.500,0.640,-0.500,0.000,0.000,0.000,1.000
17.840,0.000,0.719,0.000,0.000,-1.000,0.000,0.000,-0.023,0.136,0.719,0.000,0.000,-0.926,0.377,0.000,-45.656,0.016,1.023,-0.297,0.000,-0.632,0.775,0.000,57.303,0.016,0.944,-0.681,0.000,-0.604,0.797,0.000,-85.944,0.109,0.944,-0.681,-0.563,-0.427,0.564,0.427,-89.954,0.109,0.918,-0.772,-0.563,-0.427,0.564,0.427,0.000,0.109,0.839,-0.750,-0.700,0.096,0.701,-0.097,False,0.500,0.644,-0.500,0.000,0.000,0.000,1.000,-0.500,0.640,-0.500,0.000,0.000,0.000,1.000
17.942,0.000,0.719,0.000,0.000,-1.000,0.000,0.000,-0.023,0.136,0.719,0.000,0.000,-0.926,0.377,0.000,-45.656,0.016,1.023,-0.297,0.000,-0.632,0.775,0.000,57.303,0.016,0.944,-0.681,0.000,-0.604,0.797,0.000,-85.944,0.109,0.944,-0.681,-0.563,-0.427,0.564,0.427,-89.954,0.109,0.918,-0.772,-0.563,-0.427,0.564,0.427,0.000,0.109,0.839,-0.750,-0.700,0.096,0.701,-0.097,False,0.500,0.644,-0.500,0.000,0.000,0.000,1.000,-0.500,0.640,-0.500,0.000,0.000,0.000,1.000
18.042,0.000,0.719,0.000,0.000,-1.000,0.000,0.000,-0.023,0.136,0.719,0.000,0.000,-0.926,0.377,0.000,-45.656,0.016,1.023,-0.297,0.000,-0.632,0.775,0.000,57.303,0.016,0.944,-0.681,0.000,-0.604,0.797,0.000,-85.944,0.109,0.944,-0.681,-0.563,-0.427,0.564,0.427,-89.954,0.109,0.918,-0.772,-0.563,-0.427,0.564,0.427,0.000,0.109,0.839,-0.750,-0.700,0.096,0.701,-0.097,False,0.500,0.644,-0.500,0.000,0.000,0.000,1.000,-0.500,0.640,-0.500,0.000,0.000,0.000,1.000
18.143,0.000,0.719,0.000,0.000,-1.000,0.000,0.000,-0.023,0.136,0.719,0.000,0.000,-0.926,0.377,0.000,-45.656,0.016,1.023,-0.297,0.000,-0.632,0.775,0.000,57.303,0.016,0.944,-0.681,0.000,-0.604,0.797,0.000,-85.944,0.109,0.944,-0.681,-0.563,-0.427,0.564,0.427,-89.954,0.109,0.918,-0.772,-0.563,-0.427,0.564,0.427,0.000,0.109,0.839,-0.750,-0.700,0.096,0.701,-0.097,False,0.500,0.644,-0.500,0.000,0.000,0.000,1.000,-0.500,0.640,-0.500,0.000,0.000,0.000,1.000
18.248,0.000,0.719,0.000,0.000,-1.000,0.000,0.000,-0.023,0.136,0.719,0.000,0.000,-0.926,0.377,0.000,-45.656,0.016,1.023,-0.297,0.000,-0.632,0.775,0.000,57.303,0.016,0.944,-0.681,0.000,-0.604,0.797,0.000,-85.944,0.109,0.944,-0.681,-0.563,-0.427,0.564,0.427,-89.954,0.109,0.918,-0.772,-0.563,-0.427,0.564,0.427,0.000,0.109,0.839,-0.750,-0.700,0.096,0.701,-0.097,False,0.500,0.644,-0.500,0.000,0.000,0.000,1.000,-0.500,0.640,-0.500,0.000,0.000,0.000,1.000
18.352,0.000,0.719,0.000,0.000,-1.000,0.000,0.000,-0.023,0.136,0.719,0.000,0.000,-0.926,0.377,0.000,-45.656,0.016,1.023,-0.297,0.000,-0.632,0.775,0.000,57.303,0.016,0.944,-0.681,0.000,-0.604,0.797,0.000,-85.944,0.109,0.944,-0.681,-0.563,-0.427,0.564,0.427,-89.954,0.109,0.918,-0.772,-0.563,-0.427,0.564,0.427,0.000,0.109,0.839,-0.750,-0.700,0.096,0.701,-0.097,False,0.500,0.644,-0.500,0.000,0.000,0.000,1.000,-0.500,0.640,-0.500,0.000,0.000,0.000,1.000
18.453,0.000,0.719,0.000,0.000,-1.000,0.000,0.000,-0.023,0.136,0.719,0.000,0.000,-0.926,0.377,0.000,-45.656,0.016,1.023,-0.297,0.000,-0.632,0.775,0.000,57.303,0.016,0.944,-0.681,0.000,-0.604,0.797,0.000,-85.944,0.109,0.944,-0.681,-0.563,-0.427,0.564,0.427,-89.954,0.109,0.918,-0.772,-0.563,-0.427,0.564,0.427,0.000,0.109,0.839,-0.750,-0.700,0.096,0.701,-0.097,False,0.500,0.644,-0.500,0.000,0.000,0.000,1.000,-0.500,0.640,-0.500,0.000,0.000,0.000,1.000
18.557,0.000,0.719,0.000,0.000,-1.000,0.000,0.000,-0.023,0.136,0.719,0.000,0.000,-0.926,0.377,0.000,-45.656,0.016,1.023,-0.297,0.000,-0.632,0.775,0.000,57.303,0.016,0.944,-0.681,0.000,-0.604,0.797,0.000,-85.944,0.109,0.944,-0.681,-0.563,-0.427,0.564,0.427,-89.954,0.109,0.918,-0.772,-0.563,-0.427,0.564,0.427,0.000,0.109,0.839,-0.750,-0.700,0.096,0.701,-0.097,False,0.500,0.644,-0.500,0.000,0.000,0.000,1.000,-0.500,0.640,-0.500,0.000,0.000,0.000,1.000
18.660,0.000,0.719,0.000,0.000,-1.000,0.000,0.000,-0.023,0.136,0.719,0.000,0.000,-0.926,0.377,0.000,-45.656,0.016,1.023,-0.297,0.000,-0.632,0.775,0.000,57.303,0.016,0.944,-0.681,0.000,-0.604,0.797,0.000,-85.944,0.109,0.944,-0.681,-0.563,-0.427,0.564,0.427,-89.954,0.109,0.918,-0.772,-0.563,-0.427,0.564,0.427,0.000,0.109,0.839,-0.750,-0.700,0.096,0.701,-0.097,False,0.500,0.644,-0.500,0.000,0.000,0.000,1.000,-0.500,0.640,-0.500,0.000,0.000,0.000,1.000
18.760,0.000,0.719,0.000,0.000,-1.000,0.000,0.000,-0.023,0.136,0.719,0.000,0.000,-0.926,0.377,0.000,-45.656,0.016,1.023,-0.297,0.000,-0.632,0.775,0.000,57.303,0.016,0.944,-0.681,0.000,-0.604,0.797,0.000,-85.944,0.109,0.944,-0.681,-0.563,-0.427,0.564,0.427,-89.954,0.109,0.918,-0.772,-0.563,-0.427,0.564,0.427,0.000,0.109,0.839,-0.750,-0.700,0.096,0.701,-0.097,False,0.500,0.644,-0.500,0.000,0.000,0.000,1.000,-0.500,0.640,-0.500,0.000,0.000,0.000,1.000
18.865,0.000,0.719,0.000,0.000,-1.000,0.000,0.000,-0.023,0.136,0.719,0.000,0.000,-0.926,0.377,0.000,-45.656,0.016,1.023,-0.297,0.000,-0.632,0.775,0.000,57.303,0.016,0.944,-0.681,0.000,-0.604,0.797,0.000,-85.944,0.109,0.944,-0.681,-0.563,-0.427,0.564,0.427,-89.954,0.109,0.918,-0.772,-0.563,-0.427,0.564,0.427,0.000,0.109,0.839,-0.750,-0.700,0.096,0.701,-0.097,False,0.500,0.644,-0.500,0.000,0.000,0.000,1.000,-0.500,0.640,-0.500,0.000,0.000,0.000,1.000
18.967,0.000,0.719,0.000,0.000,-1.000,0.000,0.000,-0.023,0.136,0.719,0.000,0.000,-0.926,0.377,0.000,-45.656,0.016,1.023,-0.297,0.000,-0.632,0.775,0.000,57.303,0.016,0.944,-0.681,0.000,-0.604,0.797,0.000,-85.944,0.109,0.944,-0.681,-0.563,-0.427,0.564,0.427,-89.954,0.109,0.918,-0.772,-0.563,-0.427,0.564,0.427,0.000,0.109,0.839,-0.750,-0.700,0.096,0.701,-0.097,False,0.500,0.644,-0.500,0.000,0.000,0.000,1.000,-0.500,0.640,-0.500,0.000,0.000,0.000,1.000
19.068,0.000,0.719,0.000,0.000,-1.000,0.000,0.000,-0.023,0.136,0.719,0.000,0.000,-0.926,0.377,0.000,-45.656,0.016,1.023,-0.297,0.000,-0.632,0.775,0.000,57.303,0.016,0.944,-0.681,0.000,-0.604,0.797,0.000,-85.944,0.109,0.944,-0.681,-0.563,-0.427,0.564,0.427,-89.954,0.109,0.918,-0.772,-0.563,-0.427,0.564,0.427,0.000,0.109,0.839,-0.750,-0.700,0.096,0.701,-0.097,False,0.500,0.644,-0.500,0.000,0.000,0.000,1.000,-0.500,0.640,-0.500,0.000,0.000,0.000,1.000
19.169,0.000,0.719,0.000,0.000,-1.000,0.000,0.000,-0.023,0.136,0.719,0.000,0.000,-0.926,0.377,0.000,-45.656,0.016,1.023,-0.297,0.000,-0.632,0.775,0.000,57.303,0.016,0.944,-0.681,0.000,-0.604,0.797,0.000,-85.944,0.109,0.944,-0.681,-0.563,-0.427,0.564,0.427,-89.954,0.109,0.918,-0.772,-0.563,-0.427,0.564,0.427,0.000,0.109,0.839,-0.750,-0.700,0.096,0.701,-0.097,False,0.500,0.644,-0.500,0.000,0.000,0.000,1.000,-0.500,0.640,-0.500,0.000,0.000,0.000,1.000
19.270,0.000,0.719,0.000,0.000,-1.000,0.000,0.000,-0.023,0.136,0.719,0.000,0.000,-0.926,0.377,0.000,-45.656,0.016,1.023,-0.297,0.000,-0.632,0.775,0.000,57.303,0.016,0.944,-0.681,0.000,-0.604,0.797,0.000,-85.944,0.109,0.944,-0.681,-0.563,-0.427,0.564,0.427,-89.954,0.109,0.918,-0.772,-0.563,-0.427,0.564,0.427,0.000,0.109,0.839,-0.750,-0.700,0.096,0.701,-0.097,False,0.500,0.644,-0.500,0.000,0.000,0.000,1.000,-0.500,0.640,-0.500,0.000,0.000,0.000,1.000
19.371,0.000,0.719,0.000,0.000,-1.000,0.000,0.000,-0.023,0.136,0.719,0.000,0.000,-0.926,0.377,0.000,-45.656,0.016,1.023,-0.297,0.000,-0.632,0.775,0.000,57.303,0.016,0.944,-0.681,0.000,-0.604,0.797,0.000,-85.944,0.109,0.944,-0.681,-0.563,-0.427,0.564,0.427,-89.954,0.109,0.918,-0.772,-0.563,-0.427,0.564,0.427,0.000,0.109,0.839,-0.750,-0.700,0.096,0.701,-0.097,False,0.500,0.644,-0.500,0.000,0.000,0.000,1.000,-0.500,0.640,-0.500,0.000,0.000,0.000,1.000
19.472,0.000,0.719,0.000,0.000,-1.000,0.000,0.000,-0.023,0.136,0.719,0.000,0.000,-0.926,0.377,0.000,-45.656,0.016,1.023,-0.297,0.000,-0.632,0.775,0.000,57.303,0.016,0.944,-0.681,0.000,-0.604,0.797,0.000,-85.944,0.109,0.944,-0.681,-0.563,-0.427,0.564,0.427,-89.954,0.109,0.918,-0.772,-0.563,-0.427,0.564,0.427,0.000,0.109,0.839,-0.750,-0.700,0.096,0.701,-0.097,False,0.500,0.644,-0.500,0.000,0.000,0.000,1.000,-0.500,0.640,-0.500,0.000,0.000,0.000,1.000
19.572,0.000,0.719,0.000,0.000,-1.000,0.000,0.000,-0.023,0.136,0.719,0.000,0.000,-0.926,0.377,0.000,-45.656,0.016,1.023,-0.297,0.000,-0.632,0.775,0.000,57.303,0.016,0.944,-0.681,0.000,-0.604,0.797,0.000,-85.944,0.109,0.944,-0.681,-0.563,-0.427,0.564,0.427,-89.954,0.109,0.918,-0.772,-0.563,-0.427,0.564,0.427,0.000,0.109,0.839,-0.750,-0.700,0.096,0.701,-0.097,False,0.500,0.644,-0.500,0.000,0.000,0.000,1.000,-0.500,0.640,-0.500,0.000,0.000,0.000,1.000
19.676,0.000,0.719,0.000,0.000,-1.000,0.000,0.000,-0.023,0.136,0.719,0.000,0.000,-0.926,0.377,0.000,-45.656,0.016,1.023,-0.297,0.000,-0.632,0.775,0.000,57.303,0.016,0.944,-0.681,0.000,-0.604,0.797,0.000,-85.944,0.109,0.944,-0.681,-0.563,-0.427,0.564,0.427,-89.954,0.109,0.918,-0.772,-0.563,-0.427,0.564,0.427,0.000,0.109,0.839,-0.750,-0.700,0.096,0.701,-0.097,False,0.500,0.644,-0.500,0.000,0.000,0.000,1.000,-0.500,0.640,-0.500,0.000,0.000,0.000,1.000
19.779,0.000,0.719,0.000,0.000,-1.000,0.000,0.000,-0.023,0.136,0.719,0.000,0.000,-0.926,0.377,0.000,-45.656,0.016,1.023,-0.297,0.000,-0.632,0.775,0.000,57.303,0.016,0.944,-0.681,0.000,-0.604,0.797,0.000,-85.944,0.109,0.944,-0.681,-0.563,-0.427,0.564,0.427,-89.954,0.109,0.918,-0.772,-0.563,-0.427,0.564,0.427,0.000,0.109,0.839,-0.750,-0.700,0.096,0.701,-0.097,False,0.500,0.644,-0.500,0.000,0.000,0.000,1.000,-0.500,0.640,-0.500,0.000,0.000,0.000,1.000
19.884,0.000,0.719,0.000,0.000,-1.000,0.000,0.000,-0.023,0.136,0.719,0.000,0.000,-0.926,0.377,0.000,-45.656,0.016,1.023,-0.297,0.000,-0.632,0.775,0.000,57.303,0.016,0.944,-0.681,0.000,-0.604,0.797,0.000,-85.944,0.109,0.944,-0.681,-0.563,-0.427,0.564,0.427,-89.954,0.109,0.918,-0.772,-0.563,-0.427,0.564,0.427,0.000,0.109,0.839,-0.750,-0.700,0.096,0.701,-0.097,False,0.500,0.644,-0.500,0.000,0.000,0.000,1.000,-0.500,0.640,-0.500,0.000,0.000,0.000,1.000
19.989,0.000,0.719,0.000,0.000,-1.000,0.000,0.000,-0.023,0.136,0.719,0.000,0.000,-0.926,0.377,0.000,-45.656,0.016,1.023,-0.297,0.000,-0.632,0.775,0.000,57.303,0.016,0.944,-0.681,0.000,-0.604,0.797,0.000,-85.944,0.109,0.944,-0.681,-0.563,-0.427,0.564,0.427,-89.954,0.109,0.918,-0.772,-0.563,-0.427,0.564,0.427,0.000,0.109,0.839,-0.750,-0.700,0.096,0.701,-0.097,False,0.500,0.644,-0.500,0.000,0.000,0.000,1.000,-0.500,0.640,-0.500,0.000,0.000,0.000,1.000
20.090,0.000,0.719,0.000,0.000,-1.000,0.000,0.000,-0.023,0.136,0.719,0.000,0.000,-0.926,0.377,0.000,-45.656,0.016,1.023,-0.297,0.000,-0.632,0.775,0.000,57.303,0.016,0.944,-0.681,0.000,-0.604,0.797,0.000,-85.944,0.109,0.944,-0.681,-0.563,-0.427,0.564,0.427,-89.954,0.109,0.918,-0.772,-0.563,-0.427,0.564,0.427,0.000,0.109,0.839,-0.750,-0.700,0.096,0.701,-0.097,False,0.500,0.644,-0.500,0.000,0.000,0.000,1.000,-0.500,0.640,-0.500,0.000,0.000,0.000,1.000
20.191,0.000,0.719,0.000,0.000,-1.000,0.000,0.000,-0.023,0.136,0.719,0.000,0.000,-0.926,0.377,0.000,-45.656,0.016,1.023,-0.297,0.000,-0.632,0.775,0.000,57.303,0.016,0.944,-0.681,0.000,-0.604,0.797,0.000,-85.944,0.109,0.944,-0.681,-0.563,-0.427,0.564,0.427,-89.954,0.109,0.918,-0.772,-0.563,-0.427,0.564,0.427,0.000,0.109,0.839,-0.750,-0.700,0.096,0.701,-0.097,False,0.500,0.644,-0.500,0.000,0.000,0.000,1.000,-0.500,0.640,-0.500,0.000,0.000,0.000,1.000
20.295,0.000,0.719,0.000,0.000,-1.000,0.000,0.000,-0.023,0.136,0.719,0.000,0.000,-0.926,0.377,0.000,-45.656,0.016,1.023,-0.297,0.000,-0.632,0.775,0.000,57.303,0.016,0.944,-0.681,0.000,-0.604,0.797,0.000,-85.944,0.109,0.944,-0.681,-0.563,-0.427,0.564,0.427,-89.954,0.109,0.918,-0.772,-0.563,-0.427,0.564,0.427,0.000,0.109,0.839,-0.750,-0.700,0.096,0.701,-0.097,False,0.500,0.644,-0.500,0.000,0.000,0.000,1.000,-0.500,0.640,-0.500,0.000,0.000,0.000,1.000
20.397,0.000,0.719,0.000,0.000,-1.000,0.000,0.000,-0.023,0.136,0.719,0.000,0.000,-0.926,0.377,0.000,-45.656,0.016,1.023,-0.297,0.000,-0.632,0.775,0.000,57.303,0.016,0.944,-0.681,0.000,-0.604,0.797,0.000,-85.944,0.109,0.944,-0.681,-0.563,-0.427,0.564,0.427,-89.954,0.109,0.918,-0.772,-0.563,-0.427,0.564,0.427,0.000,0.109,0.839,-0.750,-0.700,0.096,0.701,-0.097,False,0.500,0.644,-0.500,0.000,0.000,0.000,1.000,-0.500,0.640,-0.500,0.000,0.000,0.000,1.000
20.498,0.000,0.719,0.000,0.000,-1.000,0.000,0.000,-0.023,0.136,0.719,0.000,0.000,-0.926,0.377,0.000,-45.656,0.016,1.023,-0.297,0.000,-0.632,0.775,0.000,57.303,0.016,0.944,-0.681,0.000,-0.604,0.797,0.000,-85.944,0.109,0.944,-0.681,-0.563,-0.427,0.564,0.427,-89.954,0.109,0.918,-0.772,-0.563,-0.427,0.564,0.427,0.000,0.109,0.839,-0.750,-0.700,0.096,0.701,-0.097,False,0.500,0.644,-0.500,0.000,0.000,0.000,1.000,-0.500,0.640,-0.500,0.000,0.000,0.000,1.000
20.602,0.000,0.719,0.000,0.000,-1.000,0.000,0.000,-0.023,0.136,0.719,0.000,0.000,-0.926,0.377,0.000,-45.656,0.016,1.023,-0.297,0.000,-0.632,0.775,0.000,57.303,0.016,0.944,-0.681,0.000,-0.604,0.797,0.000,-85.944,0.109,0.944,-0.681,-0.563,-0.427,0.564,0.427,-89.954,0.109,0.918,-0.772,-0.563,-0.427,0.564,0.427,0.000,0.109,0.839,-0.750,-0.700,0.096,0.701,-0.097,False,0.500,0.644,-0.500,0.000,0.000,0.000,1.000,-0.500,0.640,-0.500,0.000,0.000,0.000,1.000
20.702,0.000,0.719,0.000,0.000,-1.000,0.000,0.000,-0.023,0.136,0.719,0.000,0.000,-0.926,0.377,0.000,-45.656,0.016,1.023,-0.297,0.000,-0.632,0.775,0.000,57.303,0.016,0.944,-0.681,0.000,-0.604,0.797,0.000,-85.944,0.109,0.944,-0.681,-0.563,-0.427,0.564,0.427,-89.954,0.109,0.918,-0.772,-0.563,-0.427,0.564,0.427,0.000,0.109,0.839,-0.750,-0.700,0.096,0.701,-0.097,False,0.500,0.644,-0.500,0.000,0.000,0.000,1.000,-0.500,0.640,-0.500,0.000,0.000,0.000,1.000
20.805,0.000,0.719,0.000,0.000,-1.000,0.000,0.000,-0.023,0.136,0.719,0.000,0.000,-0.926,0.377,0.000,-45.656,0.016,1.023,-0.297,0.000,-0.632,0.775,0.000,57.303,0.016,0.944,-0.681,0.000,-0.604,0.797,0.000,-85.944,0.109,0.944,-0.681,-0.563,-0.427,0.564,0.427,-89.954,0.109,0.918,-0.772,-0.563,-0.427,0.564,0.427,0.000,0.109,0.839,-0.750,-0.700,0.096,0.701,-0.097,False,0.500,0.644,-0.500,0.000,0.000,0.000,1.000,-0.500,0.640,-0.500,0.000,0.000,0.000,1.000
20.909,0.000,0.719,0.000,0.000,-1.000,0.000,0.000,-0.023,0.136,0.719,0.000,0.000,-0.926,0.377,0.000,-45.656,0.016,1.023,-0.297,0.000,-0.632,0.775,0.000,57.303,0.016,0.944,-0.681,0.000,-0.604,0.797,0.000,-85.944,0.109,0.944,-0.681,-0.563,-0.427,0.564,0.427,-89.954,0.109,0.918,-0.772,-0.563,-0.427,0.564,0.427,0.000,0.109,0.839,-0.750,-0.700,0.096,0.701,-0.097,False,0.500,0.644,-0.500,0.000,0.000,0.000,1.000,-0.500,0.640,-0.500,0.000,0.000,0.000,1.000
21.012,0.000,0.719,0.000,0.000,-1.000,0.000,0.000,-0.023,0.136,0.719,0.000,0.000,-0.926,0.377,0.000,-45.656,0.016,1.023,-0.297,0.000,-0.632,0.775,0.000,57.303,0.016,0.944,-0.681,0.000,-0.604,0.797,0.000,-85.944,0.109,0.944,-0.681,-0.563,-0.427,0.564,0.427,-89.954,0.109,0.918,-0.772,-0.563,-0.427,0.564,0.427,0.000,0.109,0.839,-0.750,-0.700,0.096,0.701,-0.097,False,0.500,0.644,-0.500,0.000,0.000,0.000,1.000,-0.500,0.640,-0.500,0.000,0.000,0.000,1.000
21.117,0.000,0.719,0.000,0.000,-1.000,0.000,0.000,-0.023,0.136,0.719,0.000,0.000,-0.926,0.377,0.000,-45.656,0.016,1.023,-0.297,0.000,-0.632,0.775,0.000,57.303,0.016,0.944,-0.681,0.000,-0.604,0.797,0.000,-85.944,0.109,0.944,-0.681,-0.563,-0.427,0.564,0.427,-89.954,0.109,0.918,-0.772,-0.563,-0.427,0.564,0.427,0.000,0.109,0.839,-0.750,-0.700,0.096,0.701,-0.097,False,0.500,0.644,-0.500,0.000,0.000,0.000,1.000,-0.500,0.640,-0.500,0.000,0.000,0.000,1.000
21.220,0.000,0.719,0.000,0.000,-1.000,0.000,0.000,-0.023,0.136,0.719,0.000,0.000,-0.926,0.377,0.000,-45.656,0.016,1.023,-0.297,0.000,-0.632,0.775,0.000,57.303,0.016,0.944,-0.681,0.000,-0.604,0.797,0.000,-85.944,0.109,0.944,-0.681,-0.563,-0.427,0.564,0.427,-89.954,0.109,0.918,-0.772,-0.563,-0.427,0.564,0.427,0.000,0.109,0.839,-0.750,-0.700,0.096,0.701,-0.097,False,0.500,0.644,-0.500,0.000,0.000,0.000,1.000,-0.500,0.640,-0.500,0.000,0.000,0.000,1.000
21.320,0.000,0.719,0.000,0.000,-1.000,0.000,0.000,-0.023,0.136,0.719,0.000,0.000,-0.926,0.377,0.000,-45.656,0.016,1.023,-0.297,0.000,-0.632,0.775,0.000,57.303,0.016,0.944,-0.681,0.000,-0.604,0.797,0.000,-85.944,0.109,0.944,-0.681,-0.563,-0.427,0.564,0.427,-89.954,0.109,0.918,-0.772,-0.563,-0.427,0.564,0.427,0.000,0.109,0.839,-0.750,-0.700,0.096,0.701,-0.097,False,0.500,0.644,-0.500,0.000,0.000,0.000,1.000,-0.500,0.640,-0.500,0.000,0.000,0.000,1.000
21.425,0.000,0.719,0.000,0.000,-1.000,0.000,0.000,-0.023,0.136,0.719,0.000,0.000,-0.926,0.377,0.000,-45.656,0.016,1.023,-0.297,0.000,-0.632,0.775,0.000,57.303,0.016,0.944,-0.681,0.000,-0.604,0.797,0.000,-85.944,0.109,0.944,-0.681,-0.563,-0.427,0.564,0.427,-89.954,0.109,0.918,-0.772,-0.563,-0.427,0.564,0.427,0.000,0.109,0.839,-0.750,-0.700,0.096,0.701,-0.097,False,0.500,0.644,-0.500,0.000,0.000,0.000,1.000,-0.500,0.640,-0.500,0.000,0.000,0.000,1.000
21.526,0.000,0.719,0.000,0.000,-1.000,0.000,0.000,-0.023,0.136,0.719,0.000,0.000,-0.926,0.377,0.000,-45.656,0.016,1.023,-0.297,0.000,-0.632,0.775,0.000,57.303,0.016,0.944,-0.681,0.000,-0.604,0.797,0.000,-85.944,0.109,0.944,-0.681,-0.563,-0.427,0.564,0.427,-89.954,0.109,0.918,-0.772,-0.563,-0.427,0.564,0.427,0.000,0.109,0.839,-0.750,-0.700,0.096,0.701,-0.097,False,0.500,0.644,-0.500,0.000,0.000,0.000,1.000,-0.500,0.640,-0.500,0.000,0.000,0.000,1.000
21.627,0.000,0.719,0.000,0.000,-1.000,0.000,0.000,-0.023,0.136,0.719,0.000,0.000,-0.926,0.377,0.000,-45.656,0.016,1.023,-0.297,0.000,-0.632,0.775,0.000,57.303,0.016,0.944,-0.681,0.000,-0.604,0.797,0.000,-85.944,0.109,0.944,-0.681,-0.563,-0.427,0.564,0.427,-89.954,0.109,0.918,-0.772,-0.563,-0.427,0.564,0.427,0.000,0.109,0.839,-0.750,-0.700,0.096,0.701,-0.097,False,0.500,0.644,-0.500,0.000,0.000,0.000,1.000,-0.500,0.640,-0.500,0.000,0.000,0.000,1.000
21.728,0.000,0.719,0.000,0.000,-1.000,0.000,0.000,-0.023,0.136,0.719,0.000,0.000,-0.926,0.377,0.000,-45.656,0.016,1.023,-0.297,0.000,-0.632,0.775,0.000,57.303,0.016,0.944,-0.681,0.000,-0.604,0.797,0.000,-85.944,0.109,0.944,-0.681,-0.563,-0.427,0.564,0.427,-89.954,0.109,0.918,-0.772,-0.563,-0.427,0.564,0.427,0.000,0.109,0.839,-0.750,-0.700,0.096,0.701,-0.097,False,0.500,0.644,-0.500,0.000,0.000,0.000,1.000,-0.500,0.640,-0.500,0.000,0.000,0.000,1.000
21.829,0.000,0.719,0.000,0.000,-1.000,0.000,0.000,-0.023,0.136,0.719,0.000,0.000,-0.926,0.377,0.000,-45.656,0.016,1.023,-0.297,0.000,-0.632,0.775,0.000,57.303,0.016,0.944,-0.681,0.000,-0.604,0.797,0.000,-85.944,0.109,0.944,-0.681,-0.563,-0.427,0.564,0.427,-89.954,0.109,0.918,-0.772,-0.563,-0.427,0.564,0.427,0.000,0.109,0.839,-0.750,-0.700,0.096,0.701,-0.097,False,0.500,0.644,-0.500,0.000,0.000,0.000,1.000,-0.500,0.640,-0.500,0.000,0.000,0.000,1.000
21.932,0.000,0.719,0.000,0.000,-1.000,0.000,0.000,-0.023,0.136,0.719,0.000,0.000,-0.926,0.377,0.000,-45.656,0.016,1.023,-0.297,0.000,-0.632,0.775,0.000,57.303,0.016,0.944,-0.681,0.000,-0.604,0.797,0.000,-85.944,0.109,0.944,-0.681,-0.563,-0.427,0.564,0.427,-89.954,0.109,0.918,-0.772,-0.563,-0.427,0.564,0.427,0.000,0.109,0.839,-0.750,-0.700,0.096,0.701,-0.097,False,0.500,0.644,-0.500,0.000,0.000,0.000,1.000,-0.500,0.640,-0.500,0.000,0.000,0.000,1.000
22.033,0.000,0.719,0.000,0.000,-1.000,0.000,0.000,-0.023,0.136,0.719,0.000,0.000,-0.926,0.377,0.000,-45.656,0.016,1.023,-0.297,0.000,-0.632,0.775,0.000,57.303,0.016,0.944,-0.681,0.000,-0.604,0.797,0.000,-85.944,0.109,0.944,-0.681,-0.563,-0.427,0.564,0.427,-89.954,0.109,0.918,-0.772,-0.563,-0.427,0.564,0.427,0.000,0.109,0.839,-0.750,-0.700,0.096,0.701,-0.097,False,0.500,0.644,-0.500,0.000,0.000,0.000,1.000,-0.500,0.640,-0.500,0.000,0.000,0.000,1.000
22.133,0.000,0.719,0.000,0.000,-1.000,0.000,0.000,-0.023,0.136,0.719,0.000,0.000,-0.926,0.377,0.000,-45.656,0.016,1.023,-0.297,0.000,-0.632,0.775,0.000,57.303,0.016,0.944,-0.681,0.000,-0.604,0.797,0.000,-85.944,0.109,0.944,-0.681,-0.563,-0.427,0.564,0.427,-89.954,0.109,0.918,-0.772,-0.563,-0.427,0.564,0.427,0.000,0.109,0.839,-0.750,-0.700,0.096,0.701,-0.097,False,0.500,0.644,-0.500,0.000,0.000,0.000,1.000,-0.500,0.640,-0.500,0.000,0.000,0.000,1.000
22.233,0.000,0.719,0.000,0.000,-1.000,0.000,0.000,-0.023,0.136,0.719,0.000,0.000,-0.926,0.377,0.000,-45.656,0.016,1.023,-0.297,0.000,-0.632,0.775,0.000,57.303,0.016,0.944,-0.681,0.000,-0.604,0.797,0.000,-85.944,0.109,0.944,-0.681,-0.563,-0.427,0.564,0.427,-89.954,0.109,0.918,-0.772,-0.563,-0.427,0.564,0.427,0.000,0.109,0.839,-0.750,-0.700,0.096,0.701,-0.097,False,0.500,0.644,-0.500,0.000,0.000,0.000,1.000,-0.500,0.640,-0.500,0.000,0.000,0.000,1.000
22.336,0.000,0.719,0.000,0.000,-1.000,0.000,0.000,-0.023,0.136,0.719,0.000,0.000,-0.926,0.377,0.000,-45.656,0.016,1.023,-0.297,0.000,-0.632,0.775,0.000,57.303,0.016,0.944,-0.681,0.000,-0.604,0.797,0.000,-85.944,0.109,0.944,-0.681,-0.563,-0.427,0.564,0.427,-89.954,0.109,0.918,-0.772,-0.563,-0.427,0.564,0.427,0.000,0.109,0.839,-0.750,-0.700,0.096,0.701,-0.097,False,0.500,0.644,-0.500,0.000,0.000,0.000,1.000,-0.500,0.640,-0.500,0.000,0.000,0.000,1.000
22.437,0.000,0.719,0.000,0.000,-1.000,0.000,0.000,-0.023,0.136,0.719,0.000,0.000,-0.926,0.377,0.000,-45.656,0.016,1.023,-0.297,0.000,-0.632,0.775,0.000,57.303,0.016,0.944,-0.681,0.000,-0.604,0.797,0.000,-85.944,0.109,0.944,-0.681,-0.563,-0.427,0.564,0.427,-89.954,0.109,0.918,-0.772,-0.563,-0.427,0.564,0.427,0.000,0.109,0.839,-0.750,-0.700,0.096,0.701,-0.097,False,0.500,0.644,-0.500,0.000,0.000,0.000,1.000,-0.500,0.640,-0.500,0.000,0.000,0.000,1.000
22.539,0.000,0.719,0.000,0.000,-1.000,0.000,0.000,-0.023,0.136,0.719,0.000,0.000,-0.926,0.377,0.000,-45.656,0.016,1.023,-0.297,0.000,-0.632,0.775,0.000,57.303,0.016,0.944,-0.681,0.000,-0.604,0.797,0.000,-85.944,0.109,0.944,-0.681,-0.563,-0.427,0.564,0.427,-89.954,0.109,0.918,-0.772,-0.563,-0.427,0.564,0.427,0.000,0.109,0.839,-0.750,-0.700,0.096,0.701,-0.097,False,0.500,0.644,-0.500,0.000,0.000,0.000,1.000,-0.500,0.640,-0.500,0.000,0.000,0.000,1.000
