kendriklim/UROP-VLM-Robotics/ur5_simulation/AgenticAIPaths/ur5_left.csv
Timestamp,base_PosX,base_PosY,base_PosZ,base_RotX,base_RotY,base_RotZ,base_RotW,base_jointAngle,shoulder_PosX,shoulder_PosY,shoulder_PosZ,shoulder_RotX,shoulder_RotY,shoulder_RotZ,shoulder_RotW,shoulder_jointAngle,elbow_PosX,elbow_PosY,elbow_PosZ,elbow_RotX,elbow_RotY,elbow_RotZ,elbow_RotW,elbow_jointAngle,wrist1_PosX,wrist1_PosY,wrist1_PosZ,wrist1_RotX,wrist1_RotY,wrist1_RotZ,wrist1_RotW,wrist1_jointAngle,wrist2_PosX,wrist2_PosY,wrist2_PosZ,wrist2_RotX,wrist2_RotY,wrist2_RotZ,wrist2_RotW,wrist2_jointAngle,wrist3_PosX,wrist3_PosY,wrist3_PosZ,wrist3_RotX,wrist3_RotY,wrist3_RotZ,wrist3_RotW,wrist3_jointAngle,ee_PosX,ee_PosY,ee_PosZ,ee_RotX,ee_RotY,ee_RotZ,ee_RotW,suctionOn,blockAttracted
0.000,0.275,0.958,0.120,0.000,-0.706,0.000,-0.708,0.203,0.275,0.958,0.256,-0.371,-0.602,0.369,-0.604,-26.897,0.654,1.150,0.137,-0.592,-0.388,0.590,-0.389,50.265,1.014,0.995,0.139,-0.638,-0.307,0.636,-0.308,-74.877,1.014,0.995,0.232,-0.890,-0.429,0.137,-0.068,-72.287,1.088,0.936,0.232,-0.890,-0.430,0.135,-0.071,-0.469,1.039,0.875,0.257,-0.933,0.325,0.045,-0.146,False,False
0.109,0.275,0.958,0.120,0.000,-0.707,0.000,-0.708,0.071,0.275,0.958,0.256,-0.275,-0.651,0.275,-0.652,-44.234,0.579,1.255,0.137,-0.554,-0.440,0.553,-0.440,57.249,0.962,1.166,0.137,-0.569,-0.420,0.568,-0.420,-85.918,0.962,1.166,0.230,-0.804,-0.594,0.000,-0.001,-89.881,1.052,1.138,0.230,-0.804,-0.594,0.000,-0.001,0.000,1.028,1.060,0.230,-0.989,0.149,0.000,-0.001,False,False
0.246,0.275,0.958,0.120,0.000,-0.707,0.000,-0.707,0.006,0.275,0.958,0.256,-0.267,-0.655,0.267,-0.655,-45.567,0.573,1.262,0.136,-0.549,-0.446,0.548,-0.446,57.302,0.957,1.182,0.136,-0.564,-0.427,0.564,-0.427,-85.944,0.957,1.182,0.229,-0.798,-0.603,0.000,0.000,-89.954,1.048,1.156,0.229,-0.798,-0.603,0.000,0.000,0.000,1.025,1.077,0.229,-0.991,0.137,0.000,0.000,False,False
0.353,0.275,0.958,0.120,0.000,-0.707,0.000,-0.707,-0.013,0.275,0.958,0.256,-0.267,-0.655,0.267,-0.655,-45.642,0.572,1.262,0.136,-0.548,-0.447,0.548,-0.447,57.303,0.956,1.183,0.136,-0.564,-0.427,0.564,-0.427,-85.944,0.956,1.183,0.229,-0.797,-0.604,0.000,0.000,-89.954,1.047,1.157,0.229,-0.797,-0.604,0.000,0.000,0.000,1.025,1.078,0.229,-0.991,0.137,0.000,0.000,False,False
0.455,0.275,0.958,0.120,0.000,-0.707,0.000,-0.707,-0.019,0.275,0.958,0.256,-0.267,-0.655,0.267,-0.655,-45.653,0.572,1.262,0.136,-0.548,-0.447,0.548,-0.447,57.303,0.956,1.183,0.136,-0.564,-0.427,0.564,-0.427,-85.944,0.956,1.183,0.229,-0.797,-0.604,0.000,0.000,-89.954,1.047,1.157,0.229,-0.797,-0.604,0.000,0.000,0.000,1.025,1.078,0.229,-0.991,0.137,0.000,0.000,False,False
0.557,0.275,0.958,0.120,0.000,-0.707,0.000,-0.707,-0.022,0.275,0.958,0.256,-0.267,-0.655,0.267,-0.655,-45.655,0.572,1.262,0.136,-0.548,-0.447,0.548,-0.447,57.303,0.956,1.183,0.136,-0.564,-0.427,0.564,-0.427,-85.944,0.956,1.183,0.229,-0.797,-0.604,0.000,0.000,-89.954,1.047,1.157,0.229,-0.797,-0.604,0.000,0.000,0.000,1.025,1.078,0.229,-0.991,0.137,0.000,0.000,False,False
0.661,0.275,0.958,0.120,0.000,-0.707,0.000,-0.707,-0.023,0.275,0.958,0.256,-0.267,-0.655,0.267,-0.655,-45.656,0.572,1.262,0.136,-0.548,-0.447,0.548,-0.447,57.303,0.956,1.183,0.136,-0.564,-0.427,0.564,-0.427,-85.944,0.956,1.183,0.229,-0.797,-0.604,0.000,0.000,-89.954,1.047,1.157,0.229,-0.797,-0.604,0.000,0.000,0.000,1.025,1.078,0.229,-0.991,0.137,0.000,0.000,False,False
0.762,0.275,0.958,0.120,0.000,-0.707,0.000,-0.707,-0.023,0.275,0.958,0.256,-0.267,-0.655,0.267,-0.655,-45.656,0.572,1.262,0.136,-0.548,-0.447,0.548,-0.447,57.303,0.956,1.183,0.136,-0.564,-0.427,0.564,-0.427,-85.944,0.956,1.183,0.229,-0.797,-0.604,0.000,0.000,-89.954,1.047,1.157,0.229,-0.797,-0.604,0.000,0.000,0.000,1.025,1.078,0.229,-0.991,0.137,0.000,0.000,False,False
0.863,0.275,0.958,0.120,0.000,-0.707,0.000,-0.707,-0.023,0.275,0.958,0.256,-0.267,-0.655,0.267,-0.655,-45.656,0.572,1.262,0.136,-0.548,-0.447,0.548,-0.447,57.303,0.956,1.183,0.136,-0.564,-0.427,0.564,-0.427,-85.944,0.956,1.183,0.229,-0.797,-0.604,0.000,0.000,-89.954,1.047,1.157,0.229,-0.797,-0.604,0.000,0.000,0.000,1.025,1.078,0.229,-0.991,0.137,0.000,0.000,False,False
0.966,0.275,0.958,0.120,0.000,-0.707,0.000,-0.707,-0.023,0.275,0.958,0.256,-0.267,-0.655,0.267,-0.655,-45.656,0.572,1.262,0.136,-0.548,-0.447,0.548,-0.447,57.303,0.956,1.183,0.136,-0.564,-0.427,0.564,-0.427,-85.944,0.956,1.183,0.229,-0.797,-0.604,0.000,0.000,-89.954,1.047,1.157,0.229,-0.797,-0.604,0.000,0.000,0.000,1.025,1.078,0.229,-0.991,0.137,0.000,0.000,False,False
1.068,0.275,0.958,0.120,0.000,-0.707,0.000,-0.707,-0.023,0.275,0.958,0.256,-0.267,-0.655,0.267,-0.655,-45.656,0.572,1.262,0.136,-0.548,-0.447,0.548,-0.447,57.303,0.956,1.183,0.136,-0.564,-0.427,0.564,-0.427,-85.944,0.956,1.183,0.229,-0.797,-0.604,0.000,0.000,-89.954,1.047,1.157,0.229,-0.797,-0.604,0.000,0.000,0.000,1.025,1.078,0.229,-0.991,0.137,0.000,0.000,False,False
1.171,0.275,0.958,0.120,0.000,-0.707,0.000,-0.707,-0.023,0.275,0.958,0.256,-0.267,-0.655,0.267,-0.655,-45.656,0.572,1.262,0.136,-0.548,-0.447,0.548,-0.447,57.303,0.956,1.183,0.136,-0.564,-0.427,0.564,-0.427,-85.944,0.956,1.183,0.229,-0.797,-0.604,0.000,0.000,-89.954,1.047,1.157,0.229,-0.797,-0.604,0.000,0.000,0.000,1.025,1.078,0.229,-0.991,0.137,0.000,0.000,False,False
1.275,0.275,0.958,0.120,0.000,-0.707,0.000,-0.707,-0.023,0.275,0.958,0.256,-0.267,-0.655,0.267,-0.655,-45.656,0.572,1.262,0.136,-0.548,-0.447,0.548,-0.447,57.303,0.956,1.183,0.136,-0.564,-0.427,0.564,-0.427,-85.944,0.956,1.183,0.229,-0.797,-0.604,0.000,0.000,-89.954,1.047,1.157,0.229,-0.797,-0.604,0.000,0.000,0.000,1.025,1.078,0.229,-0.991,0.137,0.000,0.000,False,False
1.382,0.275,0.958,0.120,0.000,-0.707,0.000,-0.707,-0.023,0.275,0.958,0.256,-0.267,-0.655,0.267,-0.655,-45.656,0.572,1.262,0.136,-0.548,-0.447,0.548,-0.447,57.303,0.956,1.183,0.136,-0.564,-0.427,0.564,-0.427,-85.944,0.956,1.183,0.229,-0.797,-0.604,0.000,0.000,-89.954,1.047,1.157,0.229,-0.797,-0.604,0.000,0.000,0.000,1.025,1.078,0.229,-0.991,0.137,0.000,0.000,False,False
1.486,0.275,0.958,0.120,0.000,-0.707,0.000,-0.707,-0.023,0.275,0.958,0.256,-0.267,-0.655,0.267,-0.655,-45.656,0.572,1.262,0.136,-0.548,-0.447,0.548,-0.447,57.303,0.956,1.183,0.136,-0.564,-0.427,0.564,-0.427,-85.944,0.956,1.183,0.229,-0.797,-0.604,0.000,0.000,-89.954,1.047,1.157,0.229,-0.797,-0.604,0.000,0.000,0.000,1.025,1.078,0.229,-0.991,0.137,0.000,0.000,False,False
1.588,0.275,0.958,0.120,0.000,-0.707,0.000,-0.707,-0.023,0.275,0.958,0.256,-0.267,-0.655,0.267,-0.655,-45.656,0.572,1.262,0.136,-0.548,-0.447,0.548,-0.447,57.303,0.956,1.183,0.136,-0.564,-0.427,0.564,-0.427,-85.944,0.956,1.183,0.229,-0.797,-0.604,0.000,0.000,-89.954,1.047,1.157,0.229,-0.797,-0.604,0.000,0.000,0.000,1.025,1.078,0.229,-0.991,0.137,0.000,0.000,False,False
1.690,0.275,0.958,0.120,0.000,-0.707,0.000,-0.707,-0.023,0.275,0.958,0.256,-0.267,-0.655,0.267,-0.655,-45.656,0.572,1.262,0.136,-0.548,-0.447,0.548,-0.447,57.303,0.956,1.183,0.136,-0.564,-0.427,0.564,-0.427,-85.944,0.956,1.183,0.229,-0.797,-0.604,0.000,0.000,-89.954,1.047,1.157,0.229,-0.797,-0.604,0.000,0.000,0.000,1.025,1.078,0.229,-0.991,0.137,0.000,0.000,False,False
1.791,0.275,0.958,0.120,0.000,-0.707,0.000,-0.707,-0.023,0.275,0.958,0.256,-0.267,-0.655,0.267,-0.655,-45.656,0.572,1.262,0.136,-0.548,-0.447,0.548,-0.447,57.303,0.956,1.183,0.136,-0.564,-0.427,0.564,-0.427,-85.944,0.956,1.183,0.229,-0.797,-0.604,0.000,0.000,-89.954,1.047,1.157,0.229,-0.797,-0.604,0.000,0.000,0.000,1.025,1.078,0.229,-0.991,0.137,0.000,0.000,False,False
1.895,0.275,0.958,0.120,0.000,-0.707,0.000,-0.707,-0.023,0.275,0.958,0.256,-0.267,-0.655,0.267,-0.655,-45.656,0.572,1.262,0.136,-0.548,-0.447,0.548,-0.447,57.303,0.956,1.183,0.136,-0.564,-0.427,0.564,-0.427,-85.944,0.956,1.183,0.229,-0.797,-0.604,0.000,0.000,-89.954,1.047,1.157,0.229,-0.797,-0.604,0.000,0.000,0.000,1.025,1.078,0.229,-0.991,0.137,0.000,0.000,False,False
2.000,0.275,0.958,0.120,0.000,-0.707,0.000,-0.707,-0.023,0.275,0.958,0.256,-0.267,-0.655,0.267,-0.655,-45.656,0.572,1.262,0.136,-0.548,-0.447,0.548,-0.447,57.303,0.956,1.183,0.136,-0.564,-0.427,0.564,-0.427,-85.944,0.956,1.183,0.229,-0.797,-0.604,0.000,0.000,-89.954,1.047,1.157,0.229,-0.797,-0.604,0.000,0.000,0.000,1.025,1.078,0.229,-0.991,0.137,0.000,0.000,False,False
2.101,0.275,0.958,0.120,0.000,-0.707,0.000,-0.707,-0.023,0.275,0.958,0.256,-0.267,-0.655,0.267,-0.655,-45.656,0.572,1.262,0.136,-0.548,-0.447,0.548,-0.447,57.303,0.956,1.183,0.136,-0.564,-0.427,0.564,-0.427,-85.944,0.956,1.183,0.229,-0.797,-0.604,0.000,0.000,-89.954,1.047,1.157,0.229,-0.797,-0.604,0.000,0.000,0.000,1.025,1.078,0.229,-0.991,0.137,0.000,0.000,False,False
2.202,0.275,0.958,0.120,0.000,-0.707,0.000,-0.707,-0.023,0.275,0.958,0.256,-0.267,-0.655,0.267,-0.655,-45.656,0.572,1.262,0.136,-0.548,-0.447,0.548,-0.447,57.303,0.956,1.183,0.136,-0.564,-0.427,0.564,-0.427,-85.944,0.956,1.183,0.229,-0.797,-0.604,0.000,0.000,-89.954,1.047,1.157,0.229,-0.797,-0.604,0.000,0.000,0.000,1.025,1.078,0.229,-0.991,0.137,0.000,0.000,False,False
2.302,0.275,0.958,0.120,0.000,-0.707,0.000,-0.707,-0.023,0.275,0.958,0.256,-0.267,-0.655,0.267,-0.655,-45.656,0.572,1.262,0.136,-0.548,-0.447,0.548,-0.447,57.303,0.956,1.183,0.136,-0.564,-0.427,0.564,-0.427,-85.944,0.956,1.183,0.229,-0.797,-0.604,0.000,0.000,-89.954,1.047,1.157,0.229,-0.797,-0.604,0.000,0.000,0.000,1.025,1.078,0.229,-0.991,0.137,0.000,0.000,False,False
2.404,0.275,0.958,0.120,0.000,-0.707,0.000,-0.707,-0.023,0.275,0.958,0.256,-0.267,-0.655,0.267,-0.655,-45.656,0.572,1.262,0.136,-0.548,-0.447,0.548,-0.447,57.303,0.956,1.183,0.136,-0.564,-0.427,0.564,-0.427,-85.944,0.956,1.183,0.229,-0.797,-0.604,0.000,0.000,-89.954,1.047,1.157,0.229,-0.797,-0.604,0.000,0.000,0.000,1.025,1.078,0.229,-0.991,0.137,0.000,0.000,False,False
2.506,0.275,0.958,0.120,0.000,-0.707,0.000,-0.707,-0.023,0.275,0.958,0.256,-0.267,-0.655,0.267,-0.655,-45.656,0.572,1.262,0.136,-0.548,-0.447,0.548,-0.447,57.303,0.956,1.183,0.136,-0.564,-0.427,0.564,-0.427,-85.944,0.956,1.183,0.229,-0.797,-0.604,0.000,0.000,-89.954,1.047,1.157,0.229,-0.797,-0.604,0.000,0.000,0.000,1.025,1.078,0.229,-0.991,0.137,0.000,0.000,False,False
2.609,0.275,0.958,0.120,0.000,-0.707,0.000,-0.707,-0.023,0.275,0.958,0.256,-0.267,-0.655,0.267,-0.655,-45.656,0.572,1.262,0.136,-0.548,-0.447,0.548,-0.447,57.303,0.956,1.183,0.136,-0.564,-0.427,0.564,-0.427,-85.944,0.956,1.183,0.229,-0.797,-0.604,0.000,0.000,-89.954,1.047,1.157,0.229,-0.797,-0.604,0.000,0.000,0.000,1.025,1.078,0.229,-0.991,0.137,0.000,0.000,False,False
2.711,0.275,0.958,0.120,0.000,-0.707,0.000,-0.707,-0.023,0.275,0.958,0.256,-0.267,-0.655,0.267,-0.655,-45.656,0.572,1.262,0.136,-0.548,-0.447,0.548,-0.447,57.303,0.956,1.183,0.136,-0.564,-0.427,0.564,-0.427,-85.944,0.956,1.183,0.229,-0.797,-0.604,0.000,0.000,-89.954,1.047,1.157,0.229,-0.797,-0.604,0.000,0.000,0.000,1.025,1.078,0.229,-0.991,0.137,0.000,0.000,False,False
2.812,0.275,0.958,0.120,0.000,-0.707,0.000,-0.707,-0.023,0.275,0.958,0.256,-0.267,-0.655,0.267,-0.655,-45.656,0.572,1.262,0.136,-0.548,-0.447,0.548,-0.447,57.303,0.956,1.183,0.136,-0.564,-0.427,0.564,-0.427,-85.944,0.956,1.183,0.229,-0.797,-0.604,0.000,0.000,-89.954,1.047,1.157,0.229,-0.797,-0.604,0.000,0.000,0.000,1.025,1.078,0.229,-0.991,0.137,0.000,0.000,False,False
2.914,0.275,0.958,0.120,0.000,-0.707,0.000,-0.707,-0.023,0.275,0.958,0.256,-0.267,-0.655,0.267,-0.655,-45.656,0.572,1.262,0.136,-0.548,-0.447,0.548,-0.447,57.303,0.956,1.183,0.136,-0.564,-0.427,0.564,-0.427,-85.944,0.956,1.183,0.229,-0.797,-0.604,0.000,0.000,-89.954,1.047,1.157,0.229,-0.797,-0.604,0.000,0.000,0.000,1.025,1.078,0.229,-0.991,0.137,0.000,0.000,False,False
3.016,0.275,0.958,0.120,0.000,-0.707,0.000,-0.707,-0.023,0.275,0.958,0.256,-0.267,-0.655,0.267,-0.655,-45.656,0.572,1.262,0.136,-0.548,-0.447,0.548,-0.447,57.303,0.956,1.183,0.136,-0.564,-0.427,0.564,-0.427,-85.944,0.956,1.183,0.229,-0.797,-0.604,0.000,0.000,-89.954,1.047,1.157,0.229,-0.797,-0.604,0.000,0.000,0.000,1.025,1.078,0.229,-0.991,0.137,0.000,0.000,False,False
3.116,0.275,0.958,0.120,0.000,-0.707,0.000,-0.707,-0.023,0.275,0.958,0.256,-0.267,-0.655,0.267,-0.655,-45.656,0.572,1.262,0.136,-0.548,-0.447,0.548,-0.447,57.303,0.956,1.183,0.136,-0.564,-0.427,0.564,-0.427,-85.944,0.956,1.183,0.229,-0.797,-0.604,0.000,0.000,-89.954,1.047,1.157,0.229,-0.797,-0.604,0.000,0.000,0.000,1.025,1.078,0.229,-0.991,0.137,0.000,0.000,False,False
3.217,0.275,0.958,0.120,0.000,-0.707,0.000,-0.707,-0.023,0.275,0.958,0.256,-0.267,-0.655,0.267,-0.655,-45.656,0.572,1.262,0.136,-0.548,-0.447,0.548,-0.447,57.303,0.956,1.183,0.136,-0.564,-0.427,0.564,-0.427,-85.944,0.956,1.183,0.229,-0.797,-0.604,0.000,0.000,-89.954,1.047,1.157,0.229,-0.797,-0.604,0.000,0.000,0.000,1.025,1.078,0.229,-0.991,0.137,0.000,0.000,False,False
3.325,0.275,0.958,0.120,0.000,-0.707,0.000,-0.707,-0.023,0.275,0.958,0.256,-0.267,-0.655,0.267,-0.655,-45.656,0.572,1.262,0.136,-0.548,-0.447,0.548,-0.447,57.303,0.956,1.183,0.136,-0.564,-0.427,0.564,-0.427,-85.944,0.956,1.183,0.229,-0.797,-0.604,0.000,0.000,-89.954,1.047,1.157,0.229,-0.797,-0.604,0.000,0.000,0.000,1.025,1.078,0.229,-0.991,0.137,0.000,0.000,False,False
3.426,0.275,0.958,0.120,0.000,-0.707,0.000,-0.707,-0.023,0.275,0.958,0.256,-0.267,-0.655,0.267,-0.655,-45.656,0.572,1.262,0.136,-0.548,-0.447,0.548,-0.447,57.303,0.956,1.183,0.136,-0.564,-0.427,0.564,-0.427,-85.944,0.956,1.183,0.229,-0.797,-0.604,0.000,0.000,-89.954,1.047,1.157,0.229,-0.797,-0.604,0.000,0.000,0.000,1.025,1.078,0.229,-0.991,0.137,0.000,0.000,False,False
3.530,0.275,0.958,0.120,0.000,-0.707,0.000,-0.707,-0.023,0.275,0.958,0.256,-0.267,-0.655,0.267,-0.655,-45.656,0.572,1.262,0.136,-0.548,-0.447,0.548,-0.447,57.303,0.956,1.183,0.136,-0.564,-0.427,0.564,-0.427,-85.944,0.956,1.183,0.229,-0.797,-0.604,0.000,0.000,-89.954,1.047,1.157,0.229,-0.797,-0.604,0.000,0.000,0.000,1.025,1.078,0.229,-0.991,0.137,0.000,0.000,False,False
3.632,0.275,0.958,0.120,0.000,-0.707,0.000,-0.707,-0.023,0.275,0.958,0.256,-0.267,-0.655,0.267,-0.655,-45.656,0.572,1.262,0.136,-0.548,-0.447,0.548,-0.447,57.303,0.956,1.183,0.136,-0.564,-0.427,0.564,-0.427,-85.944,0.956,1.183,0.229,-0.797,-0.604,0.000,0.000,-89.954,1.047,1.157,0.229,-0.797,-0.604,0.000,0.000,0.000,1.025,1.078,0.229,-0.991,0.137,0.000,0.000,False,False
3.733,0.275,0.958,0.120,0.000,-0.707,0.000,-0.707,-0.023,0.275,0.958,0.256,-0.267,-0.655,0.267,-0.655,-45.656,0.572,1.262,0.136,-0.548,-0.447,0.548,-0.447,57.303,0.956,1.183,0.136,-0.564,-0.427,0.564,-0.427,-85.944,0.956,1.183,0.229,-0.797,-0.604,0.000,0.000,-89.954,1.047,1.157,0.229,-0.797,-0.604,0.000,0.000,0.000,1.025,1.078,0.229,-0.991,0.137,0.000,0.000,False,False
3.836,0.275,0.958,0.120,0.000,-0.707,0.000,-0.707,-0.023,0.275,0.958,0.256,-0.267,-0.655,0.267,-0.655,-45.656,0.572,1.262,0.136,-0.548,-0.447,0.548,-0.447,57.303,0.956,1.183,0.136,-0.564,-0.427,0.564,-0.427,-85.944,0.956,1.183,0.229,-0.797,-0.604,0.000,0.000,-89.954,1.047,1.157,0.229,-0.797,-0.604,0.000,0.000,0.000,1.025,1.078,0.229,-0.991,0.137,0.000,0.000,False,False
3.937,0.275,0.958,0.120,0.000,-0.707,0.000,-0.707,-0.023,0.275,0.958,0.256,-0.267,-0.655,0.267,-0.655,-45.656,0.572,1.262,0.136,-0.548,-0.447,0.548,-0.447,57.303,0.956,1.183,0.136,-0.564,-0.427,0.564,-0.427,-85.944,0.956,1.183,0.229,-0.797,-0.604,0.000,0.000,-89.954,1.047,1.157,0.229,-0.797,-0.604,0.000,0.000,0.000,1.025,1.078,0.229,-0.991,0.137,0.000,0.000,False,False
4.037,0.275,0.958,0.120,0.000,-0.707,0.000,-0.707,-0.023,0.275,0.958,0.256,-0.267,-0.655,0.267,-0.655,-45.656,0.572,1.262,0.136,-0.548,-0.447,0.548,-0.447,57.303,0.956,1.183,0.136,-0.564,-0.427,0.564,-0.427,-85.944,0.956,1.183,0.229,-0.797,-0.604,0.000,0.000,-89.954,1.047,1.157,0.229,-0.797,-0.604,0.000,0.000,0.000,1.025,1.078,0.229,-0.991,0.137,0.000,0.000,False,False
4.139,0.275,0.958,0.120,0.000,-0.707,0.000,-0.707,-0.023,0.275,0.958,0.256,-0.267,-0.655,0.267,-0.655,-45.656,0.572,1.262,0.136,-0.548,-0.447,0.548,-0.447,57.303,0.956,1.183,0.136,-0.564,-0.427,0.564,-0.427,-85.944,0.956,1.183,0.229,-0.797,-0.604,0.000,0.000,-89.954,1.047,1.157,0.229,-0.797,-0.604,0.000,0.000,0.000,1.025,1.078,0.229,-0.991,0.137,0.000,0.000,False,False
4.241,0.275,0.958,0.120,0.000,-0.707,0.000,-0.707,-0.023,0.275,0.958,0.256,-0.267,-0.655,0.267,-0.655,-45.656,0.572,1.262,0.136,-0.548,-0.447,0.548,-0.447,57.303,0.956,1.183,0.136,-0.564,-0.427,0.564,-0.427,-85.944,0.956,1.183,0.229,-0.797,-0.604,0.000,0.000,-89.954,1.047,1.157,0.229,-0.797,-0.604,0.000,0.000,0.000,1.025,1.078,0.229,-0.991,0.137,0.000,0.000,False,False
4.343,0.275,0.958,0.120,0.000,-0.707,0.000,-0.707,-0.023,0.275,0.958,0.256,-0.267,-0.655,0.267,-0.655,-45.656,0.572,1.262,0.136,-0.548,-0.447,0.548,-0.447,57.303,0.956,1.183,0.136,-0.564,-0.427,0.564,-0.427,-85.944,0.956,1.183,0.229,-0.797,-0.604,0.000,0.000,-89.954,1.047,1.157,0.229,-0.797,-0.604,0.000,0.000,0.000,1.025,1.078,0.229,-0.991,0.137,0.000,0.000,False,False
4.444,0.275,0.958,0.120,0.000,-0.707,0.000,-0.707,-0.023,0.275,0.958,0.256,-0.267,-0.655,0.267,-0.655,-45.656,0.572,1.262,0.136,-0.548,-0.447,0.548,-0.447,57.303,0.956,1.183,0.136,-0.564,-0.427,0.564,-0.427,-85.944,0.956,1.183,0.229,-0.797,-0.604,0.000,0.000,-89.954,1.047,1.157,0.229,-0.797,-0.604,0.000,0.000,0.000,1.025,1.078,0.229,-0.991,0.137,0.000,0.000,False,False
4.545,0.275,0.958,0.120,0.000,-0.707,0.000,-0.707,-0.023,0.275,0.958,0.256,-0.267,-0.655,0.267,-0.655,-45.656,0.572,1.262,0.136,-0.548,-0.447,0.548,-0.447,57.303,0.956,1.183,0.136,-0.564,-0.427,0.564,-0.427,-85.944,0.956,1.183,0.229,-0.797,-0.604,0.000,0.000,-89.954,1.047,1.157,0.229,-0.797,-0.604,0.000,0.000,0.000,1.025,1.078,0.229,-0.991,0.137,0.000,0.000,False,False
4.647,0.275,0.958,0.120,0.000,-0.707,0.000,-0.707,-0.023,0.275,0.958,0.256,-0.267,-0.655,0.267,-0.655,-45.656,0.572,1.262,0.136,-0.548,-0.447,0.548,-0.447,57.303,0.956,1.183,0.136,-0.564,-0.427,0.564,-0.427,-85.944,0.956,1.183,0.229,-0.797,-0.604,0.000,0.000,-89.954,1.047,1.157,0.229,-0.797,-0.604,0.000,0.000,0.000,1.025,1.078,0.229,-0.991,0.137,0.000,0.000,False,False
4.749,0.275,0.958,0.120,0.000,-0.707,0.000,-0.707,-0.023,0.275,0.958,0.256,-0.267,-0.655,0.267,-0.655,-45.656,0.572,1.262,0.136,-0.548,-0.447,0.548,-0.447,57.303,0.956,1.183,0.136,-0.564,-0.427,0.564,-0.427,-85.944,0.956,1.183,0.229,-0.797,-0.604,0.000,0.000,-89.954,1.047,1.157,0.229,-0.797,-0.604,0.000,0.000,0.000,1.025,1.078,0.229,-0.991,0.137,0.000,0.000,False,False
4.850,0.275,0.958,0.120,0.000,-0.707,0.000,-0.707,-0.023,0.275,0.958,0.256,-0.267,-0.655,0.267,-0.655,-45.656,0.572,1.262,0.136,-0.548,-0.447,0.548,-0.447,57.303,0.956,1.183,0.136,-0.564,-0.427,0.564,-0.427,-85.944,0.956,1.183,0.229,-0.797,-0.604,0.000,0.000,-89.954,1.047,1.157,0.229,-0.797,-0.604,0.000,0.000,0.000,1.025,1.078,0.229,-0.991,0.137,0.000,0.000,False,False
4.952,0.275,0.958,0.120,0.000,-0.707,0.000,-0.707,-0.023,0.275,0.958,0.256,-0.267,-0.655,0.267,-0.655,-45.656,0.572,1.262,0.136,-0.548,-0.447,0.548,-0.447,57.303,0.956,1.183,0.136,-0.564,-0.427,0.564,-0.427,-85.944,0.956,1.183,0.229,-0.797,-0.604,0.000,0.000,-89.954,1.047,1.157,0.229,-0.797,-0.604,0.000,0.000,0.000,1.025,1.078,0.229,-0.991,0.137,0.000,0.000,False,False
5.053,0.275,0.958,0.120,0.000,-0.707,0.000,-0.707,-0.023,0.275,0.958,0.256,-0.267,-0.655,0.267,-0.655,-45.656,0.572,1.262,0.136,-0.548,-0.447,0.548,-0.447,57.303,0.956,1.183,0.136,-0.564,-0.427,0.564,-0.427,-85.944,0.956,1.183,0.229,-0.797,-0.604,0.000,0.000,-89.954,1.047,1.157,0.229,-0.797,-0.604,0.000,0.000,0.000,1.025,1.078,0.229,-0.991,0.137,0.000,0.000,False,False
5.154,0.275,0.958,0.120,0.000,-0.707,0.000,-0.707,-0.023,0.275,0.958,0.256,-0.267,-0.655,0.267,-0.655,-45.656,0.572,1.262,0.136,-0.548,-0.447,0.548,-0.447,57.303,0.956,1.183,0.136,-0.564,-0.427,0.564,-0.427,-85.944,0.956,1.183,0.229,-0.797,-0.604,0.000,0.000,-89.954,1.047,1.157,0.229,-0.797,-0.604,0.000,0.000,0.000,1.025,1.078,0.229,-0.991,0.137,0.000,0.000,False,False
5.256,0.275,0.958,0.120,0.000,-0.707,0.000,-0.707,-0.023,0.275,0.958,0.256,-0.267,-0.655,0.267,-0.655,-45.656,0.572,1.262,0.136,-0.548,-0.447,0.548,-0.447,57.303,0.956,1.183,0.136,-0.564,-0.427,0.564,-0.427,-85.944,0.956,1.183,0.229,-0.797,-0.604,0.000,0.000,-89.954,1.047,1.157,0.229,-0.797,-0.604,0.000,0.000,0.000,1.025,1.078,0.229,-0.991,0.137,0.000,0.000,False,False
5.358,0.275,0.958,0.120,0.000,-0.707,0.000,-0.707,-0.023,0.275,0.958,0.256,-0.267,-0.655,0.267,-0.655,-45.656,0.572,1.262,0.136,-0.548,-0.447,0.548,-0.447,57.303,0.956,1.183,0.136,-0.564,-0.427,0.564,-0.427,-85.944,0.956,1.183,0.229,-0.797,-0.604,0.000,0.000,-89.954,1.047,1.157,0.229,-0.797,-0.604,0.000,0.000,0.000,1.025,1.078,0.229,-0.991,0.137,0.000,0.000,False,False
5.461,0.275,0.958,0.120,0.000,-0.707,0.000,-0.707,-0.023,0.275,0.958,0.256,-0.267,-0.655,0.267,-0.655,-45.656,0.572,1.262,0.136,-0.548,-0.447,0.548,-0.447,57.303,0.956,1.183,0.136,-0.564,-0.427,0.564,-0.427,-85.944,0.956,1.183,0.229,-0.797,-0.604,0.000,0.000,-89.954,1.047,1.157,0.229,-0.797,-0.604,0.000,0.000,0.000,1.025,1.078,0.229,-0.991,0.137,0.000,0.000,False,False
5.563,0.275,0.958,0.120,0.000,-0.707,0.000,-0.707,-0.023,0.275,0.958,0.256,-0.267,-0.655,0.267,-0.655,-45.656,0.572,1.262,0.136,-0.548,-0.447,0.548,-0.447,57.303,0.956,1.183,0.136,-0.564,-0.427,0.564,-0.427,-85.944,0.956,1.183,0.229,-0.797,-0.604,0.000,0.000,-89.954,1.047,1.157,0.229,-0.797,-0.604,0.000,0.000,0.000,1.025,1.078,0.229,-0.991,0.137,0.000,0.000,False,False
5.665,0.275,0.958,0.120,0.000,-0.707,0.000,-0.707,-0.023,0.275,0.958,0.256,-0.267,-0.655,0.267,-0.655,-45.656,0.572,1.262,0.136,-0.548,-0.447,0.548,-0.447,57.303,0.956,1.183,0.136,-0.564,-0.427,0.564,-0.427,-85.944,0.956,1.183,0.229,-0.797,-0.604,0.000,0.000,-89.954,1.047,1.157,0.229,-0.797,-0.604,0.000,0.000,0.000,1.025,1.078,0.229,-0.991,0.137,0.000,0.000,False,False
5.768,0.275,0.958,0.120,0.000,-0.707,0.000,-0.707,-0.023,0.275,0.958,0.256,-0.267,-0.655,0.267,-0.655,-45.656,0.572,1.262,0.136,-0.548,-0.447,0.548,-0.447,57.303,0.956,1.183,0.136,-0.564,-0.427,0.564,-0.427,-85.944,0.956,1.183,0.229,-0.797,-0.604,0.000,0.000,-89.954,1.047,1.157,0.229,-0.797,-0.604,0.000,0.000,0.000,1.025,1.078,0.229,-0.991,0.137,0.000,0.000,False,False
5.868,0.275,0.958,0.120,0.000,-0.707,0.000,-0.707,-0.023,0.275,0.958,0.256,-0.267,-0.655,0.267,-0.655,-45.656,0.572,1.262,0.136,-0.548,-0.447,0.548,-0.447,57.303,0.956,1.183,0.136,-0.564,-0.427,0.564,-0.427,-85.944,0.956,1.183,0.229,-0.797,-0.604,0.000,0.000,-89.954,1.047,1.157,0.229,-0.797,-0.604,0.000,0.000,0.000,1.025,1.078,0.229,-0.991,0.137,0.000,0.000,False,False
5.969,0.275,0.958,0.120,0.000,-0.707,0.000,-0.707,-0.023,0.275,0.958,0.256,-0.267,-0.655,0.267,-0.655,-45.656,0.572,1.262,0.136,-0.548,-0.447,0.548,-0.447,57.303,0.956,1.183,0.136,-0.564,-0.427,0.564,-0.427,-85.944,0.956,1.183,0.229,-0.797,-0.604,0.000,0.000,-89.954,1.047,1.157,0.229,-0.797,-0.604,0.000,0.000,0.000,1.025,1.078,0.229,-0.991,0.137,0.000,0.000,False,False
6.070,0.275,0.958,0.120,0.000,-0.707,0.000,-0.707,-0.023,0.275,0.958,0.256,-0.267,-0.655,0.267,-0.655,-45.656,0.572,1.262,0.136,-0.548,-0.447,0.548,-0.447,57.303,0.956,1.183,0.136,-0.564,-0.427,0.564,-0.427,-85.944,0.956,1.183,0.229,-0.797,-0.604,0.000,0.000,-89.954,1.047,1.157,0.229,-0.797,-0.604,0.000,0.000,0.000,1.025,1.078,0.229,-0.991,0.137,0.000,0.000,False,False
6.173,0.275,0.958,0.120,0.000,-0.707,0.000,-0.707,-0.023,0.275,0.958,0.256,-0.267,-0.655,0.267,-0.655,-45.656,0.572,1.262,0.136,-0.548,-0.447,0.548,-0.447,57.303,0.956,1.183,0.136,-0.564,-0.427,0.564,-0.427,-85.944,0.956,1.183,0.229,-0.797,-0.604,0.000,0.000,-89.954,1.047,1.157,0.229,-0.797,-0.604,0.000,0.000,0.000,1.025,1.078,0.229,-0.991,0.137,0.000,0.000,False,False
6.275,0.275,0.958,0.120,0.000,-0.707,0.000,-0.707,-0.023,0.275,0.958,0.256,-0.267,-0.655,0.267,-0.655,-45.656,0.572,1.262,0.136,-0.548,-0.447,0.548,-0.447,57.303,0.956,1.183,0.136,-0.564,-0.427,0.564,-0.427,-85.944,0.956,1.183,0.229,-0.797,-0.604,0.000,0.000,-89.954,1.047,1.157,0.229,-0.797,-0.604,0.000,0.000,0.000,1.025,1.078,0.229,-0.991,0.137,0.000,0.000,False,False
6.376,0.275,0.958,0.120,0.000,-0.707,0.000,-0.707,-0.023,0.275,0.958,0.256,-0.267,-0.655,0.267,-0.655,-45.656,0.572,1.262,0.136,-0.548,-0.447,0.548,-0.447,57.303,0.956,1.183,0.136,-0.564,-0.427,0.564,-0.427,-85.944,0.956,1.183,0.229,-0.797,-0.604,0.000,0.000,-89.954,1.047,1.157,0.229,-0.797,-0.604,0.000,0.000,0.000,1.025,1.078,0.229,-0.991,0.137,0.000,0.000,False,False
6.477,0.275,0.958,0.120,0.000,-0.707,0.000,-0.707,-0.023,0.275,0.958,0.256,-0.267,-0.655,0.267,-0.655,-45.656,0.572,1.262,0.136,-0.548,-0.447,0.548,-0.447,57.303,0.956,1.183,0.136,-0.564,-0.427,0.564,-0.427,-85.944,0.956,1.183,0.229,-0.797,-0.604,0.000,0.000,-89.954,1.047,1.157,0.229,-0.797,-0.604,0.000,0.000,0.000,1.025,1.078,0.229,-0.991,0.137,0.000,0.000,False,False
6.579,0.275,0.958,0.120,0.000,-0.707,0.000,-0.707,-0.023,0.275,0.958,0.256,-0.267,-0.655,0.267,-0.655,-45.656,0.572,1.262,0.136,-0.548,-0.447,0.548,-0.447,57.303,0.956,1.183,0.136,-0.564,-0.427,0.564,-0.427,-85.944,0.956,1.183,0.229,-0.797,-0.604,0.000,0.000,-89.954,1.047,1.157,0.229,-0.797,-0.604,0.000,0.000,0.000,1.025,1.078,0.229,-0.991,0.137,0.000,0.000,False,False
6.680,0.275,0.958,0.120,0.000,-0.707,0.000,-0.707,-0.023,0.275,0.958,0.256,-0.267,-0.655,0.267,-0.655,-45.656,0.572,1.262,0.136,-0.548,-0.447,0.548,-0.447,57.303,0.956,1.183,0.136,-0.564,-0.427,0.564,-0.427,-85.944,0.956,1.183,0.229,-0.797,-0.604,0.000,0.000,-89.954,1.047,1.157,0.229,-0.797,-0.604,0.000,0.000,0.000,1.025,1.078,0.229,-0.991,0.137,0.000,0.000,False,False
6.782,0.275,0.958,0.120,0.000,-0.707,0.000,-0.707,-0.023,0.275,0.958,0.256,-0.267,-0.655,0.267,-0.655,-45.656,0.572,1.262,0.136,-0.548,-0.447,0.548,-0.447,57.303,0.956,1.183,0.136,-0.564,-0.427,0.564,-0.427,-85.944,0.956,1.183,0.229,-0.797,-0.604,0.000,0.000,-89.954,1.047,1.157,0.229,-0.797,-0.604,0.000,0.000,0.000,1.025,1.078,0.229,-0.991,0.137,0.000,0.000,False,False
6.887,0.275,0.958,0.120,0.000,-0.707,0.000,-0.707,-0.023,0.275,0.958,0.256,-0.267,-0.655,0.267,-0.655,-45.656,0.572,1.262,0.136,-0.548,-0.447,0.548,-0.447,57.303,0.956,1.183,0.136,-0.564,-0.427,0.564,-0.427,-85.944,0.956,1.183,0.229,-0.797,-0.604,0.000,0.000,-89.954,1.047,1.157,0.229,-0.797,-0.604,0.000,0.000,0.000,1.025,1.078,0.229,-0.991,0.137,0.000,0.000,False,False
6.990,0.275,0.958,0.120,0.000,-0.707,0.000,-0.707,-0.023,0.275,0.958,0.256,-0.267,-0.655,0.267,-0.655,-45.656,0.572,1.262,0.136,-0.548,-0.447,0.548,-0.447,57.303,0.956,1.183,0.136,-0.564,-0.427,0.564,-0.427,-85.944,0.956,1.183,0.229,-0.797,-0.604,0.000,0.000,-89.954,1.047,1.157,0.229,-0.797,-0.604,0.000,0.000,0.000,1.025,1.078,0.229,-0.991,0.137,0.000,0.000,False,False
7.091,0.275,0.958,0.120,0.000,-0.707,0.000,-0.707,-0.023,0.275,0.958,0.256,-0.267,-0.655,0.267,-0.655,-45.656,0.572,1.262,0.136,-0.548,-0.447,0.548,-0.447,57.303,0.956,1.183,0.136,-0.564,-0.427,0.564,-0.427,-85.944,0.956,1.183,0.229,-0.797,-0.604,0.000,0.000,-89.954,1.047,1.157,0.229,-0.797,-0.604,0.000,0.000,0.000,1.025,1.078,0.229,-0.991,0.137,0.000,0.000,False,False
7.194,0.275,0.958,0.120,0.000,-0.707,0.000,-0.707,-0.023,0.275,0.958,0.256,-0.267,-0.655,0.267,-0.655,-45.656,0.572,1.262,0.136,-0.548,-0.447,0.548,-0.447,57.303,0.956,1.183,0.136,-0.564,-0.427,0.564,-0.427,-85.944,0.956,1.183,0.229,-0.797,-0.604,0.000,0.000,-89.954,1.047,1.157,0.229,-0.797,-0.604,0.000,0.000,0.000,1.025,1.078,0.229,-0.991,0.137,0.000,0.000,False,False
7.295,0.275,0.958,0.120,0.000,-0.707,0.000,-0.707,-0.023,0.275,0.958,0.256,-0.267,-0.655,0.267,-0.655,-45.656,0.572,1.262,0.136,-0.548,-0.447,0.548,-0.447,57.303,0.956,1.183,0.136,-0.564,-0.427,0.564,-0.427,-85.944,0.956,1.183,0.229,-0.797,-0.604,0.000,0.000,-89.954,1.047,1.157,0.229,-0.797,-0.604,0.000,0.000,0.000,1.025,1.078,0.229,-0.991,0.137,0.000,0.000,False,False
7.395,0.275,0.958,0.120,0.000,-0.707,0.000,-0.707,-0.023,0.275,0.958,0.256,-0.267,-0.655,0.267,-0.655,-45.656,0.572,1.262,0.136,-0.548,-0.447,0.548,-0.447,57.303,0.956,1.183,0.136,-0.564,-0.427,0.564,-0.427,-85.944,0.956,1.183,0.229,-0.797,-0.604,0.000,0.000,-89.954,1.047,1.157,0.229,-0.797,-0.604,0.000,0.000,0.000,1.025,1.078,0.229,-0.991,0.137,0.000,0.000,False,False
7.496,0.275,0.958,0.120,0.000,-0.707,0.000,-0.707,-0.023,0.275,0.958,0.256,-0.267,-0.655,0.267,-0.655,-45.656,0.572,1.262,0.136,-0.548,-0.447,0.548,-0.447,57.303,0.956,1.183,0.136,-0.564,-0.427,0.564,-0.427,-85.944,0.956,1.183,0.229,-0.797,-0.604,0.000,0.000,-89.954,1.047,1.157,0.229,-0.797,-0.604,0.000,0.000,0.000,1.025,1.078,0.229,-0.991,0.137,0.000,0.000,False,False
7.598,0.275,0.958,0.120,0.000,-0.707,0.000,-0.707,-0.023,0.275,0.958,0.256,-0.267,-0.655,0.267,-0.655,-45.656,0.572,1.262,0.136,-0.548,-0.447,0.548,-0.447,57.303,0.956,1.183,0.136,-0.564,-0.427,0.564,-0.427,-85.944,0.956,1.183,0.229,-0.797,-0.604,0.000,0.000,-89.954,1.047,1.157,0.229,-0.797,-0.604,0.000,0.000,0.000,1.025,1.078,0.229,-0.991,0.137,0.000,0.000,False,False
7.699,0.275,0.958,0.120,0.000,-0.707,0.000,-0.707,-0.023,0.275,0.958,0.256,-0.267,-0.655,0.267,-0.655,-45.656,0.572,1.262,0.136,-0.548,-0.447,0.548,-0.447,57.303,0.956,1.183,0.136,-0.564,-0.427,0.564,-0.427,-85.944,0.956,1.183,0.229,-0.797,-0.604,0.000,0.000,-89.954,1.047,1.157,0.229,-0.797,-0.604,0.000,0.000,0.000,1.025,1.078,0.229,-0.991,0.137,0.000,0.000,False,False
7.800,0.275,0.958,0.120,0.000,-0.707,0.000,-0.707,-0.023,0.275,0.958,0.256,-0.267,-0.655,0.267,-0.655,-45.656,0.572,1.262,0.136,-0.548,-0.447,0.548,-0.447,57.303,0.956,1.183,0.136,-0.564,-0.427,0.564,-0.427,-85.944,0.956,1.183,0.229,-0.797,-0.604,0.000,0.000,-89.954,1.047,1.157,0.229,-0.797,-0.604,0.000,0.000,0.000,1.025,1.078,0.229,-0.991,0.137,0.000,0.000,False,False
7.902,0.275,0.958,0.120,0.000,-0.707,0.000,-0.707,-0.023,0.275,0.958,0.256,-0.267,-0.655,0.267,-0.655,-45.656,0.572,1.262,0.136,-0.548,-0.447,0.548,-0.447,57.303,0.956,1.183,0.136,-0.564,-0.427,0.564,-0.427,-85.944,0.956,1.183,0.229,-0.797,-0.604,0.000,0.000,-89.954,1.047,1.157,0.229,-0.797,-0.604,0.000,0.000,0.000,1.025,1.078,0.229,-0.991,0.137,0.000,0.000,False,False
8.003,0.275,0.958,0.120,0.000,-0.707,0.000,-0.707,-0.023,0.275,0.958,0.256,-0.267,-0.655,0.267,-0.655,-45.656,0.572,1.262,0.136,-0.548,-0.447,0.548,-0.447,57.303,0.956,1.183,0.136,-0.564,-0.427,0.564,-0.427,-85.944,0.956,1.183,0.229,-0.797,-0.604,0.000,0.000,-89.954,1.047,1.157,0.229,-0.797,-0.604,0.000,0.000,0.000,1.025,1.078,0.229,-0.991,0.137,0.000,0.000,False,False
8.105,0.275,0.958,0.120,0.000,-0.707,0.000,-0.707,-0.023,0.275,0.958,0.256,-0.267,-0.655,0.267,-0.655,-45.656,0.572,1.262,0.136,-0.548,-0.447,0.548,-0.447,57.303,0.956,1.183,0.136,-0.564,-0.427,0.564,-0.427,-85.944,0.956,1.183,0.229,-0.797,-0.604,0.000,0.000,-89.954,1.047,1.157,0.229,-0.797,-0.604,0.000,0.000,0.000,1.025,1.078,0.229,-0.991,0.137,0.000,0.000,False,False
8.206,0.275,0.958,0.120,0.000,-0.707,0.000,-0.707,-0.023,0.275,0.958,0.256,-0.267,-0.655,0.267,-0.655,-45.656,0.572,1.262,0.136,-0.548,-0.447,0.548,-0.447,57.303,0.956,1.183,0.136,-0.564,-0.427,0.564,-0.427,-85.944,0.956,1.183,0.229,-0.797,-0.604,0.000,0.000,-89.954,1.047,1.157,0.229,-0.797,-0.604,0.000,0.000,0.000,1.025,1.078,0.229,-0.991,0.137,0.000,0.000,False,False
8.307,0.275,0.958,0.120,0.000,-0.707,0.000,-0.707,-0.023,0.275,0.958,0.256,-0.267,-0.655,0.267,-0.655,-45.656,0.572,1.262,0.136,-0.548,-0.447,0.548,-0.447,57.303,0.956,1.183,0.136,-0.564,-0.427,0.564,-0.427,-85.944,0.956,1.183,0.229,-0.797,-0.604,0.000,0.000,-89.954,1.047,1.157,0.229,-0.797,-0.604,0.000,0.000,0.000,1.025,1.078,0.229,-0.991,0.137,0.000,0.000,False,False
8.407,0.275,0.958,0.120,0.000,-0.707,0.000,-0.707,-0.023,0.275,0.958,0.256,-0.267,-0.655,0.267,-0.655,-45.656,0.572,1.262,0.136,-0.548,-0.447,0.548,-0.447,57.303,0.956,1.183,0.136,-0.564,-0.427,0.564,-0.427,-85.944,0.956,1.183,0.229,-0.797,-0.604,0.000,0.000,-89.954,1.047,1.157,0.229,-0.797,-0.604,0.000,0.000,0.000,1.025,1.078,0.229,-0.991,0.137,0.000,0.000,False,False
8.508,0.275,0.958,0.120,0.000,-0.707,0.000,-0.707,-0.023,0.275,0.958,0.256,-0.267,-0.655,0.267,-0.655,-45.656,0.572,1.262,0.136,-0.548,-0.447,0.548,-0.447,57.303,0.956,1.183,0.136,-0.564,-0.427,0.564,-0.427,-85.944,0.956,1.183,0.229,-0.797,-0.604,0.000,0.000,-89.954,1.047,1.157,0.229,-0.797,-0.604,0.000,0.000,0.000,1.025,1.078,0.229,-0.991,0.137,0.000,0.000,False,False
8.610,0.275,0.958,0.120,0.000,-0.707,0.000,-0.707,-0.023,0.275,0.958,0.256,-0.267,-0.655,0.267,-0.655,-45.656,0.572,1.262,0.136,-0.548,-0.447,0.548,-0.447,57.303,0.956,1.183,0.136,-0.564,-0.427,0.564,-0.427,-85.944,0.956,1.183,0.229,-0.797,-0.604,0.000,0.000,-89.954,1.047,1.157,0.229,-0.797,-0.604,0.000,0.000,0.000,1.025,1.078,0.229,-0.991,0.137,0.000,0.000,False,False
8.711,0.275,0.958,0.120,0.000,-0.707,0.000,-0.707,-0.023,0.275,0.958,0.256,-0.267,-0.655,0.267,-0.655,-45.656,0.572,1.262,0.136,-0.548,-0.447,0.548,-0.447,57.303,0.956,1.183,0.136,-0.564,-0.427,0.564,-0.427,-85.944,0.956,1.183,0.229,-0.797,-0.604,0.000,0.000,-89.954,1.047,1.157,0.229,-0.797,-0.604,0.000,0.000,0.000,1.025,1.078,0.229,-0.991,0.137,0.000,0.000,False,False
8.812,0.275,0.958,0.120,0.000,-0.707,0.000,-0.707,-0.023,0.275,0.958,0.256,-0.267,-0.655,0.267,-0.655,-45.656,0.572,1.262,0.136,-0.548,-0.447,0.548,-0.447,57.303,0.956,1.183,0.136,-0.564,-0.427,0.564,-0.427,-85.944,0.956,1.183,0.229,-0.797,-0.604,0.000,0.000,-89.954,1.047,1.157,0.229,-0.797,-0.604,0.000,0.000,0.000,1.025,1.078,0.229,-0.991,0.137,0.000,0.000,False,False
8.913,0.275,0.958,0.120,0.000,-0.707,0.000,-0.707,-0.023,0.275,0.958,0.256,-0.267,-0.655,0.267,-0.655,-45.656,0.572,1.262,0.136,-0.548,-0.447,0.548,-0.447,57.303,0.956,1.183,0.136,-0.564,-0.427,0.564,-0.427,-85.944,0.956,1.183,0.229,-0.797,-0.604,0.000,0.000,-89.954,1.047,1.157,0.229,-0.797,-0.604,0.000,0.000,0.000,1.025,1.078,0.229,-0.991,0.137,0.000,0.000,False,False
9.016,0.275,0.958,0.120,0.000,-0.707,0.000,-0.707,-0.023,0.275,0.958,0.256,-0.267,-0.655,0.267,-0.655,-45.656,0.572,1.262,0.136,-0.548,-0.447,0.548,-0.447,57.303,0.956,1.183,0.136,-0.564,-0.427,0.564,-0.427,-85.944,0.956,1.183,0.229,-0.797,-0.604,0.000,0.000,-89.954,1.047,1.157,0.229,-0.797,-0.604,0.000,0.000,0.000,1.025,1.078,0.229,-0.991,0.137,0.000,0.000,False,False
9.118,0.275,0.958,0.120,0.000,-0.707,0.000,-0.707,-0.023,0.275,0.958,0.256,-0.267,-0.655,0.267,-0.655,-45.656,0.572,1.262,0.136,-0.548,-0.447,0.548,-0.447,57.303,0.956,1.183,0.136,-0.564,-0.427,0.564,-0.427,-85.944,0.956,1.183,0.229,-0.797,-0.604,0.000,0.000,-89.954,1.047,1.157,0.229,-0.797,-0.604,0.000,0.000,0.000,1.025,1.078,0.229,-0.991,0.137,0.000,0.000,False,False
9.219,0.275,0.958,0.120,0.000,-0.707,0.000,-0.707,-0.023,0.275,0.958,0.256,-0.267,-0.655,0.267,-0.655,-45.656,0.572,1.262,0.136,-0.548,-0.447,0.548,-0.447,57.303,0.956,1.183,0.136,-0.564,-0.427,0.564,-0.427,-85.944,0.956,1.183,0.229,-0.797,-0.604,0.000,0.000,-89.954,1.047,1.157,0.229,-0.797,-0.604,0.000,0.000,0.000,1.025,1.078,0.229,-0.991,0.137,0.000,0.000,False,False
9.320,0.275,0.958,0.120,0.000,-0.707,0.000,-0.707,-0.023,0.275,0.958,0.256,-0.267,-0.655,0.267,-0.655,-45.656,0.572,1.262,0.136,-0.548,-0.447,0.548,-0.447,57.303,0.956,1.183,0.136,-0.564,-0.427,0.564,-0.427,-85.944,0.956,1.183,0.229,-0.797,-0.604,0.000,0.000,-89.954,1.047,1.157,0.229,-0.797,-0.604,0.000,0.000,0.000,1.025,1.078,0.229,-0.991,0.137,0.000,0.000,False,False
9.422,0.275,0.958,0.120,0.000,-0.707,0.000,-0.707,-0.023,0.275,0.958,0.256,-0.267,-0.655,0.267,-0.655,-45.656,0.572,1.262,0.136,-0.548,-0.447,0.548,-0.447,57.303,0.956,1.183,0.136,-0.564,-0.427,0.564,-0.427,-85.944,0.956,1.183,0.229,-0.797,-0.604,0.000,0.000,-89.954,1.047,1.157,0.229,-0.797,-0.604,0.000,0.000,0.000,1.025,1.078,0.229,-0.991,0.137,0.000,0.000,False,False
9.527,0.275,0.958,0.120,0.000,-0.707,0.000,-0.707,-0.023,0.275,0.958,0.256,-0.267,-0.655,0.267,-0.655,-45.656,0.572,1.262,0.136,-0.548,-0.447,0.548,-0.447,57.303,0.956,1.183,0.136,-0.564,-0.427,0.564,-0.427,-85.944,0.956,1.183,0.229,-0.797,-0.604,0.000,0.000,-89.954,1.047,1.157,0.229,-0.797,-0.604,0.000,0.000,0.000,1.025,1.078,0.229,-0.991,0.137,0.000,0.000,False,False
9.628,0.275,0.958,0.120,0.000,-0.707,0.000,-0.707,-0.023,0.275,0.958,0.256,-0.267,-0.655,0.267,-0.655,-45.656,0.572,1.262,0.136,-0.548,-0.447,0.548,-0.447,57.303,0.956,1.183,0.136,-0.564,-0.427,0.564,-0.427,-85.944,0.956,1.183,0.229,-0.797,-0.604,0.000,0.000,-89.954,1.047,1.157,0.229,-0.797,-0.604,0.000,0.000,0.000,1.025,1.078,0.229,-0.991,0.137,0.000,0.000,False,False
9.731,0.275,0.958,0.120,0.000,-0.707,0.000,-0.707,-0.023,0.275,0.958,0.256,-0.267,-0.655,0.267,-0.655,-45.656,0.572,1.262,0.136,-0.548,-0.447,0.548,-0.447,57.303,0.956,1.183,0.136,-0.564,-0.427,0.564,-0.427,-85.944,0.956,1.183,0.229,-0.797,-0.604,0.000,0.000,-89.954,1.047,1.157,0.229,-0.797,-0.604,0.000,0.000,0.000,1.025,1.078,0.229,-0.991,0.137,0.000,0.000,False,False
9.833,0.275,0.958,0.120,0.000,-0.707,0.000,-0.707,-0.023,0.275,0.958,0.256,-0.267,-0.655,0.267,-0.655,-45.656,0.572,1.262,0.136,-0.548,-0.447,0.548,-0.447,57.303,0.956,1.183,0.136,-0.564,-0.427,0.564,-0.427,-85.944,0.956,1.183,0.229,-0.797,-0.604,0.000,0.000,-89.954,1.047,1.157,0.229,-0.797,-0.604,0.000,0.000,0.000,1.025,1.078,0.229,-0.991,0.137,0.000,0.000,False,False
9.936,0.275,0.958,0.120,0.000,-0.707,0.000,-0.707,-0.023,0.275,0.958,0.256,-0.267,-0.655,0.267,-0.655,-45.656,0.572,1.262,0.136,-0.548,-0.447,0.548,-0.447,57.303,0.956,1.183,0.136,-0.564,-0.427,0.564,-0.427,-85.944,0.956,1.183,0.229,-0.797,-0.604,0.000,0.000,-89.954,1.047,1.157,0.229,-0.797,-0.604,0.000,0.000,0.000,1.025,1.078,0.229,-0.991,0.137,0.000,0.000,False,False
10.036,0.275,0.958,0.120,0.000,-0.707,0.000,-0.707,-0.023,0.275,0.958,0.256,-0.267,-0.655,0.267,-0.655,-45.656,0.572,1.262,0.136,-0.548,-0.447,0.548,-0.447,57.303,0.956,1.183,0.136,-0.564,-0.427,0.564,-0.427,-85.944,0.956,1.183,0.229,-0.797,-0.604,0.000,0.000,-89.954,1.047,1.157,0.229,-0.797,-0.604,0.000,0.000,0.000,1.025,1.078,0.229,-0.991,0.137,0.000,0.000,False,False
10.138,0.275,0.958,0.120,0.000,-0.707,0.000,-0.707,-0.023,0.275,0.958,0.256,-0.267,-0.655,0.267,-0.655,-45.656,0.572,1.262,0.136,-0.548,-0.447,0.548,-0.447,57.303,0.956,1.183,0.136,-0.564,-0.427,0.564,-0.427,-85.944,0.956,1.183,0.229,-0.797,-0.604,0.000,0.000,-89.954,1.047,1.157,0.229,-0.797,-0.604,0.000,0.000,0.000,1.025,1.078,0.229,-0.991,0.137,0.000,0.000,False,False
10.242,0.275,0.958,0.120,0.000,-0.707,0.000,-0.707,-0.023,0.275,0.958,0.256,-0.267,-0.655,0.267,-0.655,-45.656,0.572,1.262,0.136,-0.548,-0.447,0.548,-0.447,57.303,0.956,1.183,0.136,-0.564,-0.427,0.564,-0.427,-85.944,0.956,1.183,0.229,-0.797,-0.604,0.000,0.000,-89.954,1.047,1.157,0.229,-0.797,-0.604,0.000,0.000,0.000,1.025,1.078,0.229,-0.991,0.137,0.000,0.000,False,False
10.343,0.275,0.958,0.120,0.000,-0.707,0.000,-0.707,-0.023,0.275,0.958,0.256,-0.267,-0.655,0.267,-0.655,-45.656,0.572,1.262,0.136,-0.548,-0.447,0.548,-0.447,57.303,0.956,1.183,0.136,-0.564,-0.427,0.564,-0.427,-85.944,0.956,1.183,0.229,-0.797,-0.604,0.000,0.000,-89.954,1.047,1.157,0.229,-0.797,-0.604,0.000,0.000,0.000,1.025,1.078,0.229,-0.991,0.137,0.000,0.000,False,False
10.444,0.275,0.958,0.120,0.000,-0.707,0.000,-0.707,-0.023,0.275,0.958,0.256,-0.267,-0.655,0.267,-0.655,-45.656,0.572,1.262,0.136,-0.548,-0.447,0.548,-0.447,57.303,0.956,1.183,0.136,-0.564,-0.427,0.564,-0.427,-85.944,0.956,1.183,0.229,-0.797,-0.604,0.000,0.000,-89.954,1.047,1.157,0.229,-0.797,-0.604,0.000,0.000,0.000,1.025,1.078,0.229,-0.991,0.137,0.000,0.000,False,False
10.546,0.275,0.958,0.120,0.000,-0.707,0.000,-0.707,-0.023,0.275,0.958,0.256,-0.267,-0.655,0.267,-0.655,-45.656,0.572,1.262,0.136,-0.548,-0.447,0.548,-0.447,57.303,0.956,1.183,0.136,-0.564,-0.427,0.564,-0.427,-85.944,0.956,1.183,0.229,-0.797,-0.604,0.000,0.000,-89.954,1.047,1.157,0.229,-0.797,-0.604,0.000,0.000,0.000,1.025,1.078,0.229,-0.991,0.137,0.000,0.000,False,False
10.650,0.275,0.958,0.120,0.000,-0.707,0.000,-0.707,-0.023,0.275,0.958,0.256,-0.267,-0.655,0.267,-0.655,-45.656,0.572,1.262,0.136,-0.548,-0.447,0.548,-0.447,57.303,0.956,1.183,0.136,-0.564,-0.427,0.564,-0.427,-85.944,0.956,1.183,0.229,-0.797,-0.604,0.000,0.000,-89.954,1.047,1.157,0.229,-0.797,-0.604,0.000,0.000,0.000,1.025,1.078,0.229,-0.991,0.137,0.000,0.000,False,False
10.751,0.275,0.958,0.120,0.000,-0.707,0.000,-0.707,-0.023,0.275,0.958,0.256,-0.267,-0.655,0.267,-0.655,-45.656,0.572,1.262,0.136,-0.548,-0.447,0.548,-0.447,57.303,0.956,1.183,0.136,-0.564,-0.427,0.564,-0.427,-85.944,0.956,1.183,0.229,-0.797,-0.604,0.000,0.000,-89.954,1.047,1.157,0.229,-0.797,-0.604,0.000,0.000,0.000,1.025,1.078,0.229,-0.991,0.137,0.000,0.000,False,False
10.854,0.275,0.958,0.120,0.000,-0.707,0.000,-0.707,-0.023,0.275,0.958,0.256,-0.267,-0.655,0.267,-0.655,-45.656,0.572,1.262,0.136,-0.548,-0.447,0.548,-0.447,57.303,0.956,1.183,0.136,-0.564,-0.427,0.564,-0.427,-85.944,0.956,1.183,0.229,-0.797,-0.604,0.000,0.000,-89.954,1.047,1.157,0.229,-0.797,-0.604,0.000,0.000,0.000,1.025,1.078,0.229,-0.991,0.137,0.000,0.000,False,False
10.958,0.275,0.958,0.120,0.000,-0.707,0.000,-0.707,-0.023,0.275,0.958,0.256,-0.267,-0.655,0.267,-0.655,-45.656,0.572,1.262,0.136,-0.548,-0.447,0.548,-0.447,57.303,0.956,1.183,0.136,-0.564,-0.427,0.564,-0.427,-85.944,0.956,1.183,0.229,-0.797,-0.604,0.000,0.000,-89.954,1.047,1.157,0.229,-0.797,-0.604,0.000,0.000,0.000,1.025,1.078,0.229,-0.991,0.137,0.000,0.000,False,False
11.060,0.275,0.958,0.120,0.000,-0.707,0.000,-0.707,-0.023,0.275,0.958,0.256,-0.267,-0.655,0.267,-0.655,-45.656,0.572,1.262,0.136,-0.548,-0.447,0.548,-0.447,57.303,0.956,1.183,0.136,-0.564,-0.427,0.564,-0.427,-85.944,0.956,1.183,0.229,-0.797,-0.604,0.000,0.000,-89.954,1.047,1.157,0.229,-0.797,-0.604,0.000,0.000,0.000,1.025,1.078,0.229,-0.991,0.137,0.000,0.000,False,False
11.161,0.275,0.958,0.120,0.000,-0.707,0.000,-0.707,-0.023,0.275,0.958,0.256,-0.267,-0.655,0.267,-0.655,-45.656,0.572,1.262,0.136,-0.548,-0.447,0.548,-0.447,57.303,0.956,1.183,0.136,-0.564,-0.427,0.564,-0.427,-85.944,0.956,1.183,0.229,-0.797,-0.604,0.000,0.000,-89.954,1.047,1.157,0.229,-0.797,-0.604,0.000,0.000,0.000,1.025,1.078,0.229,-0.991,0.137,0.000,0.000,False,False
11.262,0.275,0.958,0.120,0.000,-0.707,0.000,-0.707,-0.023,0.275,0.958,0.256,-0.267,-0.655,0.267,-0.655,-45.656,0.572,1.262,0.136,-0.548,-0.447,0.548,-0.447,57.303,0.956,1.183,0.136,-0.564,-0.427,0.564,-0.427,-85.944,0.956,1.183,0.229,-0.797,-0.604,0.000,0.000,-89.954,1.047,1.157,0.229,-0.797,-0.604,0.000,0.000,0.000,1.025,1.078,0.229,-0.991,0.137,0.000,0.000,False,False
11.363,0.275,0.958,0.120,0.000,-0.707,0.000,-0.707,-0.023,0.275,0.958,0.256,-0.267,-0.655,0.267,-0.655,-45.656,0.572,1.262,0.136,-0.548,-0.447,0.548,-0.447,57.303,0.956,1.183,0.136,-0.564,-0.427,0.564,-0.427,-85.944,0.956,1.183,0.229,-0.797,-0.604,0.000,0.000,-89.954,1.047,1.157,0.229,-0.797,-0.604,0.000,0.000,0.000,1.025,1.078,0.229,-0.991,0.137,0.000,0.000,False,False
11.464,0.275,0.958,0.120,0.000,-0.707,0.000,-0.707,-0.023,0.275,0.958,0.256,-0.267,-0.655,0.267,-0.655,-45.656,0.572,1.262,0.136,-0.548,-0.447,0.548,-0.447,57.303,0.956,1.183,0.136,-0.564,-0.427,0.564,-0.427,-85.944,0.956,1.183,0.229,-0.797,-0.604,0.000,0.000,-89.954,1.047,1.157,0.229,-0.797,-0.604,0.000,0.000,0.000,1.025,1.078,0.229,-0.991,0.137,0.000,0.000,False,False
11.565,0.275,0.958,0.120,0.000,-0.707,0.000,-0.707,-0.023,0.275,0.958,0.256,-0.267,-0.655,0.267,-0.655,-45.656,0.572,1.262,0.136,-0.548,-0.447,0.548,-0.447,57.303,0.956,1.183,0.136,-0.564,-0.427,0.564,-0.427,-85.944,0.956,1.183,0.229,-0.797,-0.604,0.000,0.000,-89.954,1.047,1.157,0.229,-0.797,-0.604,0.000,0.000,0.000,1.025,1.078,0.229,-0.991,0.137,0.000,0.000,False,False
11.666,0.275,0.958,0.120,0.000,-0.707,0.000,-0.707,-0.023,0.275,0.958,0.256,-0.267,-0.655,0.267,-0.655,-45.656,0.572,1.262,0.136,-0.548,-0.447,0.548,-0.447,57.303,0.956,1.183,0.136,-0.564,-0.427,0.564,-0.427,-85.944,0.956,1.183,0.229,-0.797,-0.604,0.000,0.000,-89.954,1.047,1.157,0.229,-0.797,-0.604,0.000,0.000,0.000,1.025,1.078,0.229,-0.991,0.137,0.000,0.000,False,False
11.767,0.275,0.958,0.120,0.000,-0.707,0.000,-0.707,-0.023,0.275,0.958,0.256,-0.267,-0.655,0.267,-0.655,-45.656,0.572,1.262,0.136,-0.548,-0.447,0.548,-0.447,57.303,0.956,1.183,0.136,-0.564,-0.427,0.564,-0.427,-85.944,0.956,1.183,0.229,-0.797,-0.604,0.000,0.000,-89.954,1.047,1.157,0.229,-0.797,-0.604,0.000,0.000,0.000,1.025,1.078,0.229,-0.991,0.137,0.000,0.000,False,False
11.868,0.275,0.958,0.120,0.000,-0.707,0.000,-0.707,-0.023,0.275,0.958,0.256,-0.267,-0.655,0.267,-0.655,-45.656,0.572,1.262,0.136,-0.548,-0.447,0.548,-0.447,57.303,0.956,1.183,0.136,-0.564,-0.427,0.564,-0.427,-85.944,0.956,1.183,0.229,-0.797,-0.604,0.000,0.000,-89.954,1.047,1.157,0.229,-0.797,-0.604,0.000,0.000,0.000,1.025,1.078,0.229,-0.991,0.137,0.000,0.000,False,False
11.969,0.275,0.958,0.120,0.000,-0.707,0.000,-0.707,-0.023,0.275,0.958,0.256,-0.267,-0.655,0.267,-0.655,-45.656,0.572,1.262,0.136,-0.548,-0.447,0.548,-0.447,57.303,0.956,1.183,0.136,-0.564,-0.427,0.564,-0.427,-85.944,0.956,1.183,0.229,-0.797,-0.604,0.000,0.000,-89.954,1.047,1.157,0.229,-0.797,-0.604,0.000,0.000,0.000,1.025,1.078,0.229,-0.991,0.137,0.000,0.000,False,False
12.070,0.275,0.958,0.120,0.000,-0.707,0.000,-0.707,-0.023,0.275,0.958,0.256,-0.267,-0.655,0.267,-0.655,-45.656,0.572,1.262,0.136,-0.548,-0.447,0.548,-0.447,57.303,0.956,1.183,0.136,-0.564,-0.427,0.564,-0.427,-85.944,0.956,1.183,0.229,-0.797,-0.604,0.000,0.000,-89.954,1.047,1.157,0.229,-0.797,-0.604,0.000,0.000,0.000,1.025,1.078,0.229,-0.991,0.137,0.000,0.000,False,False
12.173,0.275,0.958,0.120,0.000,-0.707,0.000,-0.707,-0.023,0.275,0.958,0.256,-0.267,-0.655,0.267,-0.655,-45.656,0.572,1.262,0.136,-0.548,-0.447,0.548,-0.447,57.303,0.956,1.183,0.136,-0.564,-0.427,0.564,-0.427,-85.944,0.956,1.183,0.229,-0.797,-0.604,0.000,0.000,-89.954,1.047,1.157,0.229,-0.797,-0.604,0.000,0.000,0.000,1.025,1.078,0.229,-0.991,0.137,0.000,0.000,False,False
12.277,0.275,0.958,0.120,0.000,-0.707,0.000,-0.707,-0.023,0.275,0.958,0.256,-0.267,-0.655,0.267,-0.655,-45.656,0.572,1.262,0.136,-0.548,-0.447,0.548,-0.447,57.303,0.956,1.183,0.136,-0.564,-0.427,0.564,-0.427,-85.944,0.956,1.183,0.229,-0.797,-0.604,0.000,0.000,-89.954,1.047,1.157,0.229,-0.797,-0.604,0.000,0.000,0.000,1.025,1.078,0.229,-0.991,0.137,0.000,0.000,False,False
12.379,0.275,0.958,0.120,0.000,-0.707,0.000,-0.707,-0.023,0.275,0.958,0.256,-0.267,-0.655,0.267,-0.655,-45.656,0.572,1.262,0.136,-0.548,-0.447,0.548,-0.447,57.303,0.956,1.183,0.136,-0.564,-0.427,0.564,-0.427,-85.944,0.956,1.183,0.229,-0.797,-0.604,0.000,0.000,-89.954,1.047,1.157,0.229,-0.797,-0.604,0.000,0.000,0.000,1.025,1.078,0.229,-0.991,0.137,0.000,0.000,False,False
12.480,0.275,0.958,0.120,0.000,-0.707,0.000,-0.707,-0.023,0.275,0.958,0.256,-0.267,-0.655,0.267,-0.655,-45.656,0.572,1.262,0.136,-0.548,-0.447,0.548,-0.447,57.303,0.956,1.183,0.136,-0.564,-0.427,0.564,-0.427,-85.944,0.956,1.183,0.229,-0.797,-0.604,0.000,0.000,-89.954,1.047,1.157,0.229,-0.797,-0.604,0.000,0.000,0.000,1.025,1.078,0.229,-0.991,0.137,0.000,0.000,False,False
12.581,0.275,0.958,0.120,0.000,-0.707,0.000,-0.707,-0.023,0.275,0.958,0.256,-0.267,-0.655,0.267,-0.655,-45.656,0.572,1.262,0.136,-0.548,-0.447,0.548,-0.447,57.303,0.956,1.183,0.136,-0.564,-0.427,0.564,-0.427,-85.944,0.956,1.183,0.229,-0.797,-0.604,0.000,0.000,-89.954,1.047,1.157,0.229,-0.797,-0.604,0.000,0.000,0.000,1.025,1.078,0.229,-0.991,0.137,0.000,0.000,False,False
12.682,0.275,0.958,0.120,0.000,-0.707,0.000,-0.707,-0.023,0.275,0.958,0.256,-0.267,-0.655,0.267,-0.655,-45.656,0.572,1.262,0.136,-0.548,-0.447,0.548,-0.447,57.303,0.956,1.183,0.136,-0.564,-0.427,0.564,-0.427,-85.944,0.956,1.183,0.229,-0.797,-0.604,0.000,0.000,-89.954,1.047,1.157,0.229,-0.797,-0.604,0.000,0.000,0.000,1.025,1.078,0.229,-0.991,0.137,0.000,0.000,False,False
12.784,0.275,0.958,0.120,0.000,-0.707,0.000,-0.707,-0.023,0.275,0.958,0.256,-0.267,-0.655,0.267,-0.655,-45.656,0.572,1.262,0.136,-0.548,-0.447,0.548,-0.447,57.303,0.956,1.183,0.136,-0.564,-0.427,0.564,-0.427,-85.944,0.956,1.183,0.229,-0.797,-0.604,0.000,0.000,-89.954,1.047,1.157,0.229,-0.797,-0.604,0.000,0.000,0.000,1.025,1.078,0.229,-0.991,0.137,0.000,0.000,False,False
12.886,0.275,0.958,0.120,0.000,-0.707,0.000,-0.707,-0.023,0.275,0.958,0.256,-0.267,-0.655,0.267,-0.655,-45.656,0.572,1.262,0.136,-0.548,-0.447,0.548,-0.447,57.303,0.956,1.183,0.136,-0.564,-0.427,0.564,-0.427,-85.944,0.956,1.183,0.229,-0.797,-0.604,0.000,0.000,-89.954,1.047,1.157,0.229,-0.797,-0.604,0.000,0.000,0.000,1.025,1.078,0.229,-0.991,0.137,0.000,0.000,False,False
12.995,0.275,0.958,0.120,0.000,-0.707,0.000,-0.707,-0.023,0.275,0.958,0.256,-0.267,-0.655,0.267,-0.655,-45.656,0.572,1.262,0.136,-0.548,-0.447,0.548,-0.447,57.303,0.956,1.183,0.136,-0.564,-0.427,0.564,-0.427,-85.944,0.956,1.183,0.229,-0.797,-0.604,0.000,0.000,-89.954,1.047,1.157,0.229,-0.797,-0.604,0.000,0.000,0.000,1.025,1.078,0.229,-0.991,0.137,0.000,0.000,False,False
13.097,0.275,0.958,0.120,0.000,-0.707,0.000,-0.707,-0.023,0.275,0.958,0.256,-0.267,-0.655,0.267,-0.655,-45.656,0.572,1.262,0.136,-0.548,-0.447,0.548,-0.447,57.303,0.956,1.183,0.136,-0.564,-0.427,0.564,-0.427,-85.944,0.956,1.183,0.229,-0.797,-0.604,0.000,0.000,-89.954,1.047,1.157,0.229,-0.797,-0.604,0.000,0.000,0.000,1.025,1.078,0.229,-0.991,0.137,0.000,0.000,False,False
13.201,0.275,0.958,0.120,0.000,-0.707,0.000,-0.707,-0.023,0.275,0.958,0.256,-0.267,-0.655,0.267,-0.655,-45.656,0.572,1.262,0.136,-0.548,-0.447,0.548,-0.447,57.303,0.956,1.183,0.136,-0.564,-0.427,0.564,-0.427,-85.944,0.956,1.183,0.229,-0.797,-0.604,0.000,0.000,-89.954,1.047,1.157,0.229,-0.797,-0.604,0.000,0.000,0.000,1.025,1.078,0.229,-0.991,0.137,0.000,0.000,False,False
13.305,0.275,0.958,0.120,0.000,-0.707,0.000,-0.707,-0.023,0.275,0.958,0.256,-0.267,-0.655,0.267,-0.655,-45.656,0.572,1.262,0.136,-0.548,-0.447,0.548,-0.447,57.303,0.956,1.183,0.136,-0.564,-0.427,0.564,-0.427,-85.944,0.956,1.183,0.229,-0.797,-0.604,0.000,0.000,-89.954,1.047,1.157,0.229,-0.797,-0.604,0.000,0.000,0.000,1.025,1.078,0.229,-0.991,0.137,0.000,0.000,False,False
13.406,0.275,0.958,0.120,0.000,-0.707,0.000,-0.707,-0.023,0.275,0.958,0.256,-0.267,-0.655,0.267,-0.655,-45.656,0.572,1.262,0.136,-0.548,-0.447,0.548,-0.447,57.303,0.956,1.183,0.136,-0.564,-0.427,0.564,-0.427,-85.944,0.956,1.183,0.229,-0.797,-0.604,0.000,0.000,-89.954,1.047,1.157,0.229,-0.797,-0.604,0.000,0.000,0.000,1.025,1.078,0.229,-0.991,0.137,0.000,0.000,False,False
13.507,0.275,0.958,0.120,0.000,-0.707,0.000,-0.707,-0.023,0.275,0.958,0.256,-0.267,-0.655,0.267,-0.655,-45.656,0.572,1.262,0.136,-0.548,-0.447,0.548,-0.447,57.303,0.956,1.183,0.136,-0.564,-0.427,0.564,-0.427,-85.944,0.956,1.183,0.229,-0.797,-0.604,0.000,0.000,-89.954,1.047,1.157,0.229,-0.797,-0.604,0.000,0.000,0.000,1.025,1.078,0.229,-0.991,0.137,0.000,0.000,False,False
13.608,0.275,0.958,0.120,0.000,-0.707,0.000,-0.707,-0.023,0.275,0.958,0.256,-0.267,-0.655,0.267,-0.655,-45.656,0.572,1.262,0.136,-0.548,-0.447,0.548,-0.447,57.303,0.956,1.183,0.136,-0.564,-0.427,0.564,-0.427,-85.944,0.956,1.183,0.229,-0.797,-0.604,0.000,0.000,-89.954,1.047,1.157,0.229,-0.797,-0.604,0.000,0.000,0.000,1.025,1.078,0.229,-0.991,0.137,0.000,0.000,False,False
13.708,0.275,0.958,0.120,0.000,-0.707,0.000,-0.707,-0.023,0.275,0.958,0.256,-0.267,-0.655,0.267,-0.655,-45.656,0.572,1.262,0.136,-0.548,-0.447,0.548,-0.447,57.303,0.956,1.183,0.136,-0.564,-0.427,0.564,-0.427,-85.944,0.956,1.183,0.229,-0.797,-0.604,0.000,0.000,-89.954,1.047,1.157,0.229,-0.797,-0.604,0.000,0.000,0.000,1.025,1.078,0.229,-0.991,0.137,0.000,0.000,False,False
13.812,0.275,0.958,0.120,0.000,-0.707,0.000,-0.707,-0.023,0.275,0.958,0.256,-0.267,-0.655,0.267,-0.655,-45.656,0.572,1.262,0.136,-0.548,-0.447,0.548,-0.447,57.303,0.956,1.183,0.136,-0.564,-0.427,0.564,-0.427,-85.944,0.956,1.183,0.229,-0.797,-0.604,0.000,0.000,-89.954,1.047,1.157,0.229,-0.797,-0.604,0.000,0.000,0.000,1.025,1.078,0.229,-0.991,0.137,0.000,0.000,False,False
13.913,0.275,0.958,0.120,0.000,-0.707,0.000,-0.707,-0.023,0.275,0.958,0.256,-0.267,-0.655,0.267,-0.655,-45.656,0.572,1.262,0.136,-0.548,-0.447,0.548,-0.447,57.303,0.956,1.183,0.136,-0.564,-0.427,0.564,-0.427,-85.944,0.956,1.183,0.229,-0.797,-0.604,0.000,0.000,-89.954,1.047,1.157,0.229,-0.797,-0.604,0.000,0.000,0.000,1.025,1.078,0.229,-0.991,0.137,0.000,0.000,False,False
14.016,0.275,0.958,0.120,0.000,-0.707,0.000,-0.707,-0.023,0.275,0.958,0.256,-0.267,-0.655,0.267,-0.655,-45.656,0.572,1.262,0.136,-0.548,-0.447,0.548,-0.447,57.303,0.956,1.183,0.136,-0.564,-0.427,0.564,-0.427,-85.944,0.956,1.183,0.229,-0.797,-0.604,0.000,0.000,-89.954,1.047,1.157,0.229,-0.797,-0.604,0.000,0.000,0.000,1.025,1.078,0.229,-0.991,0.137,0.000,0.000,False,False
14.116,0.275,0.958,0.120,0.000,-0.707,0.000,-0.707,-0.023,0.275,0.958,0.256,-0.267,-0.655,0.267,-0.655,-45.656,0.572,1.262,0.136,-0.548,-0.447,0.548,-0.447,57.303,0.956,1.183,0.136,-0.564,-0.427,0.564,-0.427,-85.944,0.956,1.183,0.229,-0.797,-0.604,0.000,0.000,-89.954,1.047,1.157,0.229,-0.797,-0.604,0.000,0.000,0.000,1.025,1.078,0.229,-0.991,0.137,0.000,0.000,False,False
14.219,0.275,0.958,0.120,0.000,-0.707,0.000,-0.707,-0.023,0.275,0.958,0.256,-0.267,-0.655,0.267,-0.655,-45.656,0.572,1.262,0.136,-0.548,-0.447,0.548,-0.447,57.303,0.956,1.183,0.136,-0.564,-0.427,0.564,-0.427,-85.944,0.956,1.183,0.229,-0.797,-0.604,0.000,0.000,-89.954,1.047,1.157,0.229,-0.797,-0.604,0.000,0.000,0.000,1.025,1.078,0.229,-0.991,0.137,0.000,0.000,False,False
14.322,0.275,0.958,0.120,0.000,-0.707,0.000,-0.707,-0.023,0.275,0.958,0.256,-0.267,-0.655,0.267,-0.655,-45.656,0.572,1.262,0.136,-0.548,-0.447,0.548,-0.447,57.303,0.956,1.183,0.136,-0.564,-0.427,0.564,-0.427,-85.944,0.956,1.183,0.229,-0.797,-0.604,0.000,0.000,-89.954,1.047,1.157,0.229,-0.797,-0.604,0.000,0.000,0.000,1.025,1.078,0.229,-0.991,0.137,0.000,0.000,False,False
14.423,0.275,0.958,0.120,0.000,-0.707,0.000,-0.707,-0.023,0.275,0.958,0.256,-0.267,-0.655,0.267,-0.655,-45.656,0.572,1.262,0.136,-0.548,-0.447,0.548,-0.447,57.303,0.956,1.183,0.136,-0.564,-0.427,0.564,-0.427,-85.944,0.956,1.183,0.229,-0.797,-0.604,0.000,0.000,-89.954,1.047,1.157,0.229,-0.797,-0.604,0.000,0.000,0.000,1.025,1.078,0.229,-0.991,0.137,0.000,0.000,False,False
14.523,0.275,0.958,0.120,0.000,-0.707,0.000,-0.707,-0.023,0.275,0.958,0.256,-0.267,-0.655,0.267,-0.655,-45.656,0.572,1.262,0.136,-0.548,-0.447,0.548,-0.447,57.303,0.956,1.183,0.136,-0.564,-0.427,0.564,-0.427,-85.944,0.956,1.183,0.229,-0.797,-0.604,0.000,0.000,-89.954,1.047,1.157,0.229,-0.797,-0.604,0.000,0.000,0.000,1.025,1.078,0.229,-0.991,0.137,0.000,0.000,False,False
14.626,0.275,0.958,0.120,0.000,-0.707,0.000,-0.707,-0.023,0.275,0.958,0.256,-0.267,-0.655,0.267,-0.655,-45.656,0.572,1.262,0.136,-0.548,-0.447,0.548,-0.447,57.303,0.956,1.183,0.136,-0.564,-0.427,0.564,-0.427,-85.944,0.956,1.183,0.229,-0.797,-0.604,0.000,0.000,-89.954,1.047,1.157,0.229,-0.797,-0.604,0.000,0.000,0.000,1.025,1.078,0.229,-0.991,0.137,0.000,0.000,False,False
14.730,0.275,0.958,0.120,0.000,-0.707,0.000,-0.707,-0.023,0.275,0.958,0.256,-0.267,-0.655,0.267,-0.655,-45.656,0.572,1.262,0.136,-0.548,-0.447,0.548,-0.447,57.303,0.956,1.183,0.136,-0.564,-0.427,0.564,-0.427,-85.944,0.956,1.183,0.229,-0.797,-0.604,0.000,0.000,-89.954,1.047,1.157,0.229,-0.797,-0.604,0.000,0.000,0.000,1.025,1.078,0.229,-0.991,0.137,0.000,0.000,False,False
14.831,0.275,0.958,0.120,0.000,-0.707,0.000,-0.707,-0.023,0.275,0.958,0.256,-0.267,-0.655,0.267,-0.655,-45.656,0.572,1.262,0.136,-0.548,-0.447,0.548,-0.447,57.303,0.956,1.183,0.136,-0.564,-0.427,0.564,-0.427,-85.944,0.956,1.183,0.229,-0.797,-0.604,0.000,0.000,-89.954,1.047,1.157,0.229,-0.797,-0.604,0.000,0.000,0.000,1.025,1.078,0.229,-0.991,0.137,0.000,0.000,False,False
14.932,0.275,0.958,0.120,0.000,-0.707,0.000,-0.707,-0.023,0.275,0.958,0.256,-0.267,-0.655,0.267,-0.655,-45.656,0.572,1.262,0.136,-0.548,-0.447,0.548,-0.447,57.303,0.956,1.183,0.136,-0.564,-0.427,0.564,-0.427,-85.944,0.956,1.183,0.229,-0.797,-0.604,0.000,0.000,-89.954,1.047,1.157,0.229,-0.797,-0.604,0.000,0.000,0.000,1.025,1.078,0.229,-0.991,0.137,0.000,0.000,False,False
15.036,0.275,0.958,0.120,0.000,-0.707,0.000,-0.707,-0.023,0.275,0.958,0.256,-0.267,-0.655,0.267,-0.655,-45.656,0.572,1.262,0.136,-0.548,-0.447,0.548,-0.447,57.303,0.956,1.183,0.136,-0.564,-0.427,0.564,-0.427,-85.944,0.956,1.183,0.229,-0.797,-0.604,0.000,0.000,-89.954,1.047,1.157,0.229,-0.797,-0.604,0.000,0.000,0.000,1.025,1.078,0.229,-0.991,0.137,0.000,0.000,False,False
15.137,0.275,0.958,0.120,0.000,-0.707,0.000,-0.707,-0.023,0.275,0.958,0.256,-0.267,-0.655,0.267,-0.655,-45.656,0.572,1.262,0.136,-0.548,-0.447,0.548,-0.447,57.303,0.956,1.183,0.136,-0.564,-0.427,0.564,-0.427,-85.944,0.956,1.183,0.229,-0.797,-0.604,0.000,0.000,-89.954,1.047,1.157,0.229,-0.797,-0.604,0.000,0.000,0.000,1.025,1.078,0.229,-0.991,0.137,0.000,0.000,False,False
15.238,0.275,0.958,0.120,0.000,-0.707,0.000,-0.707,-0.023,0.275,0.958,0.256,-0.267,-0.655,0.267,-0.655,-45.656,0.572,1.262,0.136,-0.548,-0.447,0.548,-0.447,57.303,0.956,1.183,0.136,-0.564,-0.427,0.564,-0.427,-85.944,0.956,1.183,0.229,-0.797,-0.604,0.000,0.000,-89.954,1.047,1.157,0.229,-0.797,-0.604,0.000,0.000,0.000,1.025,1.078,0.229,-0.991,0.137,0.000,0.000,False,False
15.339,0.275,0.958,0.120,0.000,-0.707,0.000,-0.707,-0.023,0.275,0.958,0.256,-0.267,-0.655,0.267,-0.655,-45.656,0.572,1.262,0.136,-0.548,-0.447,0.548,-0.447,57.303,0.956,1.183,0.136,-0.564,-0.427,0.564,-0.427,-85.944,0.956,1.183,0.229,-0.797,-0.604,0.000,0.000,-89.954,1.047,1.157,0.229,-0.797,-0.604,0.000,0.000,0.000,1.025,1.078,0.229,-0.991,0.137,0.000,0.000,False,False
15.440,0.275,0.958,0.120,0.000,-0.707,0.000,-0.707,-0.023,0.275,0.958,0.256,-0.267,-0.655,0.267,-0.655,-45.656,0.572,1.262,0.136,-0.548,-0.447,0.548,-0.447,57.303,0.956,1.183,0.136,-0.564,-0.427,0.564,-0.427,-85.944,0.956,1.183,0.229,-0.797,-0.604,0.000,0.000,-89.954,1.047,1.157,0.229,-0.797,-0.604,0.000,0.000,0.000,1.025,1.078,0.229,-0.991,0.137,0.000,0.000,False,False
15.541,0.275,0.958,0.120,0.000,-0.707,0.000,-0.707,-0.023,0.275,0.958,0.256,-0.267,-0.655,0.267,-0.655,-45.656,0.572,1.262,0.136,-0.548,-0.447,0.548,-0.447,57.303,0.956,1.183,0.136,-0.564,-0.427,0.564,-0.427,-85.944,0.956,1.183,0.229,-0.797,-0.604,0.000,0.000,-89.954,1.047,1.157,0.229,-0.797,-0.604,0.000,0.000,0.000,1.025,1.078,0.229,-0.991,0.137,0.000,0.000,False,False
15.642,0.275,0.958,0.120,0.000,-0.707,0.000,-0.707,-0.023,0.275,0.958,0.256,-0.267,-0.655,0.267,-0.655,-45.656,0.572,1.262,0.136,-0.548,-0.447,0.548,-0.447,57.303,0.956,1.183,0.136,-0.564,-0.427,0.564,-0.427,-85.944,0.956,1.183,0.229,-0.797,-0.604,0.000,0.000,-89.954,1.047,1.157,0.229,-0.797,-0.604,0.000,0.000,0.000,1.025,1.078,0.229,-0.991,0.137,0.000,0.000,False,False
15.743,0.275,0.958,0.120,0.000,-0.707,0.000,-0.707,-0.023,0.275,0.958,0.256,-0.267,-0.655,0.267,-0.655,-45.656,0.572,1.262,0.136,-0.548,-0.447,0.548,-0.447,57.303,0.956,1.183,0.136,-0.564,-0.427,0.564,-0.427,-85.944,0.956,1.183,0.229,-0.797,-0.604,0.000,0.000,-89.954,1.047,1.157,0.229,-0.797,-0.604,0.000,0.000,0.000,1.025,1.078,0.229,-0.991,0.137,0.000,0.000,False,False
15.844,0.275,0.958,0.120,0.000,-0.707,0.000,-0.707,-0.023,0.275,0.958,0.256,-0.267,-0.655,0.267,-0.655,-45.656,0.572,1.262,0.136,-0.548,-0.447,0.548,-0.447,57.303,0.956,1.183,0.136,-0.564,-0.427,0.564,-0.427,-85.944,0.956,1.183,0.229,-0.797,-0.604,0.000,0.000,-89.954,1.047,1.157,0.229,-0.797,-0.604,0.000,0.000,0.000,1.025,1.078,0.229,-0.991,0.137,0.000,0.000,False,False
15.947,0.275,0.958,0.120,0.000,-0.707,0.000,-0.707,-0.023,0.275,0.958,0.256,-0.267,-0.655,0.267,-0.655,-45.656,0.572,1.262,0.136,-0.548,-0.447,0.548,-0.447,57.303,0.956,1.183,0.136,-0.564,-0.427,0.564,-0.427,-85.944,0.956,1.183,0.229,-0.797,-0.604,0.000,0.000,-89.954,1.047,1.157,0.229,-0.797,-0.604,0.000,0.000,0.000,1.025,1.078,0.229,-0.991,0.137,0.000,0.000,False,False
16.057,0.275,0.958,0.120,0.000,-0.707,0.000,-0.707,-0.023,0.275,0.958,0.256,-0.267,-0.655,0.267,-0.655,-45.656,0.572,1.262,0.136,-0.548,-0.447,0.548,-0.447,57.303,0.956,1.183,0.136,-0.564,-0.427,0.564,-0.427,-85.944,0.956,1.183,0.229,-0.797,-0.604,0.000,0.000,-89.954,1.047,1.157,0.229,-0.797,-0.604,0.000,0.000,0.000,1.025,1.078,0.229,-0.991,0.137,0.000,0.000,False,False
16.165,0.275,0.958,0.120,0.000,-0.707,0.000,-0.707,-0.023,0.275,0.958,0.256,-0.267,-0.655,0.267,-0.655,-45.656,0.572,1.262,0.136,-0.548,-0.447,0.548,-0.447,57.303,0.956,1.183,0.136,-0.564,-0.427,0.564,-0.427,-85.944,0.956,1.183,0.229,-0.797,-0.604,0.000,0.000,-89.954,1.047,1.157,0.229,-0.797,-0.604,0.000,0.000,0.000,1.025,1.078,0.229,-0.991,0.137,0.000,0.000,False,False
16.267,0.275,0.958,0.120,0.000,-0.707,0.000,-0.707,-0.023,0.275,0.958,0.256,-0.267,-0.655,0.267,-0.655,-45.656,0.572,1.262,0.136,-0.548,-0.447,0.548,-0.447,57.303,0.956,1.183,0.136,-0.564,-0.427,0.564,-0.427,-85.944,0.956,1.183,0.229,-0.797,-0.604,0.000,0.000,-89.954,1.047,1.157,0.229,-0.797,-0.604,0.000,0.000,0.000,1.025,1.078,0.229,-0.991,0.137,0.000,0.000,False,False
16.369,0.275,0.958,0.120,0.000,-0.707,0.000,-0.707,-0.023,0.275,0.958,0.256,-0.267,-0.655,0.267,-0.655,-45.656,0.572,1.262,0.136,-0.548,-0.447,0.548,-0.447,57.303,0.956,1.183,0.136,-0.564,-0.427,0.564,-0.427,-85.944,0.956,1.183,0.229,-0.797,-0.604,0.000,0.000,-89.954,1.047,1.157,0.229,-0.797,-0.604,0.000,0.000,0.000,1.025,1.078,0.229,-0.991,0.137,0.000,0.000,False,False
16.473,0.275,0.958,0.120,0.000,-0.707,0.000,-0.707,-0.023,0.275,0.958,0.256,-0.267,-0.655,0.267,-0.655,-45.656,0.572,1.262,0.136,-0.548,-0.447,0.548,-0.447,57.303,0.956,1.183,0.136,-0.564,-0.427,0.564,-0.427,-85.944,0.956,1.183,0.229,-0.797,-0.604,0.000,0.000,-89.954,1.047,1.157,0.229,-0.797,-0.604,0.000,0.000,0.000,1.025,1.078,0.229,-0.991,0.137,0.000,0.000,False,False
16.574,0.275,0.958,0.120,0.000,-0.707,0.000,-0.707,-0.023,0.275,0.958,0.256,-0.267,-0.655,0.267,-0.655,-45.656,0.572,1.262,0.136,-0.548,-0.447,0.548,-0.447,57.303,0.956,1.183,0.136,-0.564,-0.427,0.564,-0.427,-85.944,0.956,1.183,0.229,-0.797,-0.604,0.000,0.000,-89.954,1.047,1.157,0.229,-0.797,-0.604,0.000,0.000,0.000,1.025,1.078,0.229,-0.991,0.137,0.000,0.000,False,False
16.675,0.275,0.958,0.120,0.000,-0.707,0.000,-0.707,-0.023,0.275,0.958,0.256,-0.267,-0.655,0.267,-0.655,-45.656,0.572,1.262,0.136,-0.548,-0.447,0.548,-0.447,57.303,0.956,1.183,0.136,-0.564,-0.427,0.564,-0.427,-85.944,0.956,1.183,0.229,-0.797,-0.604,0.000,0.000,-89.954,1.047,1.157,0.229,-0.797,-0.604,0.000,0.000,0.000,1.025,1.078,0.229,-0.991,0.137,0.000,0.000,False,False
16.775,0.275,0.958,0.120,0.000,-0.707,0.000,-0.707,-0.023,0.275,0.958,0.256,-0.267,-0.655,0.267,-0.655,-45.656,0.572,1.262,0.136,-0.548,-0.447,0.548,-0.447,57.303,0.956,1.183,0.136,-0.564,-0.427,0.564,-0.427,-85.944,0.956,1.183,0.229,-0.797,-0.604,0.000,0.000,-89.954,1.047,1.157,0.229,-0.797,-0.604,0.000,0.000,0.000,1.025,1.078,0.229,-0.991,0.137,0.000,0.000,False,False
16.877,0.275,0.958,0.120,0.000,-0.707,0.000,-0.707,-0.023,0.275,0.958,0.256,-0.267,-0.655,0.267,-0.655,-45.656,0.572,1.262,0.136,-0.548,-0.447,0.548,-0.447,57.303,0.956,1.183,0.136,-0.564,-0.427,0.564,-0.427,-85.944,0.956,1.183,0.229,-0.797,-0.604,0.000,0.000,-89.954,1.047,1.157,0.229,-0.797,-0.604,0.000,0.000,0.000,1.025,1.078,0.229,-0.991,0.137,0.000,0.000,False,False
16.978,0.275,0.958,0.120,0.000,-0.707,0.000,-0.707,-0.023,0.275,0.958,0.256,-0.267,-0.655,0.267,-0.655,-45.656,0.572,1.262,0.136,-0.548,-0.447,0.548,-0.447,57.303,0.956,1.183,0.136,-0.564,-0.427,0.564,-0.427,-85.944,0.956,1.183,0.229,-0.797,-0.604,0.000,0.000,-89.954,1.047,1.157,0.229,-0.797,-0.604,0.000,0.000,0.000,1.025,1.078,0.229,-0.991,0.137,0.000,0.000,False,False
17.082,0.275,0.958,0.120,0.000,-0.707,0.000,-0.707,-0.023,0.275,0.958,0.256,-0.267,-0.655,0.267,-0.655,-45.656,0.572,1.262,0.136,-0.548,-0.447,0.548,-0.447,57.303,0.956,1.183,0.136,-0.564,-0.427,0.564,-0.427,-85.944,0.956,1.183,0.229,-0.797,-0.604,0.000,0.000,-89.954,1.047,1.157,0.229,-0.797,-0.604,0.000,0.000,0.000,1.025,1.078,0.229,-0.991,0.137,0.000,0.000,False,False
17.185,0.275,0.958,0.120,0.000,-0.707,0.000,-0.707,-0.023,0.275,0.958,0.256,-0.267,-0.655,0.267,-0.655,-45.656,0.572,1.262,0.136,-0.548,-0.447,0.548,-0.447,57.303,0.956,1.183,0.136,-0.564,-0.427,0.564,-0.427,-85.944,0.956,1.183,0.229,-0.797,-0.604,0.000,0.000,-89.954,1.047,1.157,0.229,-0.797,-0.604,0.000,0.000,0.000,1.025,1.078,0.229,-0.991,0.137,0.000,0.000,False,False
17.287,0.275,0.958,0.120,0.000,-0.707,0.000,-0.707,-0.023,0.275,0.958,0.256,-0.267,-0.655,0.267,-0.655,-45.656,0.572,1.262,0.136,-0.548,-0.447,0.548,-0.447,57.303,0.956,1.183,0.136,-0.564,-0.427,0.564,-0.427,-85.944,0.956,1.183,0.229,-0.797,-0.604,0.000,0.000,-89.954,1.047,1.157,0.229,-0.797,-0.604,0.000,0.000,0.000,1.025,1.078,0.229,-0.991,0.137,0.000,0.000,False,False
17.389,0.275,0.958,0.120,0.000,-0.707,0.000,-0.707,-0.023,0.275,0.958,0.256,-0.267,-0.655,0.267,-0.655,-45.656,0.572,1.262,0.136,-0.548,-0.447,0.548,-0.447,57.303,0.956,1.183,0.136,-0.564,-0.427,0.564,-0.427,-85.944,0.956,1.183,0.229,-0.797,-0.604,0.000,0.000,-89.954,1.047,1.157,0.229,-0.797,-0.604,0.000,0.000,0.000,1.025,1.078,0.229,-0.991,0.137,0.000,0.000,False,False
17.489,0.275,0.958,0.120,0.000,-0.707,0.000,-0.707,-0.023,0.275,0.958,0.256,-0.267,-0.655,0.267,-0.655,-45.656,0.572,1.262,0.136,-0.548,-0.447,0.548,-0.447,57.303,0.956,1.183,0.136,-0.564,-0.427,0.564,-0.427,-85.944,0.956,1.183,0.229,-0.797,-0.604,0.000,0.000,-89.954,1.047,1.157,0.229,-0.797,-0.604,0.000,0.000,0.000,1.025,1.078,0.229,-0.991,0.137,0.000,0.000,False,False
17.591,0.275,0.958,0.120,0.000,-0.570,0.000,-0.821,20.444,0.228,0.958,0.247,-0.310,-0.528,0.215,-0.761,-45.660,0.548,1.262,0.239,-0.637,-0.360,0.442,-0.519,57.303,0.908,1.183,0.373,-0.655,-0.344,0.455,-0.496,-85.943,0.875,1.183,0.460,-0.784,-0.594,-0.141,-0.108,-89.936,0.961,1.157,0.492,-0.784,-0.594,-0.141,-0.107,0.008,0.940,1.078,0.484,-0.975,0.135,-0.176,0.024,False,False
17.694,0.275,0.958,0.120,0.000,-0.415,0.000,-0.910,40.905,0.186,0.958,0.223,-0.343,-0.385,0.157,-0.842,-45.659,0.489,1.262,0.327,-0.705,-0.262,0.322,-0.575,57.303,0.779,1.183,0.578,-0.725,-0.251,0.331,-0.549,-85.943,0.718,1.183,0.649,-0.747,-0.566,-0.278,-0.211,-89.936,0.787,1.157,0.708,-0.747,-0.566,-0.278,-0.211,0.008,0.770,1.078,0.694,-0.928,0.128,-0.346,0.047,False,False
17.796,0.275,0.958,0.120,0.000,-0.247,0.000,-0.969,61.366,0.156,0.958,0.185,-0.366,-0.229,0.093,-0.897,-45.659,0.403,1.262,0.388,-0.751,-0.156,0.192,-0.612,57.303,0.587,1.183,0.726,-0.772,-0.149,0.197,-0.585,-85.943,0.506,1.183,0.770,-0.686,-0.519,-0.406,-0.308,-89.936,0.549,1.157,0.850,-0.686,-0.519,-0.406,-0.308,0.008,0.539,1.078,0.831,-0.852,0.118,-0.505,0.069,False,False
17.899,0.275,0.958,0.120,0.000,-0.071,0.000,-0.997,81.828,0.141,0.958,0.139,-0.376,-0.066,0.027,-0.924,-45.659,0.301,1.262,0.416,-0.773,-0.045,0.055,-0.630,57.303,0.356,1.183,0.797,-0.795,-0.043,0.057,-0.602,-85.943,0.264,1.183,0.810,-0.603,-0.456,-0.522,-0.396,-89.936,0.277,1.157,0.900,-0.603,-0.456,-0.522,-0.396,0.008,0.273,1.078,0.878,-0.749,0.104,-0.649,0.089,False,False
18.002,0.275,0.958,0.120,0.000,0.142,0.000,-0.990,106.381,0.145,0.958,0.082,-0.374,0.132,-0.054,-0.917,-45.659,0.176,1.262,0.400,-0.767,0.090,-0.110,-0.625,57.303,0.067,1.183,0.769,-0.789,0.086,-0.114,-0.598,-85.943,-0.022,1.183,0.743,-0.478,-0.362,-0.638,-0.484,-89.936,-0.048,1.157,0.830,-0.478,-0.362,-0.638,-0.484,0.008,-0.041,1.078,0.809,-0.594,0.082,-0.793,0.109,False,False
18.106,0.275,0.958,0.120,0.000,0.316,0.000,-0.949,126.843,0.166,0.958,0.039,-0.358,0.293,-0.119,-0.879,-45.659,0.084,1.262,0.348,-0.735,0.200,-0.245,-0.599,57.303,-0.146,1.183,0.655,-0.756,0.191,-0.252,-0.573,-85.943,-0.221,1.183,0.600,-0.357,-0.270,-0.713,-0.540,-89.936,-0.275,1.157,0.673,-0.357,-0.270,-0.713,-0.540,0.008,-0.262,1.078,0.655,-0.443,0.062,-0.886,0.122,False,False
18.209,0.275,0.958,0.120,0.000,0.479,0.000,-0.878,147.304,0.202,0.958,0.006,-0.331,0.444,-0.181,-0.813,-45.659,0.016,1.262,0.267,-0.680,0.303,-0.372,-0.554,57.303,-0.307,1.183,0.474,-0.699,0.290,-0.382,-0.530,-85.943,-0.357,1.183,0.396,-0.225,-0.170,-0.765,-0.580,-89.936,-0.434,1.157,0.445,-0.225,-0.170,-0.765,-0.580,0.008,-0.415,1.078,0.433,-0.279,0.039,-0.951,0.131,False,False
18.312,0.275,0.958,0.120,0.000,0.628,0.000,-0.778,167.765,0.246,0.958,-0.013,-0.294,0.581,-0.237,-0.721,-45.659,-0.019,1.262,0.167,-0.603,0.397,-0.487,-0.492,57.303,-0.394,1.183,0.249,-0.620,0.379,-0.500,-0.470,-85.943,-0.414,1.183,0.158,-0.085,-0.064,-0.792,-0.600,-89.936,-0.503,1.157,0.177,-0.085,-0.064,-0.792,-0.600,0.008,-0.481,1.078,0.172,-0.106,0.015,-0.985,0.136,False,False
18.414,0.275,0.958,0.120,0.000,-0.751,0.000,0.661,187.275,0.292,0.958,-0.015,0.249,-0.695,0.283,0.612,-45.659,-0.018,1.262,0.066,0.512,-0.474,0.582,0.417,57.303,-0.399,1.183,0.018,0.527,-0.453,0.598,0.399,-85.943,-0.387,1.183,-0.075,-0.050,-0.039,0.795,0.603,-89.949,-0.477,1.157,-0.086,-0.050,-0.039,0.795,0.603,0.003,-0.455,1.078,-0.083,-0.063,0.008,0.989,-0.136,False,False
18.515,0.275,0.958,0.120,0.000,-0.828,0.000,0.560,201.858,0.326,0.958,-0.006,0.211,-0.767,0.313,0.519,-45.660,0.005,1.262,-0.006,0.434,-0.523,0.642,0.354,57.303,-0.351,1.183,-0.149,0.447,-0.500,0.660,0.338,-85.943,-0.317,1.183,-0.235,-0.151,-0.115,0.783,0.593,-89.954,-0.401,1.157,-0.269,-0.151,-0.115,0.783,0.593,0.000,-0.380,1.078,-0.261,-0.188,0.026,0.973,-0.134,False,False
18.616,0.275,0.958,0.120,0.000,-0.853,0.000,0.523,206.996,0.337,0.958,-0.001,0.197,-0.790,0.322,0.484,-45.657,0.018,1.262,-0.029,0.405,-0.539,0.661,0.330,57.304,-0.325,1.183,-0.204,0.416,-0.515,0.680,0.316,-85.944,-0.282,1.183,-0.286,-0.186,-0.141,0.775,0.587,-89.954,-0.364,1.157,-0.328,-0.186,-0.141,0.775,0.587,0.000,-0.344,1.078,-0.318,-0.231,0.032,0.963,-0.133,False,False
18.717,0.275,0.958,0.120,0.000,-0.861,0.000,0.508,208.890,0.341,0.958,0.001,0.192,-0.797,0.325,0.471,-45.655,0.023,1.262,-0.038,0.394,-0.544,0.668,0.321,57.304,-0.314,1.183,-0.223,0.405,-0.520,0.686,0.307,-85.944,-0.269,1.183,-0.305,-0.199,-0.151,0.772,0.585,-89.954,-0.349,1.157,-0.349,-0.199,-0.151,0.772,0.585,0.000,-0.329,1.078,-0.338,-0.247,0.034,0.959,-0.132,False,False
18.819,0.275,0.958,0.120,0.000,-0.864,0.000,0.503,209.581,0.342,0.958,0.002,0.190,-0.800,0.326,0.466,-45.655,0.025,1.262,-0.041,0.390,-0.546,0.670,0.318,57.303,-0.309,1.183,-0.230,0.401,-0.522,0.689,0.304,-85.944,-0.264,1.183,-0.311,-0.203,-0.154,0.771,0.584,-89.954,-0.343,1.157,-0.356,-0.203,-0.154,0.771,0.584,0.000,-0.323,1.078,-0.345,-0.253,0.034,0.958,-0.132,False,False
18.920,0.275,0.958,0.120,0.000,-0.865,0.000,0.501,209.832,0.343,0.958,0.002,0.189,-0.801,0.327,0.464,-45.656,0.025,1.262,-0.042,0.389,-0.547,0.671,0.317,57.303,-0.308,1.183,-0.233,0.400,-0.523,0.690,0.303,-85.944,-0.262,1.183,-0.314,-0.205,-0.156,0.770,0.583,-89.954,-0.341,1.157,-0.359,-0.205,-0.156,0.770,0.583,0.000,-0.321,1.078,-0.348,-0.255,0.035,0.957,-0.132,False,False
19.021,0.275,0.958,0.120,0.000,-0.866,0.000,0.501,209.934,0.343,0.958,0.002,0.189,-0.802,0.327,0.463,-45.656,0.026,1.262,-0.042,0.388,-0.547,0.671,0.316,57.303,-0.307,1.183,-0.234,0.399,-0.523,0.690,0.302,-85.944,-0.261,1.183,-0.315,-0.206,-0.156,0.770,0.583,-89.954,-0.340,1.157,-0.360,-0.206,-0.156,0.770,0.583,0.000,-0.321,1.078,-0.349,-0.256,0.035,0.957,-0.132,False,False
19.122,0.275,0.958,0.120,0.000,-0.866,0.000,0.500,209.961,0.343,0.958,0.002,0.189,-0.802,0.327,0.463,-45.656,0.026,1.262,-0.042,0.388,-0.547,0.671,0.316,57.303,-0.307,1.183,-0.234,0.399,-0.523,0.690,0.302,-85.944,-0.261,1.183,-0.315,-0.206,-0.156,0.770,0.583,-89.954,-0.340,1.157,-0.360,-0.206,-0.156,0.770,0.583,0.000,-0.320,1.078,-0.349,-0.256,0.035,0.957,-0.132,False,False
19.224,0.275,0.958,0.120,0.000,-0.866,0.000,0.500,209.971,0.343,0.958,0.002,0.189,-0.802,0.327,0.463,-45.656,0.026,1.262,-0.042,0.388,-0.547,0.671,0.316,57.303,-0.307,1.183,-0.234,0.399,-0.523,0.690,0.302,-85.944,-0.261,1.183,-0.315,-0.206,-0.156,0.770,0.583,-89.954,-0.340,1.157,-0.360,-0.206,-0.156,0.770,0.583,0.000,-0.320,1.078,-0.349,-0.256,0.035,0.957,-0.132,False,False
19.328,0.275,0.958,0.120,0.000,-0.866,0.000,0.500,209.975,0.343,0.958,0.002,0.189,-0.802,0.327,0.463,-45.656,0.026,1.262,-0.042,0.388,-0.547,0.671,0.316,57.303,-0.307,1.183,-0.234,0.399,-0.523,0.690,0.302,-85.944,-0.261,1.183,-0.315,-0.206,-0.156,0.770,0.583,-89.954,-0.340,1.157,-0.360,-0.206,-0.156,0.770,0.583,0.000,-0.320,1.078,-0.349,-0.256,0.035,0.957,-0.132,False,False
19.429,0.275,0.958,0.120,0.000,-0.866,0.000,0.500,209.976,0.343,0.958,0.002,0.189,-0.802,0.327,0.463,-45.656,0.026,1.262,-0.042,0.388,-0.547,0.671,0.316,57.303,-0.307,1.183,-0.234,0.399,-0.523,0.690,0.302,-85.944,-0.261,1.183,-0.315,-0.206,-0.156,0.770,0.583,-89.954,-0.340,1.157,-0.360,-0.206,-0.156,0.770,0.583,0.000,-0.320,1.078,-0.349,-0.256,0.035,0.957,-0.132,False,False
19.530,0.275,0.958,0.120,0.000,-0.866,0.000,0.500,209.976,0.343,0.958,0.002,0.189,-0.802,0.327,0.463,-45.656,0.026,1.262,-0.042,0.388,-0.547,0.671,0.316,57.303,-0.307,1.183,-0.234,0.399,-0.523,0.690,0.302,-85.944,-0.261,1.183,-0.315,-0.206,-0.156,0.770,0.583,-89.954,-0.339,1.157,-0.360,-0.206,-0.156,0.770,0.583,0.000,-0.320,1.078,-0.349,-0.256,0.035,0.957,-0.132,False,False
19.631,0.275,0.958,0.120,0.000,-0.866,0.000,0.500,209.977,0.343,0.958,0.002,0.189,-0.802,0.327,0.463,-45.656,0.026,1.262,-0.042,0.388,-0.547,0.671,0.316,57.303,-0.307,1.183,-0.234,0.399,-0.523,0.690,0.302,-85.944,-0.261,1.183,-0.315,-0.206,-0.156,0.770,0.583,-89.954,-0.339,1.157,-0.360,-0.206,-0.156,0.770,0.583,0.000,-0.320,1.078,-0.349,-0.256,0.035,0.957,-0.132,False,False
19.732,0.275,0.958,0.120,0.000,-0.866,0.000,0.500,209.977,0.343,0.958,0.002,0.189,-0.802,0.327,0.463,-45.656,0.026,1.262,-0.042,0.388,-0.547,0.671,0.316,57.303,-0.307,1.183,-0.234,0.399,-0.523,0.690,0.302,-85.944,-0.261,1.183,-0.315,-0.206,-0.156,0.770,0.583,-89.954,-0.339,1.157,-0.360,-0.206,-0.156,0.770,0.583,0.000,-0.320,1.078,-0.349,-0.256,0.035,0.957,-0.132,False,False
19.835,0.275,0.958,0.120,0.000,-0.866,0.000,0.500,209.977,0.343,0.958,0.002,0.189,-0.802,0.327,0.463,-45.656,0.026,1.262,-0.042,0.388,-0.547,0.671,0.316,57.303,-0.307,1.183,-0.234,0.399,-0.523,0.690,0.302,-85.944,-0.261,1.183,-0.315,-0.206,-0.156,0.770,0.583,-89.954,-0.339,1.157,-0.360,-0.206,-0.156,0.770,0.583,0.000,-0.320,1.078,-0.349,-0.256,0.035,0.957,-0.132,False,False
19.935,0.275,0.958,0.120,0.000,-0.866,0.000,0.500,209.977,0.343,0.958,0.002,0.189,-0.802,0.327,0.463,-45.656,0.026,1.262,-0.042,0.388,-0.547,0.671,0.316,57.303,-0.307,1.183,-0.234,0.399,-0.523,0.690,0.302,-85.944,-0.261,1.183,-0.315,-0.206,-0.156,0.770,0.583,-89.954,-0.339,1.157,-0.360,-0.206,-0.156,0.770,0.583,0.000,-0.320,1.078,-0.349,-0.256,0.035,0.957,-0.132,False,False
20.037,0.275,0.958,0.120,0.000,-0.866,0.000,0.500,209.977,0.343,0.958,0.002,0.189,-0.802,0.327,0.463,-45.656,0.026,1.262,-0.042,0.388,-0.547,0.671,0.316,57.303,-0.307,1.183,-0.234,0.399,-0.523,0.690,0.302,-85.944,-0.261,1.183,-0.315,-0.206,-0.156,0.770,0.583,-89.954,-0.339,1.157,-0.360,-0.206,-0.156,0.770,0.583,0.000,-0.320,1.078,-0.349,-0.256,0.035,0.957,-0.132,False,False
20.138,0.275,0.958,0.120,0.000,-0.866,0.000,0.500,209.977,0.343,0.958,0.002,0.189,-0.802,0.327,0.463,-45.656,0.026,1.262,-0.042,0.388,-0.547,0.671,0.316,57.303,-0.307,1.183,-0.234,0.399,-0.523,0.690,0.302,-85.944,-0.261,1.183,-0.315,-0.206,-0.156,0.770,0.583,-89.954,-0.339,1.157,-0.360,-0.206,-0.156,0.770,0.583,0.000,-0.320,1.078,-0.349,-0.256,0.035,0.957,-0.132,False,False
20.239,0.275,0.958,0.120,0.000,-0.866,0.000,0.500,209.977,0.343,0.958,0.002,0.189,-0.802,0.327,0.463,-45.656,0.026,1.262,-0.042,0.388,-0.547,0.671,0.316,57.303,-0.307,1.183,-0.234,0.399,-0.523,0.690,0.302,-85.944,-0.261,1.183,-0.315,-0.206,-0.156,0.770,0.583,-89.954,-0.339,1.157,-0.360,-0.206,-0.156,0.770,0.583,0.000,-0.320,1.078,-0.349,-0.256,0.035,0.957,-0.132,False,False
20.345,0.275,0.958,0.120,0.000,-0.866,0.000,0.500,209.977,0.343,0.958,0.002,0.189,-0.802,0.327,0.463,-45.656,0.026,1.262,-0.042,0.388,-0.547,0.671,0.316,57.303,-0.307,1.183,-0.234,0.399,-0.523,0.690,0.302,-85.944,-0.261,1.183,-0.315,-0.206,-0.156,0.770,0.583,-89.954,-0.339,1.157,-0.360,-0.206,-0.156,0.770,0.583,0.000,-0.320,1.078,-0.349,-0.256,0.035,0.957,-0.132,False,False
20.447,0.275,0.958,0.120,0.000,-0.866,0.000,0.500,209.977,0.343,0.958,0.002,0.189,-0.802,0.327,0.463,-45.656,0.026,1.262,-0.042,0.388,-0.547,0.671,0.316,57.303,-0.307,1.183,-0.234,0.399,-0.523,0.690,0.302,-85.944,-0.261,1.183,-0.315,-0.206,-0.156,0.770,0.583,-89.954,-0.339,1.157,-0.360,-0.206,-0.156,0.770,0.583,0.000,-0.320,1.078,-0.349,-0.256,0.035,0.957,-0.132,False,False
20.550,0.275,0.958,0.120,0.000,-0.866,0.000,0.500,209.977,0.343,0.958,0.002,0.189,-0.802,0.327,0.463,-45.656,0.026,1.262,-0.042,0.388,-0.547,0.671,0.316,57.303,-0.307,1.183,-0.234,0.399,-0.523,0.690,0.302,-85.944,-0.261,1.183,-0.315,-0.206,-0.156,0.770,0.583,-89.954,-0.339,1.157,-0.360,-0.206,-0.156,0.770,0.583,0.000,-0.320,1.078,-0.349,-0.256,0.035,0.957,-0.132,False,False
20.651,0.275,0.958,0.120,0.000,-0.866,0.000,0.500,209.977,0.343,0.958,0.002,0.189,-0.802,0.327,0.463,-45.656,0.026,1.262,-0.042,0.388,-0.547,0.671,0.316,57.303,-0.307,1.183,-0.234,0.399,-0.523,0.690,0.302,-85.944,-0.261,1.183,-0.315,-0.206,-0.156,0.770,0.583,-89.954,-0.339,1.157,-0.360,-0.206,-0.156,0.770,0.583,0.000,-0.320,1.078,-0.349,-0.256,0.035,0.957,-0.132,False,False
20.752,0.275,0.958,0.120,0.000,-0.866,0.000,0.500,209.977,0.343,0.958,0.002,0.189,-0.802,0.327,0.463,-45.656,0.026,1.262,-0.042,0.388,-0.547,0.671,0.316,57.303,-0.307,1.183,-0.234,0.399,-0.523,0.690,0.302,-85.944,-0.261,1.183,-0.315,-0.206,-0.156,0.770,0.583,-89.954,-0.339,1.157,-0.360,-0.206,-0.156,0.770,0.583,0.000,-0.320,1.078,-0.349,-0.256,0.035,0.957,-0.132,False,False
20.856,0.275,0.958,0.120,0.000,-0.866,0.000,0.500,209.977,0.343,0.958,0.002,0.189,-0.802,0.327,0.463,-45.656,0.026,1.262,-0.042,0.388,-0.547,0.671,0.316,57.303,-0.307,1.183,-0.234,0.399,-0.523,0.690,0.302,-85.944,-0.261,1.183,-0.315,-0.206,-0.156,0.770,0.583,-89.954,-0.339,1.157,-0.360,-0.206,-0.156,0.770,0.583,0.000,-0.320,1.078,-0.349,-0.256,0.035,0.957,-0.132,False,False
20.960,0.275,0.958,0.120,0.000,-0.866,0.000,0.500,209.977,0.343,0.958,0.002,0.189,-0.802,0.327,0.463,-45.656,0.026,1.262,-0.042,0.388,-0.547,0.671,0.316,57.303,-0.307,1.183,-0.234,0.399,-0.523,0.690,0.302,-85.944,-0.261,1.183,-0.315,-0.206,-0.156,0.770,0.583,-89.954,-0.339,1.157,-0.360,-0.206,-0.156,0.770,0.583,0.000,-0.320,1.078,-0.349,-0.256,0.035,0.957,-0.132,False,False
21.060,0.275,0.958,0.120,0.000,-0.866,0.000,0.500,209.977,0.343,0.958,0.002,0.189,-0.802,0.327,0.463,-45.656,0.026,1.262,-0.042,0.388,-0.547,0.671,0.316,57.303,-0.307,1.183,-0.234,0.399,-0.523,0.690,0.302,-85.944,-0.261,1.183,-0.315,-0.206,-0.156,0.770,0.583,-89.954,-0.339,1.157,-0.360,-0.206,-0.156,0.770,0.583,0.000,-0.320,1.078,-0.349,-0.256,0.035,0.957,-0.132,False,False
21.164,0.275,0.958,0.120,0.000,-0.866,0.000,0.500,209.977,0.343,0.958,0.002,0.189,-0.802,0.327,0.463,-45.656,0.026,1.262,-0.042,0.388,-0.547,0.671,0.316,57.303,-0.307,1.183,-0.234,0.399,-0.523,0.690,0.302,-85.944,-0.261,1.183,-0.315,-0.206,-0.156,0.770,0.583,-89.954,-0.339,1.157,-0.360,-0.206,-0.156,0.770,0.583,0.000,-0.320,1.078,-0.349,-0.256,0.035,0.957,-0.132,False,False
21.266,0.275,0.958,0.120,0.000,-0.866,0.000,0.500,209.977,0.343,0.958,0.002,0.189,-0.802,0.327,0.463,-45.656,0.026,1.262,-0.042,0.388,-0.547,0.671,0.316,57.303,-0.307,1.183,-0.234,0.399,-0.523,0.690,0.302,-85.944,-0.261,1.183,-0.315,-0.206,-0.156,0.770,0.583,-89.954,-0.339,1.157,-0.360,-0.206,-0.156,0.770,0.583,0.000,-0.320,1.078,-0.349,-0.256,0.035,0.957,-0.132,False,False
21.369,0.275,0.958,0.120,0.000,-0.866,0.000,0.500,209.977,0.343,0.958,0.002,0.189,-0.802,0.327,0.463,-45.656,0.026,1.262,-0.042,0.388,-0.547,0.671,0.316,57.303,-0.307,1.183,-0.234,0.399,-0.523,0.690,0.302,-85.944,-0.261,1.183,-0.315,-0.206,-0.156,0.770,0.583,-89.954,-0.339,1.157,-0.360,-0.206,-0.156,0.770,0.583,0.000,-0.320,1.078,-0.349,-0.256,0.035,0.957,-0.132,False,False
21.473,0.275,0.958,0.120,0.000,-0.866,0.000,0.500,209.977,0.343,0.958,0.002,0.189,-0.802,0.327,0.463,-45.656,0.026,1.262,-0.042,0.388,-0.547,0.671,0.316,57.303,-0.307,1.183,-0.234,0.399,-0.523,0.690,0.302,-85.944,-0.261,1.183,-0.315,-0.206,-0.156,0.770,0.583,-89.954,-0.339,1.157,-0.360,-0.206,-0.156,0.770,0.583,0.000,-0.320,1.078,-0.349,-0.256,0.035,0.957,-0.132,False,False
21.576,0.275,0.958,0.120,0.000,-0.866,0.000,0.500,209.977,0.343,0.958,0.002,0.189,-0.802,0.327,0.463,-45.656,0.026,1.262,-0.042,0.388,-0.547,0.671,0.316,57.303,-0.307,1.183,-0.234,0.399,-0.523,0.690,0.302,-85.944,-0.261,1.183,-0.315,-0.206,-0.156,0.770,0.583,-89.954,-0.339,1.157,-0.360,-0.206,-0.156,0.770,0.583,0.000,-0.320,1.078,-0.349,-0.256,0.035,0.957,-0.132,False,False
21.679,0.275,0.958,0.120,0.000,-0.866,0.000,0.500,209.977,0.343,0.958,0.002,0.189,-0.802,0.327,0.463,-45.656,0.026,1.262,-0.042,0.388,-0.547,0.671,0.316,57.303,-0.307,1.183,-0.234,0.399,-0.523,0.690,0.302,-85.944,-0.261,1.183,-0.315,-0.206,-0.156,0.770,0.583,-89.954,-0.339,1.157,-0.360,-0.206,-0.156,0.770,0.583,0.000,-0.320,1.078,-0.349,-0.256,0.035,0.957,-0.132,False,False
21.780,0.275,0.958,0.120,0.000,-0.866,0.000,0.500,209.977,0.343,0.958,0.002,0.189,-0.802,0.327,0.463,-45.656,0.026,1.262,-0.042,0.388,-0.547,0.671,0.316,57.303,-0.307,1.183,-0.234,0.399,-0.523,0.690,0.302,-85.944,-0.261,1.183,-0.315,-0.206,-0.156,0.770,0.583,-89.954,-0.339,1.157,-0.360,-0.206,-0.156,0.770,0.583,0.000,-0.320,1.078,-0.349,-0.256,0.035,0.957,-0.132,False,False
21.883,0.275,0.958,0.120,0.000,-0.866,0.000,0.500,209.977,0.343,0.958,0.002,0.189,-0.802,0.327,0.463,-45.656,0.026,1.262,-0.042,0.388,-0.547,0.671,0.316,57.303,-0.307,1.183,-0.234,0.399,-0.523,0.690,0.302,-85.944,-0.261,1.183,-0.315,-0.206,-0.156,0.770,0.583,-89.954,-0.339,1.157,-0.360,-0.206,-0.156,0.770,0.583,0.000,-0.320,1.078,-0.349,-0.256,0.035,0.957,-0.132,False,False
21.983,0.275,0.958,0.120,0.000,-0.866,0.000,0.500,209.977,0.343,0.958,0.002,0.189,-0.802,0.327,0.463,-45.656,0.026,1.262,-0.042,0.388,-0.547,0.671,0.316,57.303,-0.307,1.183,-0.234,0.399,-0.523,0.690,0.302,-85.944,-0.261,1.183,-0.315,-0.206,-0.156,0.770,0.583,-89.954,-0.339,1.157,-0.360,-0.206,-0.156,0.770,0.583,0.000,-0.320,1.078,-0.349,-0.256,0.035,0.957,-0.132,False,False
22.083,0.275,0.958,0.120,0.000,-0.866,0.000,0.500,209.977,0.343,0.958,0.002,0.189,-0.802,0.327,0.463,-45.656,0.026,1.262,-0.042,0.388,-0.547,0.671,0.316,57.303,-0.307,1.183,-0.234,0.399,-0.523,0.690,0.302,-85.944,-0.261,1.183,-0.315,-0.206,-0.156,0.770,0.583,-89.954,-0.339,1.157,-0.360,-0.206,-0.156,0.770,0.583,0.000,-0.320,1.078,-0.349,-0.256,0.035,0.957,-0.132,False,False
22.188,0.275,0.958,0.120,0.000,-0.866,0.000,0.500,209.977,0.343,0.958,0.002,0.189,-0.802,0.327,0.463,-45.656,0.026,1.262,-0.042,0.388,-0.547,0.671,0.316,57.303,-0.307,1.183,-0.234,0.399,-0.523,0.690,0.302,-85.944,-0.261,1.183,-0.315,-0.206,-0.156,0.770,0.583,-89.954,-0.339,1.157,-0.360,-0.206,-0.156,0.770,0.583,0.000,-0.320,1.078,-0.349,-0.256,0.035,0.957,-0.132,False,False
22.291,0.275,0.958,0.120,0.000,-0.866,0.000,0.500,209.977,0.343,0.958,0.002,0.189,-0.802,0.327,0.463,-45.656,0.026,1.262,-0.042,0.388,-0.547,0.671,0.316,57.303,-0.307,1.183,-0.234,0.399,-0.523,0.690,0.302,-85.944,-0.261,1.183,-0.315,-0.206,-0.156,0.770,0.583,-89.954,-0.339,1.157,-0.360,-0.206,-0.156,0.770,0.583,0.000,-0.320,1.078,-0.349,-0.256,0.035,0.957,-0.132,False,False
22.392,0.275,0.958,0.120,0.000,-0.866,0.000,0.500,209.977,0.343,0.958,0.002,0.189,-0.802,0.327,0.463,-45.656,0.026,1.262,-0.042,0.388,-0.547,0.671,0.316,57.303,-0.307,1.183,-0.234,0.399,-0.523,0.690,0.302,-85.944,-0.261,1.183,-0.315,-0.206,-0.156,0.770,0.583,-89.954,-0.339,1.157,-0.360,-0.206,-0.156,0.770,0.583,0.000,-0.320,1.078,-0.349,-0.256,0.035,0.957,-0.132,False,False
22.495,0.275,0.958,0.120,0.000,-0.866,0.000,0.500,209.977,0.343,0.958,0.002,0.189,-0.802,0.327,0.463,-45.656,0.026,1.262,-0.042,0.388,-0.547,0.671,0.316,57.303,-0.307,1.183,-0.234,0.399,-0.523,0.690,0.302,-85.944,-0.261,1.183,-0.315,-0.206,-0.156,0.770,0.583,-89.954,-0.339,1.157,-0.360,-0.206,-0.156,0.770,0.583,0.000,-0.320,1.078,-0.349,-0.256,0.035,0.957,-0.132,False,False
22.597,0.275,0.958,0.120,0.000,-0.866,0.000,0.500,209.977,0.343,0.958,0.002,0.189,-0.802,0.327,0.463,-45.656,0.026,1.262,-0.042,0.388,-0.547,0.671,0.316,57.303,-0.307,1.183,-0.234,0.399,-0.523,0.690,0.302,-85.944,-0.261,1.183,-0.315,-0.206,-0.156,0.770,0.583,-89.954,-0.339,1.157,-0.360,-0.206,-0.156,0.770,0.583,0.000,-0.320,1.078,-0.349,-0.256,0.035,0.957,-0.132,False,False
22.700,0.275,0.958,0.120,0.000,-0.866,0.000,0.501,209.903,0.343,0.958,0.002,0.069,-0.857,0.118,0.496,-74.263,0.183,1.367,0.049,0.298,-0.695,0.515,0.402,57.341,-0.142,1.481,-0.139,0.312,-0.677,0.540,0.392,-85.943,-0.096,1.481,-0.219,-0.161,-0.202,0.602,0.755,-89.954,-0.176,1.502,-0.265,-0.161,-0.202,0.602,0.755,0.000,-0.192,1.422,-0.274,-0.256,-0.029,0.960,0.108,False,False
22.802,0.275,0.958,0.120,0.000,-0.866,0.000,0.500,210.014,0.343,0.958,0.002,0.047,-0.862,0.082,0.498,-79.172,0.214,1.376,0.066,0.280,-0.717,0.485,0.414,57.294,-0.101,1.522,-0.116,0.294,-0.700,0.510,0.404,-85.944,-0.055,1.522,-0.197,-0.152,-0.210,0.569,0.780,-89.954,-0.133,1.551,-0.242,-0.152,-0.210,0.569,0.780,0.000,-0.155,1.472,-0.254,-0.256,-0.040,0.954,0.150,False,False
22.905,0.275,0.958,0.120,0.000,-0.866,0.000,0.500,210.000,0.343,0.958,0.002,0.045,-0.863,0.077,0.498,-79.733,0.217,1.376,0.068,0.278,-0.720,0.482,0.416,57.304,-0.097,1.526,-0.113,0.293,-0.702,0.507,0.405,-85.944,-0.050,1.526,-0.194,-0.151,-0.210,0.565,0.783,-89.954,-0.128,1.556,-0.239,-0.151,-0.210,0.565,0.783,0.000,-0.150,1.478,-0.252,-0.256,-0.042,0.954,0.154,False,False
23.009,0.275,0.958,0.120,0.000,-0.866,0.000,0.500,209.996,0.343,0.958,0.002,0.044,-0.863,0.077,0.498,-79.814,0.218,1.376,0.068,0.278,-0.720,0.481,0.416,57.305,-0.096,1.527,-0.113,0.292,-0.703,0.506,0.406,-85.944,-0.049,1.527,-0.193,-0.151,-0.210,0.565,0.784,-89.954,-0.127,1.557,-0.238,-0.151,-0.210,0.565,0.784,0.000,-0.150,1.479,-0.251,-0.255,-0.042,0.953,0.155,False,False
23.110,0.275,0.958,0.120,0.000,-0.866,0.000,0.500,209.995,0.343,0.958,0.002,0.044,-0.863,0.077,0.498,-79.826,0.218,1.376,0.068,0.278,-0.720,0.481,0.416,57.305,-0.096,1.527,-0.113,0.292,-0.703,0.506,0.406,-85.944,-0.049,1.527,-0.193,-0.151,-0.210,0.565,0.784,-89.954,-0.127,1.557,-0.238,-0.151,-0.210,0.565,0.784,0.000,-0.150,1.479,-0.251,-0.255,-0.042,0.953,0.155,False,False
23.211,0.275,0.958,0.120,0.000,-0.866,0.000,0.500,209.995,0.343,0.958,0.002,0.044,-0.863,0.077,0.498,-79.828,0.218,1.376,0.068,0.278,-0.720,0.481,0.416,57.305,-0.096,1.527,-0.113,0.292,-0.703,0.506,0.406,-85.944,-0.049,1.527,-0.193,-0.151,-0.210,0.565,0.784,-89.954,-0.127,1.557,-0.238,-0.151,-0.210,0.565,0.784,0.000,-0.150,1.479,-0.251,-0.255,-0.042,0.953,0.155,False,False
23.314,0.275,0.958,0.120,0.000,-0.866,0.000,0.500,209.995,0.343,0.958,0.002,0.044,-0.863,0.077,0.498,-79.828,0.218,1.376,0.068,0.278,-0.720,0.481,0.416,57.305,-0.096,1.527,-0.113,0.292,-0.703,0.506,0.406,-85.944,-0.049,1.527,-0.193,-0.151,-0.210,0.565,0.784,-89.954,-0.127,1.557,-0.238,-0.151,-0.210,0.565,0.784,0.000,-0.150,1.479,-0.251,-0.255,-0.042,0.953,0.155,False,False
23.418,0.275,0.958,0.120,0.000,-0.866,0.000,0.500,209.995,0.343,0.958,0.002,0.044,-0.863,0.077,0.498,-79.828,0.218,1.376,0.068,0.278,-0.720,0.481,0.416,57.305,-0.096,1.527,-0.113,0.292,-0.703,0.506,0.406,-85.944,-0.049,1.527,-0.193,-0.151,-0.210,0.565,0.784,-89.954,-0.127,1.557,-0.238,-0.151,-0.210,0.565,0.784,0.000,-0.150,1.479,-0.251,-0.255,-0.042,0.953,0.155,False,False
23.527,0.275,0.958,0.120,0.000,-0.866,0.000,0.500,209.995,0.343,0.958,0.002,0.044,-0.863,0.077,0.498,-79.828,0.218,1.376,0.068,0.278,-0.720,0.481,0.416,57.305,-0.096,1.527,-0.113,0.292,-0.703,0.506,0.406,-85.944,-0.049,1.527,-0.193,-0.151,-0.210,0.565,0.784,-89.954,-0.127,1.557,-0.238,-0.151,-0.210,0.565,0.784,0.000,-0.150,1.479,-0.251,-0.255,-0.042,0.953,0.155,False,False
23.630,0.275,0.958,0.120,0.000,-0.866,0.000,0.500,209.995,0.343,0.958,0.002,0.044,-0.863,0.077,0.498,-79.828,0.218,1.376,0.068,0.278,-0.720,0.481,0.416,57.305,-0.096,1.527,-0.113,0.292,-0.703,0.506,0.406,-85.944,-0.049,1.527,-0.193,-0.151,-0.210,0.565,0.784,-89.954,-0.127,1.557,-0.238,-0.151,-0.210,0.565,0.784,0.000,-0.150,1.479,-0.251,-0.255,-0.042,0.953,0.155,False,False
23.732,0.275,0.958,0.120,0.000,-0.866,0.000,0.500,209.995,0.343,0.958,0.002,0.044,-0.863,0.077,0.498,-79.828,0.218,1.376,0.068,0.278,-0.720,0.481,0.416,57.305,-0.096,1.527,-0.113,0.292,-0.703,0.506,0.406,-85.944,-0.049,1.527,-0.193,-0.151,-0.210,0.565,0.784,-89.954,-0.127,1.557,-0.238,-0.151,-0.210,0.565,0.784,0.000,-0.150,1.479,-0.251,-0.255,-0.042,0.953,0.155,False,False
23.833,0.275,0.958,0.120,0.000,-0.866,0.000,0.500,209.995,0.343,0.958,0.002,0.044,-0.863,0.077,0.498,-79.828,0.218,1.376,0.068,0.278,-0.720,0.481,0.416,57.305,-0.096,1.527,-0.113,0.292,-0.703,0.506,0.406,-85.944,-0.049,1.527,-0.193,-0.151,-0.210,0.565,0.784,-89.954,-0.127,1.557,-0.238,-0.151,-0.210,0.565,0.784,0.000,-0.150,1.479,-0.251,-0.255,-0.042,0.953,0.155,False,False
23.933,0.275,0.958,0.120,0.000,-0.866,0.000,0.500,209.995,0.343,0.958,0.002,0.044,-0.863,0.077,0.498,-79.828,0.218,1.376,0.068,0.278,-0.720,0.481,0.416,57.305,-0.096,1.527,-0.113,0.292,-0.703,0.506,0.406,-85.944,-0.049,1.527,-0.193,-0.151,-0.210,0.565,0.784,-89.954,-0.127,1.557,-0.238,-0.151,-0.210,0.565,0.784,0.000,-0.150,1.479,-0.251,-0.255,-0.042,0.953,0.155,False,False
24.036,0.275,0.958,0.120,0.000,-0.866,0.000,0.500,209.995,0.343,0.958,0.002,0.044,-0.863,0.077,0.498,-79.828,0.218,1.376,0.068,0.278,-0.720,0.481,0.416,57.305,-0.096,1.527,-0.113,0.292,-0.703,0.506,0.406,-85.944,-0.049,1.527,-0.193,-0.151,-0.210,0.565,0.784,-89.954,-0.127,1.557,-0.238,-0.151,-0.210,0.565,0.784,0.000,-0.150,1.479,-0.251,-0.255,-0.042,0.953,0.155,False,False
24.138,0.275,0.958,0.120,0.000,-0.866,0.000,0.500,209.995,0.343,0.958,0.002,0.044,-0.863,0.077,0.498,-79.828,0.218,1.376,0.068,0.278,-0.720,0.481,0.416,57.305,-0.096,1.527,-0.113,0.292,-0.703,0.506,0.406,-85.944,-0.049,1.527,-0.193,-0.151,-0.210,0.565,0.784,-89.954,-0.127,1.557,-0.238,-0.151,-0.210,0.565,0.784,0.000,-0.150,1.479,-0.251,-0.255,-0.042,0.953,0.155,False,False
24.242,0.275,0.958,0.120,0.000,-0.866,0.000,0.500,209.995,0.343,0.958,0.002,0.044,-0.863,0.077,0.498,-79.828,0.218,1.376,0.068,0.278,-0.720,0.481,0.416,57.305,-0.096,1.527,-0.113,0.292,-0.703,0.506,0.406,-85.944,-0.049,1.527,-0.193,-0.151,-0.210,0.565,0.784,-89.954,-0.127,1.557,-0.238,-0.151,-0.210,0.565,0.784,0.000,-0.150,1.479,-0.251,-0.255,-0.042,0.953,0.155,False,False
24.342,0.275,0.958,0.120,0.000,-0.866,0.000,0.500,209.995,0.343,0.958,0.002,0.044,-0.863,0.077,0.498,-79.828,0.218,1.376,0.068,0.278,-0.720,0.481,0.416,57.305,-0.096,1.527,-0.113,0.292,-0.703,0.506,0.406,-85.944,-0.049,1.527,-0.193,-0.151,-0.210,0.565,0.784,-89.954,-0.127,1.557,-0.238,-0.151,-0.210,0.565,0.784,0.000,-0.150,1.479,-0.251,-0.255,-0.042,0.953,0.155,False,False
24.443,0.275,0.958,0.120,0.000,-0.866,0.000,0.500,209.995,0.343,0.958,0.002,0.044,-0.863,0.077,0.498,-79.828,0.218,1.376,0.068,0.278,-0.720,0.481,0.416,57.305,-0.096,1.527,-0.113,0.292,-0.703,0.506,0.406,-85.944,-0.049,1.527,-0.193,-0.151,-0.210,0.565,0.784,-89.954,-0.127,1.557,-0.238,-0.151,-0.210,0.565,0.784,0.000,-0.150,1.479,-0.251,-0.255,-0.042,0.953,0.155,False,False
24.547,0.275,0.958,0.120,0.000,-0.866,0.000,0.500,209.995,0.343,0.958,0.002,0.044,-0.863,0.077,0.498,-79.828,0.218,1.376,0.068,0.278,-0.720,0.481,0.416,57.305,-0.096,1.527,-0.113,0.292,-0.703,0.506,0.406,-85.944,-0.049,1.527,-0.193,-0.151,-0.210,0.565,0.784,-89.954,-0.127,1.557,-0.238,-0.151,-0.210,0.565,0.784,0.000,-0.150,1.479,-0.251,-0.255,-0.042,0.953,0.155,False,False
24.652,0.275,0.958,0.120,0.000,-0.866,0.000,0.500,209.995,0.343,0.958,0.002,0.044,-0.863,0.077,0.498,-79.828,0.218,1.376,0.068,0.278,-0.720,0.481,0.416,57.305,-0.096,1.527,-0.113,0.292,-0.703,0.506,0.406,-85.944,-0.049,1.527,-0.193,-0.151,-0.210,0.565,0.784,-89.954,-0.127,1.557,-0.238,-0.151,-0.210,0.565,0.784,0.000,-0.150,1.479,-0.251,-0.255,-0.042,0.953,0.155,False,False
24.756,0.275,0.958,0.120,0.000,-0.866,0.000,0.500,209.995,0.343,0.958,0.002,0.044,-0.863,0.077,0.498,-79.828,0.218,1.376,0.068,0.278,-0.720,0.481,0.416,57.305,-0.096,1.527,-0.113,0.292,-0.703,0.506,0.406,-85.944,-0.049,1.527,-0.193,-0.151,-0.210,0.565,0.784,-89.954,-0.127,1.557,-0.238,-0.151,-0.210,0.565,0.784,0.000,-0.150,1.479,-0.251,-0.255,-0.042,0.953,0.155,False,False
24.858,0.275,0.958,0.120,0.000,-0.866,0.000,0.500,209.995,0.343,0.958,0.002,0.044,-0.863,0.077,0.498,-79.828,0.218,1.376,0.068,0.278,-0.720,0.481,0.416,57.305,-0.096,1.527,-0.113,0.292,-0.703,0.506,0.406,-85.944,-0.049,1.527,-0.193,-0.151,-0.210,0.565,0.784,-89.954,-0.127,1.557,-0.238,-0.151,-0.210,0.565,0.784,0.000,-0.150,1.479,-0.251,-0.255,-0.042,0.953,0.155,False,False
24.962,0.275,0.958,0.120,0.000,-0.866,0.000,0.500,209.995,0.343,0.958,0.002,0.044,-0.863,0.077,0.498,-79.828,0.218,1.376,0.068,0.278,-0.720,0.481,0.416,57.305,-0.096,1.527,-0.113,0.292,-0.703,0.506,0.406,-85.944,-0.049,1.527,-0.193,-0.151,-0.210,0.565,0.784,-89.954,-0.127,1.557,-0.238,-0.151,-0.210,0.565,0.784,0.000,-0.150,1.479,-0.251,-0.255,-0.042,0.953,0.155,False,False
25.063,0.275,0.958,0.120,0.000,-0.866,0.000,0.500,209.995,0.343,0.958,0.002,0.044,-0.863,0.077,0.498,-79.828,0.218,1.376,0.068,0.278,-0.720,0.481,0.416,57.305,-0.096,1.527,-0.113,0.292,-0.703,0.506,0.406,-85.944,-0.049,1.527,-0.193,-0.151,-0.210,0.565,0.784,-89.954,-0.127,1.557,-0.238,-0.151,-0.210,0.565,0.784,0.000,-0.150,1.479,-0.251,-0.255,-0.042,0.953,0.155,False,False
25.166,0.275,0.958,0.120,0.000,-0.866,0.000,0.500,209.995,0.343,0.958,0.002,0.044,-0.863,0.077,0.498,-79.828,0.218,1.376,0.068,0.278,-0.720,0.481,0.416,57.305,-0.096,1.527,-0.113,0.292,-0.703,0.506,0.406,-85.944,-0.049,1.527,-0.193,-0.151,-0.210,0.565,0.784,-89.954,-0.127,1.557,-0.238,-0.151,-0.210,0.565,0.784,0.000,-0.150,1.479,-0.251,-0.255,-0.042,0.953,0.155,False,False
25.266,0.275,0.958,0.120,0.000,-0.866,0.000,0.500,209.995,0.343,0.958,0.002,0.044,-0.863,0.077,0.498,-79.828,0.218,1.376,0.068,0.278,-0.720,0.481,0.416,57.305,-0.096,1.527,-0.113,0.292,-0.703,0.506,0.406,-85.944,-0.049,1.527,-0.193,-0.151,-0.210,0.565,0.784,-89.954,-0.127,1.557,-0.238,-0.151,-0.210,0.565,0.784,0.000,-0.150,1.479,-0.251,-0.255,-0.042,0.953,0.155,False,False
25.368,0.275,0.958,0.120,0.000,-0.866,0.000,0.500,209.995,0.343,0.958,0.002,0.044,-0.863,0.077,0.498,-79.828,0.218,1.376,0.068,0.278,-0.720,0.481,0.416,57.305,-0.096,1.527,-0.113,0.292,-0.703,0.506,0.406,-85.944,-0.049,1.527,-0.193,-0.151,-0.210,0.565,0.784,-89.954,-0.127,1.557,-0.238,-0.151,-0.210,0.565,0.784,0.000,-0.150,1.479,-0.251,-0.255,-0.042,0.953,0.155,False,False
25.471,0.275,0.958,0.120,0.000,-0.866,0.000,0.500,209.995,0.343,0.958,0.002,0.044,-0.863,0.077,0.498,-79.828,0.218,1.376,0.068,0.278,-0.720,0.481,0.416,57.305,-0.096,1.527,-0.113,0.292,-0.703,0.506,0.406,-85.944,-0.049,1.527,-0.193,-0.151,-0.210,0.565,0.784,-89.954,-0.127,1.557,-0.238,-0.151,-0.210,0.565,0.784,0.000,-0.150,1.479,-0.251,-0.255,-0.042,0.953,0.155,False,False
25.572,0.275,0.958,0.120,0.000,-0.865,0.000,0.501,209.810,0.343,0.958,0.002,0.052,-0.861,0.089,0.499,-78.151,0.207,1.374,0.063,0.154,-0.823,0.266,0.477,23.928,0.008,1.692,-0.051,0.171,-0.813,0.296,0.471,-85.806,0.055,1.692,-0.132,-0.088,-0.242,0.330,0.908,-89.954,0.002,1.765,-0.162,-0.088,-0.242,0.330,0.908,0.000,-0.053,1.712,-0.194,-0.233,-0.109,0.876,0.409,False,False
25.675,0.275,0.958,0.120,0.000,-0.866,0.000,0.500,210.014,0.343,0.958,0.002,0.043,-0.863,0.075,0.498,-80.062,0.220,1.377,0.069,0.129,-0.837,0.224,0.483,20.010,0.050,1.717,-0.029,0.146,-0.828,0.253,0.478,-85.943,0.097,1.717,-0.109,-0.076,-0.248,0.282,0.924,-89.954,0.051,1.795,-0.136,-0.076,-0.248,0.282,0.924,0.000,-0.008,1.749,-0.170,-0.229,-0.122,0.853,0.453,False,False
25.778,0.275,0.958,0.120,0.000,-0.866,0.000,0.500,209.991,0.343,0.958,0.002,0.044,-0.863,0.076,0.498,-79.872,0.218,1.377,0.069,0.130,-0.836,0.225,0.483,20.011,0.048,1.716,-0.030,0.147,-0.828,0.255,0.478,-85.944,0.094,1.716,-0.110,-0.076,-0.248,0.284,0.923,-89.954,0.048,1.794,-0.137,-0.076,-0.248,0.284,0.923,0.000,-0.011,1.748,-0.171,-0.229,-0.121,0.854,0.452,False,False
25.882,0.275,0.958,0.120,0.000,-0.866,0.000,0.500,209.992,0.343,0.958,0.002,0.044,-0.863,0.076,0.498,-79.868,0.218,1.377,0.069,0.130,-0.836,0.225,0.483,20.010,0.048,1.716,-0.030,0.147,-0.828,0.255,0.478,-85.944,0.094,1.716,-0.110,-0.076,-0.248,0.284,0.923,-89.954,0.048,1.794,-0.137,-0.076,-0.248,0.284,0.923,0.000,-0.011,1.748,-0.171,-0.229,-0.121,0.854,0.452,False,False
25.983,0.275,0.958,0.120,0.000,-0.866,0.000,0.500,209.992,0.343,0.958,0.002,0.044,-0.863,0.076,0.498,-79.868,0.218,1.377,0.069,0.130,-0.836,0.225,0.483,20.010,0.048,1.716,-0.030,0.147,-0.828,0.255,0.478,-85.944,0.094,1.716,-0.110,-0.076,-0.248,0.284,0.923,-89.954,0.048,1.794,-0.137,-0.076,-0.248,0.284,0.923,0.000,-0.011,1.748,-0.171,-0.229,-0.121,0.854,0.452,False,False
26.086,0.275,0.958,0.120,0.000,-0.866,0.000,0.500,209.992,0.343,0.958,0.002,0.044,-0.863,0.076,0.498,-79.868,0.218,1.377,0.069,0.130,-0.836,0.225,0.483,20.010,0.048,1.716,-0.030,0.147,-0.828,0.255,0.478,-85.944,0.094,1.716,-0.110,-0.076,-0.248,0.284,0.923,-89.954,0.048,1.794,-0.137,-0.076,-0.248,0.284,0.923,0.000,-0.011,1.748,-0.171,-0.229,-0.121,0.854,0.452,False,False
26.189,0.275,0.958,0.120,0.000,-0.866,0.000,0.500,209.992,0.343,0.958,0.002,0.044,-0.863,0.076,0.498,-79.868,0.218,1.377,0.069,0.130,-0.836,0.225,0.483,20.010,0.048,1.716,-0.030,0.147,-0.828,0.255,0.478,-85.944,0.094,1.716,-0.110,-0.076,-0.248,0.284,0.923,-89.954,0.048,1.794,-0.137,-0.076,-0.248,0.284,0.923,0.000,-0.011,1.748,-0.171,-0.229,-0.121,0.854,0.452,False,False
26.293,0.275,0.958,0.120,0.000,-0.866,0.000,0.500,209.992,0.343,0.958,0.002,0.044,-0.863,0.076,0.498,-79.868,0.218,1.377,0.069,0.130,-0.836,0.225,0.483,20.010,0.048,1.716,-0.030,0.147,-0.828,0.255,0.478,-85.944,0.094,1.716,-0.110,-0.076,-0.248,0.284,0.923,-89.954,0.048,1.794,-0.137,-0.076,-0.248,0.284,0.923,0.000,-0.011,1.748,-0.171,-0.229,-0.121,0.854,0.452,False,False
26.397,0.275,0.958,0.120,0.000,-0.866,0.000,0.500,209.992,0.343,0.958,0.002,0.044,-0.863,0.076,0.498,-79.868,0.218,1.377,0.069,0.130,-0.836,0.225,0.483,20.010,0.048,1.716,-0.030,0.147,-0.828,0.255,0.478,-85.944,0.094,1.716,-0.110,-0.076,-0.248,0.284,0.923,-89.954,0.048,1.794,-0.137,-0.076,-0.248,0.284,0.923,0.000,-0.011,1.748,-0.171,-0.229,-0.121,0.854,0.452,False,False
26.497,0.275,0.958,0.120,0.000,-0.866,0.000,0.500,209.992,0.343,0.958,0.002,0.044,-0.863,0.076,0.498,-79.868,0.218,1.377,0.069,0.130,-0.836,0.225,0.483,20.010,0.048,1.716,-0.030,0.147,-0.828,0.255,0.478,-85.944,0.094,1.716,-0.110,-0.076,-0.248,0.284,0.923,-89.954,0.048,1.794,-0.137,-0.076,-0.248,0.284,0.923,0.000,-0.011,1.748,-0.171,-0.229,-0.121,0.854,0.452,False,False
26.597,0.275,0.958,0.120,0.000,-0.866,0.000,0.500,209.992,0.343,0.958,0.002,0.044,-0.863,0.076,0.498,-79.868,0.218,1.377,0.069,0.130,-0.836,0.225,0.483,20.010,0.048,1.716,-0.030,0.147,-0.828,0.255,0.478,-85.944,0.094,1.716,-0.110,-0.076,-0.248,0.284,0.923,-89.954,0.048,1.794,-0.137,-0.076,-0.248,0.284,0.923,0.000,-0.011,1.748,-0.171,-0.229,-0.121,0.854,0.452,False,False
26.698,0.275,0.958,0.120,0.000,-0.866,0.000,0.500,209.992,0.343,0.958,0.002,0.044,-0.863,0.076,0.498,-79.868,0.218,1.377,0.069,0.130,-0.836,0.225,0.483,20.010,0.048,1.716,-0.030,0.147,-0.828,0.255,0.478,-85.944,0.094,1.716,-0.110,-0.076,-0.248,0.284,0.923,-89.954,0.048,1.794,-0.137,-0.076,-0.248,0.284,0.923,0.000,-0.011,1.748,-0.171,-0.229,-0.121,0.854,0.452,False,False
26.799,0.275,0.958,0.120,0.000,-0.866,0.000,0.500,209.992,0.343,0.958,0.002,0.044,-0.863,0.076,0.498,-79.868,0.218,1.377,0.069,0.130,-0.836,0.225,0.483,20.010,0.048,1.716,-0.030,0.147,-0.828,0.255,0.478,-85.944,0.094,1.716,-0.110,-0.076,-0.248,0.284,0.923,-89.954,0.048,1.794,-0.137,-0.076,-0.248,0.284,0.923,0.000,-0.011,1.748,-0.171,-0.229,-0.121,0.854,0.452,False,False
26.905,0.275,0.958,0.120,0.000,-0.866,0.000,0.500,209.992,0.343,0.958,0.002,0.044,-0.863,0.076,0.498,-79.868,0.218,1.377,0.069,0.130,-0.836,0.225,0.483,20.010,0.048,1.716,-0.030,0.147,-0.828,0.255,0.478,-85.944,0.094,1.716,-0.110,-0.076,-0.248,0.284,0.923,-89.954,0.048,1.794,-0.137,-0.076,-0.248,0.284,0.923,0.000,-0.011,1.748,-0.171,-0.229,-0.121,0.854,0.452,False,False
27.006,0.275,0.958,0.120,0.000,-0.866,0.000,0.500,209.992,0.343,0.958,0.002,0.044,-0.863,0.076,0.498,-79.868,0.218,1.377,0.069,0.130,-0.836,0.225,0.483,20.010,0.048,1.716,-0.030,0.147,-0.828,0.255,0.478,-85.944,0.094,1.716,-0.110,-0.076,-0.248,0.284,0.923,-89.954,0.048,1.794,-0.137,-0.076,-0.248,0.284,0.923,0.000,-0.011,1.748,-0.171,-0.229,-0.121,0.854,0.452,False,False
