kendriklim/UROP-VLM-Robotics/ur5_simulation/AgenticAIPaths/ur5_right.csv
Timestamp,base_PosX,base_PosY,base_PosZ,base_RotX,base_RotY,base_RotZ,base_RotW,base_jointAngle,shoulder_PosX,shoulder_PosY,shoulder_PosZ,shoulder_RotX,shoulder_RotY,shoulder_RotZ,shoulder_RotW,shoulder_jointAngle,elbow_PosX,elbow_PosY,elbow_PosZ,elbow_RotX,elbow_RotY,elbow_RotZ,elbow_RotW,elbow_jointAngle,wrist1_PosX,wrist1_PosY,wrist1_PosZ,wrist1_RotX,wrist1_RotY,wrist1_RotZ,wrist1_RotW,wrist1_jointAngle,wrist2_PosX,wrist2_PosY,wrist2_PosZ,wrist2_RotX,wrist2_RotY,wrist2_RotZ,wrist2_RotW,wrist2_jointAngle,wrist3_PosX,wrist3_PosY,wrist3_PosZ,wrist3_RotX,wrist3_RotY,wrist3_RotZ,wrist3_RotW,wrist3_jointAngle,ee_PosX,ee_PosY,ee_PosZ,ee_RotX,ee_RotY,ee_RotZ,ee_RotW,suctionOn,blockAttracted
0.000,1.454,0.953,-0.014,0.000,-0.695,0.000,0.719,-1.916,1.449,0.953,-0.150,0.415,-0.568,0.401,0.587,-19.499,1.053,1.095,-0.017,0.621,-0.350,0.600,0.362,48.950,0.712,0.902,-0.005,0.673,-0.244,0.651,0.253,-70.596,0.709,0.902,-0.098,0.143,-0.042,0.925,0.349,-74.374,0.646,0.831,-0.096,0.143,-0.042,0.925,0.349,0.002,0.705,0.779,-0.120,0.071,-0.131,0.901,-0.408,False,False
0.121,1.454,0.953,-0.014,0.000,-0.703,0.000,0.711,-0.644,1.452,0.953,-0.150,0.276,-0.648,0.273,0.655,-44.246,1.149,1.250,-0.027,0.556,-0.438,0.550,0.443,57.190,0.767,1.162,-0.022,0.572,-0.418,0.565,0.423,-85.933,0.766,1.162,-0.115,0.005,0.003,0.804,0.595,-89.931,0.676,1.134,-0.114,0.005,0.003,0.804,0.595,0.000,0.700,1.055,-0.115,0.006,-0.001,0.989,-0.148,False,False
0.221,1.454,0.953,-0.014,0.000,-0.706,0.000,0.709,-0.249,1.453,0.953,-0.150,0.269,-0.653,0.268,0.656,-45.429,1.156,1.256,-0.029,0.550,-0.445,0.548,0.447,57.300,0.772,1.175,-0.027,0.566,-0.425,0.563,0.427,-85.944,0.771,1.175,-0.120,0.002,0.001,0.798,0.602,-89.954,0.680,1.149,-0.120,0.002,0.001,0.798,0.602,0.000,0.703,1.070,-0.120,0.002,-0.001,0.990,-0.139,False,False
0.323,1.454,0.953,-0.014,0.000,-0.706,0.000,0.708,-0.105,1.454,0.953,-0.150,0.267,-0.654,0.267,0.655,-45.619,1.157,1.257,-0.030,0.549,-0.446,0.548,0.447,57.303,0.773,1.177,-0.029,0.564,-0.426,0.563,0.427,-85.944,0.772,1.177,-0.122,0.001,0.000,0.797,0.604,-89.954,0.681,1.152,-0.122,0.001,0.000,0.797,0.604,0.000,0.704,1.073,-0.122,0.001,-0.001,0.991,-0.137,False,False
0.424,1.454,0.953,-0.014,0.000,-0.707,0.000,0.707,-0.053,1.454,0.953,-0.150,0.267,-0.655,0.267,0.655,-45.650,1.157,1.257,-0.030,0.548,-0.446,0.548,0.447,57.303,0.773,1.178,-0.030,0.564,-0.427,0.563,0.427,-85.944,0.773,1.178,-0.123,0.001,0.000,0.797,0.604,-89.954,0.682,1.152,-0.122,0.001,0.000,0.797,0.604,0.000,0.704,1.073,-0.123,0.001,0.000,0.991,-0.137,False,False
0.525,1.454,0.953,-0.014,0.000,-0.707,0.000,0.707,-0.034,1.454,0.953,-0.150,0.267,-0.655,0.267,0.655,-45.655,1.157,1.257,-0.030,0.548,-0.447,0.548,0.447,57.303,0.773,1.178,-0.030,0.564,-0.427,0.563,0.427,-85.944,0.773,1.178,-0.123,0.001,0.000,0.797,0.604,-89.954,0.682,1.152,-0.123,0.001,0.000,0.797,0.604,0.000,0.704,1.073,-0.123,0.000,0.000,0.991,-0.137,False,False
0.630,1.454,0.953,-0.014,0.000,-0.707,0.000,0.707,-0.027,1.454,0.953,-0.150,0.267,-0.655,0.267,0.655,-45.655,1.157,1.257,-0.030,0.548,-0.447,0.548,0.447,57.303,0.773,1.178,-0.030,0.564,-0.427,0.563,0.427,-85.944,0.773,1.178,-0.123,0.001,0.000,0.797,0.604,-89.954,0.682,1.152,-0.123,0.001,0.000,0.797,0.604,0.000,0.704,1.073,-0.123,0.000,0.000,0.991,-0.137,False,False
0.731,1.454,0.953,-0.014,0.000,-0.707,0.000,0.707,-0.025,1.454,0.953,-0.150,0.267,-0.655,0.267,0.655,-45.656,1.157,1.257,-0.030,0.548,-0.447,0.548,0.447,57.303,0.773,1.178,-0.030,0.564,-0.427,0.563,0.427,-85.944,0.773,1.178,-0.123,0.000,0.000,0.797,0.604,-89.954,0.682,1.152,-0.123,0.000,0.000,0.797,0.604,0.000,0.704,1.073,-0.123,0.000,0.000,0.991,-0.137,False,False
0.834,1.454,0.953,-0.014,0.000,-0.707,0.000,0.707,-0.024,1.454,0.953,-0.150,0.267,-0.655,0.267,0.655,-45.656,1.157,1.257,-0.030,0.548,-0.447,0.548,0.447,57.303,0.773,1.178,-0.030,0.564,-0.427,0.564,0.427,-85.944,0.773,1.178,-0.123,0.000,0.000,0.797,0.604,-89.954,0.682,1.152,-0.123,0.000,0.000,0.797,0.604,0.000,0.704,1.073,-0.123,0.000,0.000,0.991,-0.137,False,False
0.935,1.454,0.953,-0.014,0.000,-0.707,0.000,0.707,-0.024,1.454,0.953,-0.150,0.267,-0.655,0.267,0.655,-45.656,1.157,1.257,-0.030,0.548,-0.447,0.548,0.447,57.303,0.773,1.178,-0.030,0.564,-0.427,0.564,0.427,-85.944,0.773,1.178,-0.123,0.000,0.000,0.797,0.604,-89.954,0.682,1.152,-0.123,0.000,0.000,0.797,0.604,0.000,0.704,1.073,-0.123,0.000,0.000,0.991,-0.137,False,False
1.037,1.454,0.953,-0.014,0.000,-0.707,0.000,0.707,-0.023,1.454,0.953,-0.150,0.267,-0.655,0.267,0.655,-45.656,1.157,1.257,-0.030,0.548,-0.447,0.548,0.447,57.303,0.773,1.178,-0.030,0.564,-0.427,0.564,0.427,-85.944,0.773,1.178,-0.123,0.000,0.000,0.797,0.604,-89.954,0.682,1.152,-0.123,0.000,0.000,0.797,0.604,0.000,0.704,1.073,-0.123,0.000,0.000,0.991,-0.137,False,False
1.139,1.454,0.953,-0.014,0.000,-0.707,0.000,0.707,-0.023,1.454,0.953,-0.150,0.267,-0.655,0.267,0.655,-45.656,1.157,1.257,-0.030,0.548,-0.447,0.548,0.447,57.303,0.773,1.178,-0.030,0.564,-0.427,0.564,0.427,-85.944,0.773,1.178,-0.123,0.000,0.000,0.797,0.604,-89.954,0.682,1.152,-0.123,0.000,0.000,0.797,0.604,0.000,0.704,1.073,-0.123,0.000,0.000,0.991,-0.137,False,False
1.241,1.454,0.953,-0.014,0.000,-0.707,0.000,0.707,-0.023,1.454,0.953,-0.150,0.267,-0.655,0.267,0.655,-45.656,1.157,1.257,-0.030,0.548,-0.447,0.548,0.447,57.303,0.773,1.178,-0.030,0.564,-0.427,0.564,0.427,-85.944,0.773,1.178,-0.123,0.000,0.000,0.797,0.604,-89.954,0.682,1.152,-0.123,0.000,0.000,0.797,0.604,0.000,0.704,1.073,-0.123,0.000,0.000,0.991,-0.137,False,False
1.343,1.454,0.953,-0.014,0.000,-0.707,0.000,0.707,-0.023,1.454,0.953,-0.150,0.267,-0.655,0.267,0.655,-45.656,1.157,1.257,-0.030,0.548,-0.447,0.548,0.447,57.303,0.773,1.178,-0.030,0.564,-0.427,0.564,0.427,-85.944,0.773,1.178,-0.123,0.000,0.000,0.797,0.604,-89.954,0.682,1.152,-0.123,0.000,0.000,0.797,0.604,0.000,0.704,1.073,-0.123,0.000,0.000,0.991,-0.137,False,False
1.445,1.454,0.953,-0.014,0.000,-0.707,0.000,0.707,-0.023,1.454,0.953,-0.150,0.267,-0.655,0.267,0.655,-45.656,1.157,1.257,-0.030,0.548,-0.447,0.548,0.447,57.303,0.773,1.178,-0.030,0.564,-0.427,0.564,0.427,-85.944,0.773,1.178,-0.123,0.000,0.000,0.797,0.604,-89.954,0.682,1.152,-0.123,0.000,0.000,0.797,0.604,0.000,0.704,1.073,-0.123,0.000,0.000,0.991,-0.137,False,False
1.546,1.454,0.953,-0.014,0.000,-0.707,0.000,0.707,-0.023,1.454,0.953,-0.150,0.267,-0.655,0.267,0.655,-45.656,1.157,1.257,-0.030,0.548,-0.447,0.548,0.447,57.303,0.773,1.178,-0.030,0.564,-0.427,0.564,0.427,-85.944,0.773,1.178,-0.123,0.000,0.000,0.797,0.604,-89.954,0.682,1.152,-0.123,0.000,0.000,0.797,0.604,0.000,0.704,1.073,-0.123,0.000,0.000,0.991,-0.137,False,False
1.648,1.454,0.953,-0.014,0.000,-0.707,0.000,0.707,-0.023,1.454,0.953,-0.150,0.267,-0.655,0.267,0.655,-45.656,1.157,1.257,-0.030,0.548,-0.447,0.548,0.447,57.303,0.773,1.178,-0.030,0.564,-0.427,0.564,0.427,-85.944,0.773,1.178,-0.123,0.000,0.000,0.797,0.604,-89.954,0.682,1.152,-0.123,0.000,0.000,0.797,0.604,0.000,0.704,1.073,-0.123,0.000,0.000,0.991,-0.137,False,False
1.749,1.454,0.953,-0.014,0.000,-0.707,0.000,0.707,-0.023,1.454,0.953,-0.150,0.267,-0.655,0.267,0.655,-45.656,1.157,1.257,-0.030,0.548,-0.447,0.548,0.447,57.303,0.773,1.178,-0.030,0.564,-0.427,0.564,0.427,-85.944,0.773,1.178,-0.123,0.000,0.000,0.797,0.604,-89.954,0.682,1.152,-0.123,0.000,0.000,0.797,0.604,0.000,0.704,1.073,-0.123,0.000,0.000,0.991,-0.137,False,False
1.850,1.454,0.953,-0.014,0.000,-0.707,0.000,0.707,-0.023,1.454,0.953,-0.150,0.267,-0.655,0.267,0.655,-45.656,1.157,1.257,-0.030,0.548,-0.447,0.548,0.447,57.303,0.773,1.178,-0.030,0.564,-0.427,0.564,0.427,-85.944,0.773,1.178,-0.123,0.000,0.000,0.797,0.604,-89.954,0.682,1.152,-0.123,0.000,0.000,0.797,0.604,0.000,0.704,1.073,-0.123,0.000,0.000,0.991,-0.137,False,False
1.952,1.454,0.953,-0.014,0.000,-0.707,0.000,0.707,-0.023,1.454,0.953,-0.150,0.267,-0.655,0.267,0.655,-45.656,1.157,1.257,-0.030,0.548,-0.447,0.548,0.447,57.303,0.773,1.178,-0.030,0.564,-0.427,0.564,0.427,-85.944,0.773,1.178,-0.123,0.000,0.000,0.797,0.604,-89.954,0.682,1.152,-0.123,0.000,0.000,0.797,0.604,0.000,0.704,1.073,-0.123,0.000,0.000,0.991,-0.137,False,False
2.053,1.454,0.953,-0.014,0.000,-0.707,0.000,0.707,-0.023,1.454,0.953,-0.150,0.267,-0.655,0.267,0.655,-45.656,1.157,1.257,-0.030,0.548,-0.447,0.548,0.447,57.303,0.773,1.178,-0.030,0.564,-0.427,0.564,0.427,-85.944,0.773,1.178,-0.123,0.000,0.000,0.797,0.604,-89.954,0.682,1.152,-0.123,0.000,0.000,0.797,0.604,0.000,0.704,1.073,-0.123,0.000,0.000,0.991,-0.137,False,False
2.155,1.454,0.953,-0.014,0.000,-0.707,0.000,0.707,-0.023,1.454,0.953,-0.150,0.267,-0.655,0.267,0.655,-45.656,1.157,1.257,-0.030,0.548,-0.447,0.548,0.447,57.303,0.773,1.178,-0.030,0.564,-0.427,0.564,0.427,-85.944,0.773,1.178,-0.123,0.000,0.000,0.797,0.604,-89.954,0.682,1.152,-0.123,0.000,0.000,0.797,0.604,0.000,0.704,1.073,-0.123,0.000,0.000,0.991,-0.137,False,False
2.256,1.454,0.953,-0.014,0.000,-0.707,0.000,0.707,-0.023,1.454,0.953,-0.150,0.267,-0.655,0.267,0.655,-45.656,1.157,1.257,-0.030,0.548,-0.447,0.548,0.447,57.303,0.773,1.178,-0.030,0.564,-0.427,0.564,0.427,-85.944,0.773,1.178,-0.123,0.000,0.000,0.797,0.604,-89.954,0.682,1.152,-0.123,0.000,0.000,0.797,0.604,0.000,0.704,1.073,-0.123,0.000,0.000,0.991,-0.137,False,False
2.357,1.454,0.953,-0.014,0.000,-0.707,0.000,0.707,-0.023,1.454,0.953,-0.150,0.267,-0.655,0.267,0.655,-45.656,1.157,1.257,-0.030,0.548,-0.447,0.548,0.447,57.303,0.773,1.178,-0.030,0.564,-0.427,0.564,0.427,-85.944,0.773,1.178,-0.123,0.000,0.000,0.797,0.604,-89.954,0.682,1.152,-0.123,0.000,0.000,0.797,0.604,0.000,0.704,1.073,-0.123,0.000,0.000,0.991,-0.137,False,False
2.458,1.454,0.953,-0.014,0.000,-0.707,0.000,0.707,-0.023,1.454,0.953,-0.150,0.267,-0.655,0.267,0.655,-45.656,1.157,1.257,-0.030,0.548,-0.447,0.548,0.447,57.303,0.773,1.178,-0.030,0.564,-0.427,0.564,0.427,-85.944,0.773,1.178,-0.123,0.000,0.000,0.797,0.604,-89.954,0.682,1.152,-0.123,0.000,0.000,0.797,0.604,0.000,0.704,1.073,-0.123,0.000,0.000,0.991,-0.137,False,False
2.559,1.454,0.953,-0.014,0.000,-0.707,0.000,0.707,-0.023,1.454,0.953,-0.150,0.267,-0.655,0.267,0.655,-45.656,1.157,1.257,-0.030,0.548,-0.447,0.548,0.447,57.303,0.773,1.178,-0.030,0.564,-0.427,0.564,0.427,-85.944,0.773,1.178,-0.123,0.000,0.000,0.797,0.604,-89.954,0.682,1.152,-0.123,0.000,0.000,0.797,0.604,0.000,0.704,1.073,-0.123,0.000,0.000,0.991,-0.137,False,False
2.661,1.454,0.953,-0.014,0.000,-0.707,0.000,0.707,-0.023,1.454,0.953,-0.150,0.267,-0.655,0.267,0.655,-45.656,1.157,1.257,-0.030,0.548,-0.447,0.548,0.447,57.303,0.773,1.178,-0.030,0.564,-0.427,0.564,0.427,-85.944,0.773,1.178,-0.123,0.000,0.000,0.797,0.604,-89.954,0.682,1.152,-0.123,0.000,0.000,0.797,0.604,0.000,0.704,1.073,-0.123,0.000,0.000,0.991,-0.137,False,False
2.762,1.454,0.953,-0.014,0.000,-0.707,0.000,0.707,-0.023,1.454,0.953,-0.150,0.267,-0.655,0.267,0.655,-45.656,1.157,1.257,-0.030,0.548,-0.447,0.548,0.447,57.303,0.773,1.178,-0.030,0.564,-0.427,0.564,0.427,-85.944,0.773,1.178,-0.123,0.000,0.000,0.797,0.604,-89.954,0.682,1.152,-0.123,0.000,0.000,0.797,0.604,0.000,0.704,1.073,-0.123,0.000,0.000,0.991,-0.137,False,False
2.863,1.454,0.953,-0.014,0.000,-0.707,0.000,0.707,-0.023,1.454,0.953,-0.150,0.267,-0.655,0.267,0.655,-45.656,1.157,1.257,-0.030,0.548,-0.447,0.548,0.447,57.303,0.773,1.178,-0.030,0.564,-0.427,0.564,0.427,-85.944,0.773,1.178,-0.123,0.000,0.000,0.797,0.604,-89.954,0.682,1.152,-0.123,0.000,0.000,0.797,0.604,0.000,0.704,1.073,-0.123,0.000,0.000,0.991,-0.137,False,False
2.966,1.454,0.953,-0.014,0.000,-0.707,0.000,0.707,-0.023,1.454,0.953,-0.150,0.267,-0.655,0.267,0.655,-45.656,1.157,1.257,-0.030,0.548,-0.447,0.548,0.447,57.303,0.773,1.178,-0.030,0.564,-0.427,0.564,0.427,-85.944,0.773,1.178,-0.123,0.000,0.000,0.797,0.604,-89.954,0.682,1.152,-0.123,0.000,0.000,0.797,0.604,0.000,0.704,1.073,-0.123,0.000,0.000,0.991,-0.137,False,False
3.066,1.454,0.953,-0.014,0.000,-0.707,0.000,0.707,-0.023,1.454,0.953,-0.150,0.267,-0.655,0.267,0.655,-45.656,1.157,1.257,-0.030,0.548,-0.447,0.548,0.447,57.303,0.773,1.178,-0.030,0.564,-0.427,0.564,0.427,-85.944,0.773,1.178,-0.123,0.000,0.000,0.797,0.604,-89.954,0.682,1.152,-0.123,0.000,0.000,0.797,0.604,0.000,0.704,1.073,-0.123,0.000,0.000,0.991,-0.137,False,False
3.168,1.454,0.953,-0.014,0.000,-0.707,0.000,0.707,-0.023,1.454,0.953,-0.150,0.267,-0.655,0.267,0.655,-45.656,1.157,1.257,-0.030,0.548,-0.447,0.548,0.447,57.303,0.773,1.178,-0.030,0.564,-0.427,0.564,0.427,-85.944,0.773,1.178,-0.123,0.000,0.000,0.797,0.604,-89.954,0.682,1.152,-0.123,0.000,0.000,0.797,0.604,0.000,0.704,1.073,-0.123,0.000,0.000,0.991,-0.137,False,False
3.270,1.454,0.953,-0.014,0.000,-0.707,0.000,0.707,-0.023,1.454,0.953,-0.150,0.267,-0.655,0.267,0.655,-45.656,1.157,1.257,-0.030,0.548,-0.447,0.548,0.447,57.303,0.773,1.178,-0.030,0.564,-0.427,0.564,0.427,-85.944,0.773,1.178,-0.123,0.000,0.000,0.797,0.604,-89.954,0.682,1.152,-0.123,0.000,0.000,0.797,0.604,0.000,0.704,1.073,-0.123,0.000,0.000,0.991,-0.137,False,False
3.372,1.454,0.953,-0.014,0.000,-0.707,0.000,0.707,-0.023,1.454,0.953,-0.150,0.267,-0.655,0.267,0.655,-45.656,1.157,1.257,-0.030,0.548,-0.447,0.548,0.447,57.303,0.773,1.178,-0.030,0.564,-0.427,0.564,0.427,-85.944,0.773,1.178,-0.123,0.000,0.000,0.797,0.604,-89.954,0.682,1.152,-0.123,0.000,0.000,0.797,0.604,0.000,0.704,1.073,-0.123,0.000,0.000,0.991,-0.137,False,False
3.474,1.454,0.953,-0.014,0.000,-0.707,0.000,0.707,-0.023,1.454,0.953,-0.150,0.267,-0.655,0.267,0.655,-45.656,1.157,1.257,-0.030,0.548,-0.447,0.548,0.447,57.303,0.773,1.178,-0.030,0.564,-0.427,0.564,0.427,-85.944,0.773,1.178,-0.123,0.000,0.000,0.797,0.604,-89.954,0.682,1.152,-0.123,0.000,0.000,0.797,0.604,0.000,0.704,1.073,-0.123,0.000,0.000,0.991,-0.137,False,False
3.574,1.454,0.953,-0.014,0.000,-0.707,0.000,0.707,-0.023,1.454,0.953,-0.150,0.267,-0.655,0.267,0.655,-45.656,1.157,1.257,-0.030,0.548,-0.447,0.548,0.447,57.303,0.773,1.178,-0.030,0.564,-0.427,0.564,0.427,-85.944,0.773,1.178,-0.123,0.000,0.000,0.797,0.604,-89.954,0.682,1.152,-0.123,0.000,0.000,0.797,0.604,0.000,0.704,1.073,-0.123,0.000,0.000,0.991,-0.137,False,False
3.678,1.454,0.953,-0.014,0.000,-0.707,0.000,0.707,-0.023,1.454,0.953,-0.150,0.267,-0.655,0.267,0.655,-45.656,1.157,1.257,-0.030,0.548,-0.447,0.548,0.447,57.303,0.773,1.178,-0.030,0.564,-0.427,0.564,0.427,-85.944,0.773,1.178,-0.123,0.000,0.000,0.797,0.604,-89.954,0.682,1.152,-0.123,0.000,0.000,0.797,0.604,0.000,0.704,1.073,-0.123,0.000,0.000,0.991,-0.137,False,False
3.779,1.454,0.953,-0.014,0.000,-0.707,0.000,0.707,-0.023,1.454,0.953,-0.150,0.267,-0.655,0.267,0.655,-45.656,1.157,1.257,-0.030,0.548,-0.447,0.548,0.447,57.303,0.773,1.178,-0.030,0.564,-0.427,0.564,0.427,-85.944,0.773,1.178,-0.123,0.000,0.000,0.797,0.604,-89.954,0.682,1.152,-0.123,0.000,0.000,0.797,0.604,0.000,0.704,1.073,-0.123,0.000,0.000,0.991,-0.137,False,False
3.884,1.454,0.953,-0.014,0.000,-0.707,0.000,0.707,-0.023,1.454,0.953,-0.150,0.267,-0.655,0.267,0.655,-45.656,1.157,1.257,-0.030,0.548,-0.447,0.548,0.447,57.303,0.773,1.178,-0.030,0.564,-0.427,0.564,0.427,-85.944,0.773,1.178,-0.123,0.000,0.000,0.797,0.604,-89.954,0.682,1.152,-0.123,0.000,0.000,0.797,0.604,0.000,0.704,1.073,-0.123,0.000,0.000,0.991,-0.137,False,False
3.986,1.454,0.953,-0.014,0.000,-0.707,0.000,0.707,-0.023,1.454,0.953,-0.150,0.267,-0.655,0.267,0.655,-45.656,1.157,1.257,-0.030,0.548,-0.447,0.548,0.447,57.303,0.773,1.178,-0.030,0.564,-0.427,0.564,0.427,-85.944,0.773,1.178,-0.123,0.000,0.000,0.797,0.604,-89.954,0.682,1.152,-0.123,0.000,0.000,0.797,0.604,0.000,0.704,1.073,-0.123,0.000,0.000,0.991,-0.137,False,False
4.089,1.454,0.953,-0.014,0.000,-0.707,0.000,0.707,-0.023,1.454,0.953,-0.150,0.267,-0.655,0.267,0.655,-45.656,1.157,1.257,-0.030,0.548,-0.447,0.548,0.447,57.303,0.773,1.178,-0.030,0.564,-0.427,0.564,0.427,-85.944,0.773,1.178,-0.123,0.000,0.000,0.797,0.604,-89.954,0.682,1.152,-0.123,0.000,0.000,0.797,0.604,0.000,0.704,1.073,-0.123,0.000,0.000,0.991,-0.137,False,False
4.190,1.454,0.953,-0.014,0.000,-0.707,0.000,0.708,-0.078,1.454,0.953,-0.150,0.267,-0.654,0.267,0.655,-45.655,1.157,1.257,-0.030,0.549,-0.446,0.548,0.447,57.303,0.773,1.178,-0.029,0.564,-0.427,0.563,0.427,-85.944,0.773,1.178,-0.122,0.001,0.000,0.797,0.604,-89.954,0.681,1.152,-0.122,0.001,0.000,0.797,0.604,0.000,0.704,1.073,-0.122,0.001,0.000,0.991,-0.137,False,False
4.292,1.454,0.953,-0.014,0.000,-0.702,0.000,0.713,-0.881,1.452,0.953,-0.150,0.269,-0.650,0.265,0.660,-45.655,1.157,1.257,-0.026,0.552,-0.443,0.544,0.450,57.303,0.773,1.178,-0.020,0.568,-0.424,0.559,0.430,-85.944,0.771,1.178,-0.113,0.006,0.004,0.797,0.604,-89.954,0.680,1.152,-0.111,0.006,0.004,0.797,0.604,0.000,0.702,1.073,-0.112,0.008,-0.001,0.991,-0.137,False,False
4.393,1.454,0.953,-0.014,0.000,-0.694,0.000,0.720,-2.126,1.449,0.953,-0.150,0.272,-0.643,0.262,0.667,-45.655,1.157,1.257,-0.019,0.558,-0.438,0.538,0.455,57.303,0.773,1.178,-0.005,0.574,-0.419,0.553,0.435,-85.944,0.769,1.178,-0.098,0.015,0.011,0.797,0.604,-89.954,0.678,1.152,-0.094,0.015,0.011,0.797,0.604,0.000,0.700,1.073,-0.095,0.018,-0.003,0.990,-0.137,False,False
4.495,1.454,0.953,-0.014,0.000,-0.686,0.000,0.728,-3.380,1.446,0.953,-0.150,0.275,-0.635,0.259,0.674,-45.656,1.157,1.257,-0.013,0.564,-0.433,0.532,0.460,57.303,0.773,1.178,0.010,0.580,-0.414,0.547,0.439,-85.944,0.768,1.178,-0.083,0.024,0.018,0.797,0.604,-89.954,0.677,1.152,-0.077,0.024,0.018,0.797,0.604,0.000,0.699,1.073,-0.079,0.029,-0.004,0.990,-0.137,False,False
4.596,1.454,0.953,-0.014,0.000,-0.683,0.000,0.731,-3.916,1.445,0.953,-0.150,0.276,-0.632,0.258,0.677,-45.656,1.157,1.257,-0.010,0.567,-0.431,0.529,0.462,57.303,0.773,1.178,0.016,0.583,-0.412,0.544,0.441,-85.944,0.767,1.178,-0.076,0.028,0.020,0.797,0.604,-89.954,0.676,1.152,-0.070,0.028,0.020,0.797,0.604,0.000,0.698,1.073,-0.072,0.034,-0.005,0.990,-0.137,False,False
4.699,1.454,0.953,-0.014,0.000,-0.681,0.000,0.732,-4.111,1.444,0.953,-0.150,0.276,-0.631,0.257,0.678,-45.656,1.157,1.257,-0.009,0.567,-0.430,0.528,0.462,57.303,0.773,1.178,0.019,0.583,-0.411,0.543,0.442,-85.944,0.767,1.178,-0.074,0.029,0.021,0.797,0.603,-89.954,0.676,1.152,-0.067,0.029,0.021,0.797,0.603,0.000,0.698,1.073,-0.069,0.036,-0.005,0.990,-0.137,False,False
4.799,1.454,0.953,-0.014,0.000,-0.681,0.000,0.732,-4.182,1.444,0.953,-0.149,0.276,-0.630,0.257,0.678,-45.656,1.157,1.257,-0.008,0.568,-0.430,0.528,0.463,57.303,0.773,1.178,0.020,0.584,-0.411,0.543,0.442,-85.944,0.767,1.178,-0.073,0.029,0.022,0.797,0.603,-89.954,0.676,1.152,-0.067,0.029,0.022,0.797,0.603,0.000,0.698,1.073,-0.068,0.036,-0.005,0.990,-0.137,False,False
4.903,1.454,0.953,-0.014,0.000,-0.681,0.000,0.733,-4.211,1.444,0.953,-0.149,0.276,-0.630,0.257,0.678,-45.656,1.157,1.257,-0.008,0.568,-0.430,0.528,0.463,57.303,0.773,1.178,0.020,0.584,-0.411,0.543,0.442,-85.944,0.767,1.178,-0.073,0.030,0.022,0.797,0.603,-89.954,0.676,1.152,-0.066,0.030,0.022,0.797,0.603,0.000,0.698,1.073,-0.068,0.036,-0.005,0.990,-0.137,False,False
5.004,1.454,0.953,-0.014,0.000,-0.681,0.000,0.733,-4.219,1.444,0.953,-0.149,0.276,-0.630,0.257,0.678,-45.656,1.157,1.257,-0.008,0.568,-0.430,0.528,0.463,57.303,0.773,1.178,0.020,0.584,-0.411,0.542,0.442,-85.944,0.767,1.178,-0.073,0.030,0.022,0.797,0.603,-89.954,0.676,1.152,-0.066,0.030,0.022,0.797,0.603,0.000,0.698,1.073,-0.068,0.037,-0.005,0.990,-0.137,False,False
5.105,1.454,0.953,-0.014,0.000,-0.681,0.000,0.733,-4.222,1.444,0.953,-0.149,0.277,-0.630,0.257,0.678,-45.656,1.157,1.257,-0.008,0.568,-0.430,0.528,0.463,57.303,0.773,1.178,0.020,0.584,-0.411,0.542,0.442,-85.944,0.767,1.178,-0.073,0.030,0.022,0.797,0.603,-89.954,0.676,1.152,-0.066,0.030,0.022,0.797,0.603,0.000,0.698,1.073,-0.068,0.037,-0.005,0.990,-0.137,False,False
5.207,1.454,0.953,-0.014,0.000,-0.681,0.000,0.733,-4.223,1.444,0.953,-0.149,0.277,-0.630,0.257,0.678,-45.656,1.157,1.257,-0.008,0.568,-0.430,0.528,0.463,57.303,0.773,1.178,0.020,0.584,-0.411,0.542,0.442,-85.944,0.767,1.178,-0.073,0.030,0.022,0.797,0.603,-89.954,0.676,1.152,-0.066,0.030,0.022,0.797,0.603,0.000,0.698,1.073,-0.068,0.037,-0.005,0.990,-0.137,False,False
5.311,1.454,0.953,-0.014,0.000,-0.681,0.000,0.733,-4.223,1.444,0.953,-0.149,0.277,-0.630,0.257,0.679,-45.656,1.157,1.257,-0.008,0.568,-0.430,0.528,0.463,57.303,0.773,1.178,0.020,0.584,-0.411,0.542,0.442,-85.944,0.767,1.178,-0.073,0.030,0.022,0.797,0.603,-89.954,0.676,1.152,-0.066,0.030,0.022,0.797,0.603,0.000,0.698,1.073,-0.068,0.037,-0.005,0.990,-0.137,False,False
5.411,1.454,0.953,-0.014,0.000,-0.681,0.000,0.733,-4.223,1.444,0.953,-0.149,0.277,-0.630,0.257,0.679,-45.656,1.157,1.257,-0.008,0.568,-0.430,0.528,0.463,57.303,0.773,1.178,0.020,0.584,-0.411,0.542,0.442,-85.944,0.767,1.178,-0.073,0.030,0.022,0.797,0.603,-89.954,0.676,1.152,-0.066,0.030,0.022,0.797,0.603,0.000,0.698,1.073,-0.068,0.037,-0.005,0.990,-0.137,False,False
5.512,1.454,0.953,-0.014,0.000,-0.681,0.000,0.733,-4.223,1.444,0.953,-0.149,0.277,-0.630,0.257,0.679,-45.656,1.157,1.257,-0.008,0.568,-0.430,0.528,0.463,57.303,0.773,1.178,0.020,0.584,-0.411,0.542,0.442,-85.944,0.767,1.178,-0.073,0.030,0.022,0.797,0.603,-89.954,0.676,1.152,-0.066,0.030,0.022,0.797,0.603,0.000,0.698,1.073,-0.068,0.037,-0.005,0.990,-0.137,False,False
5.613,1.454,0.953,-0.014,0.000,-0.681,0.000,0.733,-4.223,1.444,0.953,-0.149,0.277,-0.630,0.257,0.679,-45.656,1.157,1.257,-0.008,0.568,-0.430,0.528,0.463,57.303,0.773,1.178,0.020,0.584,-0.411,0.542,0.442,-85.944,0.767,1.178,-0.073,0.030,0.022,0.797,0.603,-89.954,0.676,1.152,-0.066,0.030,0.022,0.797,0.603,0.000,0.698,1.073,-0.068,0.037,-0.005,0.990,-0.137,False,False
5.716,1.454,0.953,-0.014,0.000,-0.681,0.000,0.733,-4.223,1.444,0.953,-0.149,0.277,-0.630,0.257,0.679,-45.656,1.157,1.257,-0.008,0.568,-0.430,0.528,0.463,57.303,0.773,1.178,0.020,0.584,-0.411,0.542,0.442,-85.944,0.767,1.178,-0.073,0.030,0.022,0.797,0.603,-89.954,0.676,1.152,-0.066,0.030,0.022,0.797,0.603,0.000,0.698,1.073,-0.068,0.037,-0.005,0.990,-0.137,False,False
5.817,1.454,0.953,-0.014,0.000,-0.681,0.000,0.733,-4.223,1.444,0.953,-0.149,0.277,-0.630,0.257,0.679,-45.656,1.157,1.257,-0.008,0.568,-0.430,0.528,0.463,57.303,0.773,1.178,0.020,0.584,-0.411,0.542,0.442,-85.944,0.767,1.178,-0.073,0.030,0.022,0.797,0.603,-89.954,0.676,1.152,-0.066,0.030,0.022,0.797,0.603,0.000,0.698,1.073,-0.068,0.037,-0.005,0.990,-0.137,False,False
5.919,1.454,0.953,-0.014,0.000,-0.681,0.000,0.733,-4.223,1.444,0.953,-0.149,0.277,-0.630,0.257,0.679,-45.656,1.157,1.257,-0.008,0.568,-0.430,0.528,0.463,57.303,0.773,1.178,0.020,0.584,-0.411,0.542,0.442,-85.944,0.767,1.178,-0.073,0.030,0.022,0.797,0.603,-89.954,0.676,1.152,-0.066,0.030,0.022,0.797,0.603,0.000,0.698,1.073,-0.068,0.037,-0.005,0.990,-0.137,False,False
6.021,1.454,0.953,-0.014,0.000,-0.681,0.000,0.733,-4.223,1.444,0.953,-0.149,0.277,-0.630,0.257,0.679,-45.656,1.157,1.257,-0.008,0.568,-0.430,0.528,0.463,57.303,0.773,1.178,0.020,0.584,-0.411,0.542,0.442,-85.944,0.767,1.178,-0.073,0.030,0.022,0.797,0.603,-89.954,0.676,1.152,-0.066,0.030,0.022,0.797,0.603,0.000,0.698,1.073,-0.068,0.037,-0.005,0.990,-0.137,False,False
6.123,1.454,0.953,-0.014,0.000,-0.681,0.000,0.733,-4.223,1.444,0.953,-0.149,0.277,-0.630,0.257,0.679,-45.656,1.157,1.257,-0.008,0.568,-0.430,0.528,0.463,57.303,0.773,1.178,0.020,0.584,-0.411,0.542,0.442,-85.944,0.767,1.178,-0.073,0.030,0.022,0.797,0.603,-89.954,0.676,1.152,-0.066,0.030,0.022,0.797,0.603,0.000,0.698,1.073,-0.068,0.037,-0.005,0.990,-0.137,False,False
6.228,1.454,0.953,-0.014,0.000,-0.681,0.000,0.733,-4.223,1.444,0.953,-0.149,0.277,-0.630,0.257,0.679,-45.656,1.157,1.257,-0.008,0.568,-0.430,0.528,0.463,57.303,0.773,1.178,0.020,0.584,-0.411,0.542,0.442,-85.944,0.767,1.178,-0.073,0.030,0.022,0.797,0.603,-89.954,0.676,1.152,-0.066,0.030,0.022,0.797,0.603,0.000,0.698,1.073,-0.068,0.037,-0.005,0.990,-0.137,False,False
6.331,1.454,0.953,-0.014,0.000,-0.681,0.000,0.733,-4.223,1.444,0.953,-0.149,0.277,-0.630,0.257,0.679,-45.656,1.157,1.257,-0.008,0.568,-0.430,0.528,0.463,57.303,0.773,1.178,0.020,0.584,-0.411,0.542,0.442,-85.944,0.767,1.178,-0.073,0.030,0.022,0.797,0.603,-89.954,0.676,1.152,-0.066,0.030,0.022,0.797,0.603,0.000,0.698,1.073,-0.068,0.037,-0.005,0.990,-0.137,False,False
6.432,1.454,0.953,-0.014,0.000,-0.778,0.000,0.628,12.152,1.483,0.953,-0.147,0.237,-0.720,0.294,0.582,-45.660,1.167,1.257,-0.092,0.487,-0.491,0.603,0.397,57.303,0.791,1.178,-0.173,0.501,-0.470,0.620,0.379,-85.943,0.811,1.178,-0.264,-0.084,-0.064,0.793,0.600,-89.936,0.722,1.152,-0.283,-0.084,-0.064,0.793,0.600,0.008,0.744,1.073,-0.279,-0.105,0.014,0.985,-0.136,False,False
6.536,1.454,0.953,-0.014,0.000,-0.877,0.000,0.480,32.613,1.527,0.953,-0.128,0.181,-0.812,0.331,0.445,-45.659,1.212,1.257,-0.188,0.372,-0.554,0.680,0.303,57.303,0.889,1.178,-0.395,0.383,-0.530,0.699,0.290,-85.943,0.939,1.178,-0.473,-0.223,-0.170,0.765,0.580,-89.936,0.862,1.152,-0.522,-0.223,-0.170,0.765,0.580,0.008,0.881,1.073,-0.510,-0.278,0.038,0.951,-0.131,False,False
6.639,1.454,0.953,-0.014,0.000,-0.949,0.000,0.317,53.074,1.563,0.953,-0.096,0.120,-0.878,0.358,0.293,-45.659,1.288,1.257,-0.261,0.245,-0.599,0.735,0.200,57.303,1.058,1.178,-0.568,0.252,-0.573,0.756,0.191,-85.943,1.132,1.178,-0.624,-0.356,-0.270,0.713,0.540,-89.936,1.077,1.152,-0.697,-0.356,-0.270,0.713,0.540,0.008,1.091,1.073,-0.679,-0.442,0.061,0.886,-0.122,False,False
6.741,1.454,0.953,-0.014,0.000,-0.994,0.000,0.108,77.628,1.587,0.953,-0.043,0.041,-0.921,0.375,0.100,-45.659,1.406,1.257,-0.308,0.084,-0.628,0.771,0.068,57.303,1.324,1.178,-0.683,0.086,-0.600,0.792,0.065,-85.943,1.415,1.178,-0.703,-0.499,-0.379,0.621,0.470,-89.936,1.395,1.152,-0.792,-0.499,-0.379,0.621,0.470,0.008,1.400,1.073,-0.770,-0.621,0.085,0.772,-0.107,False,False
6.843,1.454,0.953,-0.014,0.000,-0.998,0.000,-0.071,98.089,1.588,0.953,0.005,-0.027,-0.924,0.376,-0.065,-45.659,1.512,1.257,-0.306,-0.055,-0.630,0.773,-0.045,57.303,1.566,1.178,-0.686,-0.056,-0.602,0.795,-0.043,-85.943,1.658,1.178,-0.673,-0.602,-0.456,0.523,0.396,-89.936,1.671,1.152,-0.763,-0.602,-0.456,0.523,0.396,0.008,1.668,1.073,-0.741,-0.748,0.103,0.649,-0.090,False,False
6.945,1.454,0.953,-0.014,0.000,-0.969,0.000,-0.247,118.550,1.573,0.953,0.051,-0.093,-0.897,0.366,-0.228,-45.659,1.610,1.257,-0.267,-0.191,-0.612,0.751,-0.156,57.303,1.794,1.178,-0.605,-0.197,-0.585,0.772,-0.149,-85.943,1.875,1.178,-0.560,-0.685,-0.519,0.408,0.308,-89.936,1.919,1.152,-0.640,-0.685,-0.519,0.408,0.308,0.008,1.908,1.073,-0.621,-0.852,0.117,0.506,-0.070,False,False
7.047,1.454,0.953,-0.014,0.000,-0.910,0.000,-0.415,139.012,1.543,0.953,0.089,-0.157,-0.843,0.343,-0.384,-45.659,1.689,1.257,-0.197,-0.322,-0.575,0.705,-0.262,57.303,1.979,1.178,-0.449,-0.331,-0.549,0.725,-0.250,-85.943,2.040,1.178,-0.378,-0.746,-0.566,0.279,0.211,-89.936,2.109,1.152,-0.438,-0.746,-0.566,0.280,0.211,0.008,2.092,1.073,-0.424,-0.928,0.128,0.347,-0.048,False,False
7.148,1.454,0.953,-0.014,0.000,-0.827,0.000,-0.562,158.369,1.504,0.953,0.112,-0.212,-0.766,0.312,-0.520,-45.660,1.736,1.257,-0.108,-0.436,-0.523,0.641,-0.355,57.303,2.093,1.178,-0.250,-0.448,-0.500,0.659,-0.339,-85.943,2.127,1.178,-0.164,-0.783,-0.593,0.150,0.113,-89.951,2.212,1.152,-0.197,-0.783,-0.593,0.150,0.113,0.003,2.192,1.073,-0.189,-0.973,0.134,0.186,-0.026,False,False
7.249,1.454,0.953,-0.014,0.000,-0.752,0.000,-0.659,172.388,1.472,0.953,0.121,-0.249,-0.697,0.284,-0.610,-45.659,1.751,1.257,-0.037,-0.511,-0.475,0.583,-0.416,57.303,2.131,1.178,-0.088,-0.525,-0.454,0.600,-0.398,-85.943,2.144,1.178,0.004,-0.795,-0.603,0.053,0.040,-89.954,2.234,1.152,-0.008,-0.795,-0.603,0.053,0.040,0.000,2.212,1.073,-0.005,-0.988,0.136,0.066,-0.009,False,False
7.352,1.454,0.953,-0.014,0.000,-0.724,0.000,-0.689,177.170,1.461,0.953,0.122,-0.260,-0.671,0.273,-0.638,-45.657,1.751,1.257,-0.013,-0.534,-0.458,0.562,-0.436,57.304,2.135,1.178,-0.032,-0.550,-0.437,0.577,-0.416,-85.944,2.140,1.178,0.061,-0.797,-0.604,0.020,0.015,-89.954,2.231,1.152,0.057,-0.797,-0.604,0.020,0.015,0.000,2.209,1.073,0.058,-0.990,0.137,0.025,-0.004,False,False
7.453,1.454,0.953,-0.014,0.000,-0.714,0.000,-0.701,178.953,1.456,0.953,0.122,-0.264,-0.661,0.269,-0.649,-45.655,1.751,1.257,-0.003,-0.543,-0.451,0.553,-0.443,57.304,2.135,1.178,-0.010,-0.558,-0.431,0.569,-0.423,-85.944,2.137,1.178,0.083,-0.797,-0.604,0.008,0.005,-89.954,2.228,1.152,0.081,-0.797,-0.604,0.008,0.005,0.000,2.206,1.073,0.081,-0.991,0.137,0.009,-0.002,False,False
7.556,1.454,0.953,-0.014,0.000,-0.710,0.000,-0.705,179.604,1.455,0.953,0.122,-0.266,-0.657,0.268,-0.653,-45.655,1.751,1.257,0.000,-0.546,-0.448,0.550,-0.445,57.303,2.135,1.178,-0.003,-0.562,-0.428,0.566,-0.426,-85.944,2.136,1.178,0.090,-0.797,-0.604,0.003,0.002,-89.954,2.227,1.152,0.090,-0.797,-0.604,0.003,0.002,0.000,2.205,1.073,0.090,-0.991,0.137,0.003,-0.001,False,False
7.658,1.454,0.953,-0.014,0.000,-0.708,0.000,-0.706,179.841,1.454,0.953,0.122,-0.266,-0.656,0.267,-0.654,-45.656,1.751,1.257,0.001,-0.547,-0.447,0.549,-0.446,57.303,2.135,1.178,0.000,-0.563,-0.428,0.564,-0.426,-85.944,2.136,1.178,0.093,-0.797,-0.604,0.001,0.001,-89.954,2.227,1.152,0.093,-0.797,-0.604,0.001,0.001,0.000,2.204,1.073,0.093,-0.991,0.137,0.001,-0.001,False,False
7.761,1.454,0.953,-0.014,0.000,-0.708,0.000,-0.707,179.936,1.454,0.953,0.122,-0.267,-0.655,0.267,-0.654,-45.656,1.751,1.257,0.002,-0.548,-0.447,0.548,-0.446,57.303,2.135,1.178,0.001,-0.563,-0.427,0.564,-0.427,-85.944,2.135,1.178,0.094,-0.797,-0.604,0.001,0.000,-89.954,2.226,1.152,0.094,-0.797,-0.604,0.001,0.000,0.000,2.204,1.073,0.094,-0.991,0.137,0.001,0.000,False,False
7.864,1.454,0.953,-0.014,0.000,-0.707,0.000,-0.707,179.962,1.454,0.953,0.122,-0.267,-0.655,0.267,-0.655,-45.656,1.751,1.257,0.002,-0.548,-0.447,0.548,-0.447,57.303,2.135,1.178,0.002,-0.563,-0.427,0.564,-0.427,-85.944,2.135,1.178,0.095,-0.797,-0.604,0.001,0.000,-89.954,2.226,1.152,0.095,-0.797,-0.604,0.001,0.000,0.000,2.204,1.073,0.095,-0.991,0.137,0.000,0.000,False,False
7.968,1.454,0.953,-0.014,0.000,-0.709,0.000,-0.705,179.681,1.455,0.953,0.122,-0.266,-0.657,0.268,-0.653,-45.655,1.751,1.257,0.000,-0.547,-0.448,0.550,-0.445,57.303,2.135,1.178,-0.002,-0.562,-0.428,0.565,-0.426,-85.944,2.136,1.178,0.091,-0.797,-0.604,0.003,0.001,-89.954,2.227,1.152,0.091,-0.797,-0.604,0.003,0.001,0.000,2.205,1.073,0.091,-0.991,0.137,0.003,-0.001,False,False
8.070,1.454,0.953,-0.014,0.000,-0.715,0.000,-0.699,178.650,1.457,0.953,0.122,-0.264,-0.662,0.270,-0.647,-45.655,1.751,1.257,-0.005,-0.542,-0.452,0.555,-0.441,57.303,2.135,1.178,-0.014,-0.557,-0.432,0.570,-0.422,-85.944,2.138,1.178,0.079,-0.797,-0.604,0.010,0.007,-89.954,2.229,1.152,0.077,-0.797,-0.604,0.010,0.007,0.000,2.206,1.073,0.078,-0.991,0.137,0.012,-0.002,False,False
8.173,1.454,0.953,-0.014,0.000,-0.723,0.000,-0.690,177.321,1.460,0.953,0.122,-0.261,-0.670,0.273,-0.639,-45.656,1.751,1.257,-0.012,-0.535,-0.457,0.561,-0.436,57.303,2.135,1.178,-0.030,-0.550,-0.437,0.577,-0.417,-85.944,2.140,1.178,0.063,-0.797,-0.604,0.019,0.014,-89.954,2.231,1.152,0.059,-0.797,-0.604,0.019,0.014,0.000,2.208,1.073,0.060,-0.990,0.137,0.023,-0.004,False,False
8.274,1.454,0.953,-0.014,0.000,-0.732,0.000,-0.681,175.884,1.464,0.953,0.121,-0.257,-0.678,0.276,-0.631,-45.656,1.751,1.257,-0.019,-0.528,-0.462,0.567,-0.430,57.303,2.135,1.178,-0.047,-0.543,-0.442,0.583,-0.411,-85.944,2.141,1.178,0.046,-0.797,-0.603,0.029,0.021,-89.954,2.232,1.152,0.039,-0.797,-0.603,0.029,0.021,0.000,2.210,1.073,0.041,-0.990,0.137,0.036,-0.005,False,False
8.376,1.454,0.953,-0.014,0.000,-0.741,0.000,-0.672,174.406,1.467,0.953,0.121,-0.254,-0.686,0.280,-0.622,-45.656,1.751,1.257,-0.027,-0.521,-0.468,0.574,-0.424,57.303,2.134,1.178,-0.064,-0.535,-0.447,0.590,-0.406,-85.944,2.143,1.178,0.028,-0.796,-0.603,0.039,0.029,-89.954,2.233,1.152,0.019,-0.796,-0.603,0.039,0.029,0.000,2.211,1.073,0.022,-0.989,0.136,0.048,-0.007,False,False
8.479,1.454,0.953,-0.014,0.000,-0.749,0.000,-0.662,172.915,1.471,0.953,0.121,-0.250,-0.694,0.283,-0.613,-45.656,1.751,1.257,-0.035,-0.513,-0.473,0.581,-0.418,57.303,2.132,1.178,-0.082,-0.528,-0.453,0.597,-0.400,-85.944,2.143,1.178,0.010,-0.796,-0.603,0.050,0.037,-89.954,2.234,1.152,-0.001,-0.796,-0.603,0.050,0.037,0.000,2.212,1.073,0.002,-0.989,0.136,0.061,-0.009,False,False
8.581,1.454,0.953,-0.014,0.000,-0.760,0.000,-0.650,171.118,1.475,0.953,0.120,-0.245,-0.704,0.287,-0.602,-45.656,1.750,1.257,-0.044,-0.504,-0.480,0.589,-0.411,57.303,2.130,1.178,-0.103,-0.518,-0.459,0.606,-0.393,-85.944,2.144,1.178,-0.011,-0.795,-0.602,0.062,0.047,-89.954,2.234,1.152,-0.025,-0.795,-0.602,0.062,0.047,0.000,2.212,1.073,-0.022,-0.988,0.136,0.077,-0.011,False,False
8.682,1.454,0.953,-0.014,0.000,-0.767,0.000,-0.641,169.773,1.478,0.953,0.120,-0.242,-0.711,0.290,-0.594,-45.656,1.749,1.257,-0.051,-0.497,-0.485,0.595,-0.405,57.303,2.127,1.178,-0.119,-0.511,-0.463,0.612,-0.387,-85.944,2.144,1.178,-0.028,-0.794,-0.601,0.071,0.054,-89.954,2.233,1.152,-0.044,-0.794,-0.601,0.071,0.054,0.000,2.212,1.073,-0.040,-0.987,0.136,0.088,-0.013,False,False
8.785,1.454,0.953,-0.014,0.000,-0.770,0.000,-0.637,169.203,1.479,0.953,0.119,-0.241,-0.714,0.291,-0.590,-45.656,1.749,1.257,-0.054,-0.494,-0.487,0.597,-0.403,57.303,2.126,1.178,-0.126,-0.508,-0.465,0.614,-0.385,-85.944,2.144,1.178,-0.034,-0.794,-0.601,0.075,0.057,-89.954,2.233,1.152,-0.051,-0.794,-0.601,0.075,0.057,0.000,2.211,1.073,-0.047,-0.986,0.136,0.093,-0.013,False,False
8.887,1.454,0.953,-0.014,0.000,-0.772,0.000,-0.636,168.996,1.480,0.953,0.119,-0.240,-0.715,0.291,-0.589,-45.656,1.749,1.257,-0.055,-0.493,-0.487,0.598,-0.402,57.303,2.126,1.178,-0.128,-0.507,-0.466,0.615,-0.384,-85.944,2.144,1.178,-0.037,-0.793,-0.601,0.077,0.058,-89.954,2.233,1.152,-0.054,-0.793,-0.601,0.077,0.058,0.000,2.211,1.073,-0.050,-0.986,0.136,0.095,-0.013,False,False
8.990,1.454,0.953,-0.014,0.000,-0.772,0.000,-0.636,168.920,1.480,0.953,0.119,-0.240,-0.715,0.291,-0.589,-45.656,1.749,1.257,-0.055,-0.493,-0.488,0.599,-0.401,57.303,2.126,1.178,-0.129,-0.507,-0.466,0.615,-0.384,-85.944,2.144,1.178,-0.038,-0.793,-0.601,0.077,0.058,-89.954,2.233,1.152,-0.055,-0.793,-0.601,0.077,0.058,0.000,2.211,1.073,-0.051,-0.986,0.136,0.096,-0.014,False,False
9.093,1.454,0.953,-0.014,0.000,-0.772,0.000,-0.635,168.892,1.480,0.953,0.119,-0.240,-0.715,0.291,-0.588,-45.656,1.749,1.257,-0.055,-0.493,-0.488,0.599,-0.401,57.303,2.126,1.178,-0.129,-0.506,-0.466,0.616,-0.384,-85.944,2.144,1.178,-0.038,-0.793,-0.601,0.077,0.058,-89.954,2.233,1.152,-0.056,-0.793,-0.601,0.077,0.058,0.000,2.211,1.073,-0.051,-0.986,0.136,0.096,-0.014,False,False
9.195,1.454,0.953,-0.014,0.000,-0.772,0.000,-0.635,168.882,1.480,0.953,0.119,-0.240,-0.715,0.291,-0.588,-45.656,1.749,1.257,-0.055,-0.492,-0.488,0.599,-0.401,57.303,2.126,1.178,-0.130,-0.506,-0.466,0.616,-0.384,-85.944,2.143,1.178,-0.038,-0.793,-0.601,0.078,0.058,-89.954,2.233,1.152,-0.056,-0.793,-0.601,0.078,0.058,0.000,2.211,1.073,-0.051,-0.986,0.136,0.096,-0.014,False,False
9.298,1.454,0.953,-0.014,0.000,-0.772,0.000,-0.635,168.879,1.480,0.953,0.119,-0.240,-0.715,0.291,-0.588,-45.656,1.749,1.257,-0.055,-0.492,-0.488,0.599,-0.401,57.303,2.126,1.178,-0.130,-0.506,-0.466,0.616,-0.384,-85.944,2.143,1.178,-0.038,-0.793,-0.601,0.078,0.058,-89.954,2.233,1.152,-0.056,-0.793,-0.601,0.078,0.058,0.000,2.211,1.073,-0.052,-0.986,0.136,0.096,-0.014,False,False
9.404,1.454,0.953,-0.014,0.000,-0.772,0.000,-0.635,168.877,1.480,0.953,0.119,-0.240,-0.715,0.291,-0.588,-45.656,1.749,1.257,-0.055,-0.492,-0.488,0.599,-0.401,57.303,2.126,1.178,-0.130,-0.506,-0.466,0.616,-0.384,-85.944,2.143,1.178,-0.038,-0.793,-0.601,0.078,0.058,-89.954,2.233,1.152,-0.056,-0.793,-0.601,0.078,0.058,0.000,2.211,1.073,-0.052,-0.986,0.136,0.096,-0.014,False,False
9.505,1.454,0.953,-0.014,0.000,-0.772,0.000,-0.635,168.877,1.480,0.953,0.119,-0.240,-0.715,0.291,-0.588,-45.656,1.749,1.257,-0.055,-0.492,-0.488,0.599,-0.401,57.303,2.126,1.178,-0.130,-0.506,-0.466,0.616,-0.384,-85.944,2.143,1.178,-0.038,-0.793,-0.601,0.078,0.058,-89.954,2.233,1.152,-0.056,-0.793,-0.601,0.078,0.058,0.000,2.211,1.073,-0.052,-0.986,0.136,0.096,-0.014,False,False
9.605,1.454,0.953,-0.014,0.000,-0.772,0.000,-0.635,168.877,1.480,0.953,0.119,-0.240,-0.715,0.291,-0.588,-45.656,1.749,1.257,-0.055,-0.492,-0.488,0.599,-0.401,57.303,2.126,1.178,-0.130,-0.506,-0.466,0.616,-0.384,-85.944,2.143,1.178,-0.038,-0.793,-0.601,0.078,0.058,-89.954,2.233,1.152,-0.056,-0.793,-0.601,0.078,0.058,0.000,2.211,1.073,-0.052,-0.986,0.136,0.096,-0.014,False,False
9.708,1.454,0.953,-0.014,0.000,-0.772,0.000,-0.635,168.877,1.480,0.953,0.119,-0.240,-0.715,0.291,-0.588,-45.656,1.749,1.257,-0.055,-0.492,-0.488,0.599,-0.401,57.303,2.126,1.178,-0.130,-0.506,-0.466,0.616,-0.384,-85.944,2.143,1.178,-0.038,-0.793,-0.601,0.078,0.058,-89.954,2.233,1.152,-0.056,-0.793,-0.601,0.078,0.058,0.000,2.211,1.073,-0.052,-0.986,0.136,0.096,-0.014,False,False
9.811,1.454,0.953,-0.014,0.000,-0.772,0.000,-0.635,168.877,1.480,0.953,0.119,-0.240,-0.715,0.291,-0.588,-45.656,1.749,1.257,-0.055,-0.492,-0.488,0.599,-0.401,57.303,2.126,1.178,-0.130,-0.506,-0.466,0.616,-0.384,-85.944,2.143,1.178,-0.038,-0.793,-0.601,0.078,0.058,-89.954,2.233,1.152,-0.056,-0.793,-0.601,0.078,0.058,0.000,2.211,1.073,-0.052,-0.986,0.136,0.096,-0.014,False,False
9.912,1.454,0.953,-0.014,0.000,-0.772,0.000,-0.635,168.877,1.480,0.953,0.119,-0.240,-0.715,0.291,-0.588,-45.656,1.749,1.257,-0.055,-0.492,-0.488,0.599,-0.401,57.303,2.126,1.178,-0.130,-0.506,-0.466,0.616,-0.384,-85.944,2.143,1.178,-0.038,-0.793,-0.601,0.078,0.058,-89.954,2.233,1.152,-0.056,-0.793,-0.601,0.078,0.058,0.000,2.211,1.073,-0.052,-0.986,0.136,0.096,-0.014,False,False
10.012,1.454,0.953,-0.014,0.000,-0.772,0.000,-0.635,168.877,1.480,0.953,0.119,-0.240,-0.715,0.291,-0.588,-45.656,1.749,1.257,-0.055,-0.492,-0.488,0.599,-0.401,57.303,2.126,1.178,-0.130,-0.506,-0.466,0.616,-0.384,-85.944,2.143,1.178,-0.038,-0.793,-0.601,0.078,0.058,-89.954,2.233,1.152,-0.056,-0.793,-0.601,0.078,0.058,0.000,2.211,1.073,-0.052,-0.986,0.136,0.096,-0.014,False,False
10.115,1.454,0.953,-0.014,0.000,-0.772,0.000,-0.636,168.931,1.480,0.953,0.119,-0.240,-0.715,0.291,-0.589,-45.656,1.749,1.257,-0.055,-0.493,-0.488,0.598,-0.402,57.303,2.126,1.178,-0.129,-0.507,-0.466,0.615,-0.384,-85.944,2.144,1.178,-0.038,-0.793,-0.601,0.077,0.058,-89.954,2.233,1.152,-0.055,-0.793,-0.601,0.077,0.058,0.000,2.211,1.073,-0.051,-0.986,0.136,0.096,-0.014,False,False
10.218,1.454,0.953,-0.014,0.000,-0.768,0.000,-0.641,169.734,1.478,0.953,0.120,-0.242,-0.711,0.290,-0.594,-45.656,1.749,1.257,-0.051,-0.497,-0.485,0.595,-0.405,57.303,2.127,1.178,-0.120,-0.511,-0.463,0.612,-0.387,-85.944,2.144,1.178,-0.028,-0.794,-0.601,0.072,0.054,-89.954,2.233,1.152,-0.044,-0.794,-0.601,0.072,0.054,0.000,2.212,1.073,-0.040,-0.987,0.136,0.089,-0.013,False,False
10.320,1.454,0.953,-0.014,0.000,-0.759,0.000,-0.651,171.253,1.475,0.953,0.120,-0.246,-0.703,0.286,-0.603,-45.656,1.750,1.257,-0.043,-0.505,-0.479,0.588,-0.411,57.303,2.130,1.178,-0.102,-0.519,-0.458,0.605,-0.393,-85.944,2.144,1.178,-0.010,-0.795,-0.602,0.061,0.046,-89.954,2.234,1.152,-0.024,-0.795,-0.602,0.061,0.046,0.000,2.212,1.073,-0.020,-0.988,0.136,0.076,-0.011,False,False
10.425,1.454,0.953,-0.014,0.000,-0.751,0.000,-0.661,172.677,1.471,0.953,0.121,-0.249,-0.695,0.283,-0.612,-45.656,1.751,1.257,-0.036,-0.512,-0.474,0.582,-0.417,57.303,2.132,1.178,-0.085,-0.526,-0.453,0.598,-0.399,-85.944,2.144,1.178,0.007,-0.795,-0.603,0.051,0.038,-89.954,2.234,1.152,-0.004,-0.795,-0.603,0.051,0.038,0.000,2.212,1.073,-0.001,-0.989,0.136,0.063,-0.009,False,False
10.527,1.454,0.953,-0.014,0.000,-0.742,0.000,-0.670,174.150,1.468,0.953,0.121,-0.253,-0.687,0.280,-0.621,-45.656,1.751,1.257,-0.028,-0.519,-0.469,0.575,-0.423,57.303,2.133,1.178,-0.067,-0.534,-0.448,0.592,-0.405,-85.944,2.143,1.178,0.025,-0.796,-0.603,0.041,0.031,-89.954,2.233,1.152,0.016,-0.796,-0.603,0.041,0.031,0.000,2.211,1.073,0.018,-0.989,0.136,0.051,-0.007,False,False
10.630,1.454,0.953,-0.014,0.000,-0.733,0.000,-0.680,175.640,1.464,0.953,0.121,-0.257,-0.679,0.277,-0.629,-45.656,1.751,1.257,-0.020,-0.527,-0.463,0.569,-0.429,57.303,2.134,1.178,-0.050,-0.542,-0.443,0.585,-0.410,-85.944,2.142,1.178,0.043,-0.796,-0.603,0.031,0.023,-89.954,2.232,1.152,0.036,-0.796,-0.603,0.031,0.023,0.000,2.210,1.073,0.038,-0.990,0.136,0.038,-0.006,False,False
10.733,1.454,0.953,-0.014,0.000,-0.725,0.000,-0.689,177.136,1.461,0.953,0.122,-0.260,-0.671,0.273,-0.638,-45.656,1.751,1.257,-0.013,-0.534,-0.458,0.562,-0.435,57.303,2.135,1.178,-0.032,-0.549,-0.438,0.578,-0.416,-85.944,2.140,1.178,0.061,-0.797,-0.604,0.020,0.015,-89.954,2.231,1.152,0.056,-0.797,-0.604,0.020,0.015,0.000,2.209,1.073,0.058,-0.990,0.137,0.025,-0.004,False,False
10.837,1.454,0.953,-0.014,0.000,-0.715,0.000,-0.699,178.635,1.457,0.953,0.122,-0.264,-0.663,0.270,-0.647,-45.656,1.751,1.257,-0.005,-0.542,-0.452,0.555,-0.441,57.303,2.135,1.178,-0.014,-0.557,-0.432,0.570,-0.422,-85.944,2.138,1.178,0.079,-0.797,-0.604,0.010,0.007,-89.954,2.229,1.152,0.077,-0.797,-0.604,0.010,0.007,0.000,2.206,1.073,0.077,-0.991,0.137,0.012,-0.002,False,False
10.939,1.454,0.953,-0.014,0.000,0.706,0.000,0.708,180.134,1.454,0.953,0.122,0.267,0.654,-0.267,0.656,-45.656,1.751,1.257,0.003,0.549,0.446,-0.548,0.447,57.303,2.135,1.178,0.004,0.564,0.427,-0.563,0.428,-85.944,2.135,1.178,0.097,0.797,0.604,0.001,0.001,-89.954,2.226,1.152,0.097,0.797,0.604,0.001,0.001,0.000,2.204,1.073,0.097,0.991,-0.137,0.001,0.000,False,False
11.039,1.454,0.953,-0.014,0.000,0.697,0.000,0.717,181.634,1.450,0.953,0.122,0.271,0.645,-0.263,0.664,-45.656,1.750,1.257,0.011,0.556,0.440,-0.540,0.453,57.303,2.134,1.178,0.022,0.572,0.421,-0.556,0.433,-85.944,2.132,1.178,0.115,0.797,0.604,0.011,0.009,-89.954,2.223,1.152,0.117,0.797,0.604,0.011,0.009,0.000,2.201,1.073,0.117,0.991,-0.137,0.014,-0.002,False,False
11.142,1.454,0.953,-0.014,0.000,0.686,0.000,0.728,183.434,1.446,0.953,0.122,0.275,0.635,-0.259,0.674,-45.656,1.750,1.257,0.020,0.564,0.433,-0.531,0.460,57.303,2.133,1.178,0.043,0.580,0.414,-0.546,0.440,-85.944,2.127,1.178,0.136,0.797,0.604,0.024,0.018,-89.954,2.218,1.152,0.141,0.797,0.604,0.024,0.018,0.000,2.196,1.073,0.140,0.990,-0.137,0.030,-0.004,False,False
11.242,1.454,0.953,-0.014,0.000,0.676,0.000,0.737,184.934,1.442,0.953,0.121,0.278,0.626,-0.255,0.682,-45.656,1.749,1.257,0.028,0.571,0.427,-0.524,0.465,57.303,2.131,1.178,0.061,0.587,0.408,-0.539,0.445,-85.944,2.123,1.178,0.153,0.796,0.603,0.034,0.026,-89.954,2.214,1.152,0.161,0.796,0.603,0.034,0.026,0.000,2.192,1.073,0.159,0.990,-0.137,0.043,-0.005,False,False
11.346,1.454,0.953,-0.014,0.000,0.666,0.000,0.746,186.434,1.439,0.953,0.121,0.281,0.617,-0.251,0.691,-45.656,1.747,1.257,0.035,0.578,0.421,-0.517,0.471,57.303,2.129,1.178,0.078,0.594,0.402,-0.531,0.450,-85.944,2.119,1.178,0.171,0.796,0.603,0.044,0.034,-89.954,2.209,1.152,0.181,0.796,0.603,0.044,0.034,0.000,2.187,1.073,0.179,0.989,-0.136,0.056,-0.007,False,False
11.449,1.454,0.953,-0.014,0.000,0.656,0.000,0.754,187.934,1.435,0.953,0.121,0.285,0.608,-0.248,0.699,-45.656,1.746,1.257,0.043,0.585,0.415,-0.509,0.477,57.303,2.126,1.178,0.096,0.601,0.396,-0.523,0.456,-85.944,2.114,1.178,0.188,0.795,0.602,0.055,0.042,-89.954,2.204,1.152,0.201,0.795,0.602,0.055,0.042,0.000,2.182,1.073,0.198,0.988,-0.136,0.068,-0.009,False,False
11.550,1.454,0.953,-0.014,0.000,0.647,0.000,0.763,189.434,1.432,0.953,0.120,0.288,0.599,-0.244,0.706,-45.656,1.744,1.257,0.051,0.591,0.408,-0.501,0.482,57.303,2.123,1.178,0.114,0.608,0.390,-0.515,0.461,-85.944,2.108,1.178,0.205,0.794,0.602,0.065,0.050,-89.954,2.198,1.152,0.220,0.794,0.602,0.065,0.050,0.000,2.176,1.073,0.217,0.987,-0.136,0.081,-0.011,False,False
11.651,1.454,0.953,-0.014,0.000,0.637,0.000,0.771,190.934,1.428,0.953,0.119,0.291,0.589,-0.240,0.714,-45.656,1.743,1.257,0.058,0.598,0.402,-0.493,0.487,57.303,2.120,1.178,0.131,0.615,0.384,-0.507,0.466,-85.944,2.102,1.178,0.222,0.793,0.601,0.076,0.058,-89.954,2.192,1.152,0.240,0.793,0.601,0.076,0.058,0.000,2.170,1.073,0.236,0.986,-0.136,0.094,-0.013,False,False
11.751,1.454,0.953,-0.014,0.000,0.626,0.000,0.780,192.434,1.425,0.953,0.119,0.294,0.580,-0.236,0.722,-45.656,1.741,1.257,0.066,0.604,0.396,-0.486,0.492,57.303,2.116,1.178,0.148,0.621,0.378,-0.499,0.471,-85.944,2.096,1.178,0.239,0.792,0.600,0.086,0.066,-89.954,2.185,1.152,0.259,0.792,0.600,0.086,0.066,0.000,2.163,1.073,0.254,0.985,-0.136,0.107,-0.014,False,False
11.855,1.454,0.953,-0.014,0.000,0.616,0.000,0.788,193.934,1.421,0.953,0.118,0.297,0.571,-0.233,0.729,-45.656,1.738,1.257,0.073,0.611,0.389,-0.478,0.498,57.303,2.111,1.178,0.166,0.628,0.372,-0.491,0.476,-85.944,2.089,1.178,0.256,0.791,0.599,0.096,0.073,-89.954,2.177,1.152,0.278,0.791,0.599,0.096,0.073,0.000,2.156,1.073,0.273,0.983,-0.136,0.120,-0.016,False,False
11.956,1.454,0.953,-0.014,0.000,0.606,0.000,0.796,195.434,1.418,0.953,0.117,0.300,0.561,-0.229,0.737,-45.656,1.736,1.257,0.081,0.617,0.383,-0.470,0.503,57.303,2.106,1.178,0.183,0.634,0.366,-0.483,0.480,-85.944,2.082,1.178,0.273,0.790,0.598,0.107,0.081,-89.954,2.169,1.152,0.297,0.790,0.598,0.107,0.081,0.000,2.148,1.073,0.291,0.982,-0.135,0.133,-0.018,False,False
12.060,1.454,0.953,-0.014,0.000,0.595,0.000,0.804,196.934,1.414,0.953,0.116,0.303,0.551,-0.225,0.744,-45.656,1.733,1.257,0.088,0.623,0.376,-0.461,0.508,57.303,2.101,1.178,0.200,0.640,0.359,-0.474,0.485,-85.944,2.074,1.178,0.289,0.788,0.597,0.117,0.089,-89.954,2.161,1.152,0.315,0.788,0.597,0.117,0.089,0.000,2.140,1.073,0.309,0.980,-0.135,0.146,-0.020,False,False
12.162,1.454,0.953,-0.014,0.000,0.583,0.000,0.813,198.734,1.410,0.953,0.115,0.307,0.540,-0.220,0.753,-45.656,1.730,1.257,0.097,0.630,0.368,-0.452,0.513,57.303,2.094,1.178,0.220,0.648,0.352,-0.464,0.491,-85.944,2.064,1.178,0.308,0.787,0.596,0.129,0.099,-89.954,2.150,1.152,0.337,0.787,0.596,0.129,0.099,0.000,2.129,1.073,0.330,0.977,-0.135,0.161,-0.022,False,False
12.264,1.454,0.953,-0.014,0.000,0.572,0.000,0.820,200.234,1.407,0.953,0.113,0.310,0.530,-0.216,0.760,-45.656,1.727,1.257,0.104,0.636,0.361,-0.443,0.518,57.303,2.088,1.178,0.237,0.654,0.345,-0.456,0.495,-85.944,2.055,1.178,0.324,0.785,0.594,0.140,0.106,-89.954,2.141,1.152,0.356,0.785,0.594,0.140,0.106,0.000,2.120,1.073,0.348,0.975,-0.135,0.174,-0.024,False,False
12.364,1.454,0.953,-0.014,0.000,0.561,0.000,0.828,201.734,1.404,0.953,0.112,0.312,0.520,-0.212,0.767,-45.656,1.724,1.257,0.111,0.642,0.354,-0.435,0.523,57.303,2.081,1.178,0.253,0.660,0.339,-0.447,0.500,-85.944,2.046,1.178,0.340,0.783,0.593,0.150,0.114,-89.954,2.131,1.152,0.373,0.783,0.593,0.150,0.114,0.000,2.110,1.073,0.365,0.973,-0.134,0.187,-0.025,False,False
12.468,1.454,0.953,-0.014,0.000,0.550,0.000,0.835,203.234,1.400,0.953,0.111,0.315,0.510,-0.208,0.773,-45.656,1.721,1.257,0.118,0.647,0.348,-0.427,0.527,57.303,2.074,1.178,0.270,0.666,0.332,-0.439,0.504,-85.944,2.037,1.178,0.355,0.781,0.591,0.160,0.122,-89.954,2.121,1.152,0.391,0.781,0.591,0.160,0.122,0.000,2.100,1.073,0.382,0.970,-0.134,0.199,-0.027,False,False
12.569,1.454,0.953,-0.014,0.000,0.539,0.000,0.842,204.734,1.397,0.953,0.109,0.318,0.499,-0.204,0.780,-45.656,1.717,1.257,0.125,0.653,0.341,-0.418,0.532,57.303,2.066,1.178,0.286,0.671,0.326,-0.430,0.509,-85.944,2.027,1.178,0.370,0.779,0.590,0.170,0.130,-89.954,2.110,1.152,0.408,0.779,0.590,0.170,0.130,0.000,2.090,1.073,0.399,0.968,-0.134,0.212,-0.029,False,False
12.669,1.454,0.953,-0.014,0.000,0.528,0.000,0.849,206.234,1.394,0.953,0.108,0.320,0.489,-0.199,0.786,-45.656,1.713,1.257,0.132,0.658,0.334,-0.409,0.536,57.303,2.058,1.178,0.302,0.677,0.319,-0.421,0.513,-85.944,2.017,1.178,0.385,0.776,0.588,0.181,0.137,-89.954,2.099,1.152,0.425,0.776,0.588,0.181,0.137,0.000,2.079,1.073,0.416,0.965,-0.133,0.225,-0.031,False,False
12.771,1.454,0.953,-0.014,0.000,0.517,0.000,0.856,207.734,1.391,0.953,0.106,0.323,0.479,-0.195,0.793,-45.656,1.709,1.257,0.139,0.664,0.327,-0.401,0.541,57.303,2.049,1.178,0.317,0.682,0.312,-0.412,0.517,-85.944,2.006,1.178,0.400,0.774,0.586,0.191,0.145,-89.954,2.087,1.152,0.442,0.774,0.586,0.191,0.145,0.000,2.067,1.073,0.432,0.962,-0.133,0.237,-0.032,False,False
12.875,1.454,0.953,-0.014,0.000,0.509,0.000,0.861,208.779,1.389,0.953,0.105,0.329,0.470,-0.195,0.795,-45.024,1.710,1.254,0.145,0.670,0.320,-0.396,0.540,57.298,2.045,1.170,0.329,0.689,0.305,-0.408,0.516,-85.944,2.001,1.170,0.411,0.775,0.581,0.199,0.149,-89.954,2.080,1.144,0.455,0.775,0.581,0.199,0.149,0.000,2.060,1.065,0.443,0.959,-0.138,0.246,-0.035,False,False
12.978,1.454,0.953,-0.014,0.000,0.506,0.000,0.862,209.153,1.388,0.953,0.105,0.330,0.468,-0.194,0.796,-44.930,1.709,1.253,0.147,0.672,0.317,-0.395,0.540,57.310,2.043,1.169,0.333,0.691,0.303,-0.406,0.516,-85.944,1.998,1.169,0.415,0.775,0.579,0.201,0.151,-89.954,2.077,1.142,0.459,0.775,0.579,0.201,0.151,0.000,2.057,1.064,0.447,0.958,-0.138,0.249,-0.036,False,False
13.081,1.454,0.953,-0.014,0.000,0.505,0.000,0.863,209.309,1.387,0.953,0.104,0.320,0.469,-0.187,0.801,-46.452,1.701,1.261,0.143,0.665,0.322,-0.389,0.550,57.308,2.037,1.187,0.332,0.684,0.308,-0.401,0.526,-85.944,1.992,1.187,0.413,0.767,0.589,0.200,0.154,-89.954,2.072,1.163,0.458,0.767,0.589,0.200,0.154,0.000,2.053,1.083,0.448,0.959,-0.126,0.251,-0.032,False,False
13.182,1.454,0.953,-0.014,0.000,0.505,0.000,0.863,209.352,1.387,0.953,0.104,0.310,0.471,-0.181,0.806,-47.922,1.694,1.269,0.140,0.658,0.327,-0.385,0.558,57.307,2.032,1.205,0.329,0.678,0.313,-0.396,0.535,-85.944,1.986,1.205,0.410,0.759,0.599,0.199,0.157,-89.954,2.066,1.183,0.456,0.759,0.599,0.199,0.157,0.000,2.050,1.103,0.446,0.961,-0.113,0.252,-0.029,False,False
13.286,1.454,0.953,-0.014,0.000,0.505,0.000,0.863,209.368,1.387,0.953,0.104,0.299,0.473,-0.175,0.810,-49.418,1.687,1.276,0.136,0.651,0.332,-0.381,0.567,57.307,2.026,1.222,0.326,0.671,0.318,-0.392,0.544,-85.944,1.980,1.222,0.407,0.752,0.609,0.197,0.160,-89.954,2.061,1.203,0.453,0.752,0.609,0.197,0.160,0.000,2.046,1.122,0.444,0.962,-0.101,0.252,-0.026,False,False
13.390,1.454,0.953,-0.014,0.000,0.505,0.000,0.863,209.373,1.387,0.953,0.104,0.289,0.476,-0.169,0.814,-50.917,1.680,1.283,0.131,0.644,0.336,-0.376,0.575,57.307,2.019,1.239,0.323,0.663,0.323,-0.388,0.552,-85.944,1.974,1.239,0.404,0.744,0.619,0.195,0.162,-89.954,2.055,1.222,0.449,0.744,0.619,0.195,0.162,0.000,2.042,1.141,0.442,0.963,-0.088,0.252,-0.023,False,False
13.493,1.454,0.953,-0.014,0.000,0.505,0.000,0.863,209.376,1.387,0.953,0.104,0.278,0.478,-0.163,0.817,-52.418,1.672,1.290,0.127,0.636,0.341,-0.372,0.584,57.308,2.013,1.257,0.319,0.656,0.328,-0.384,0.561,-85.944,1.967,1.257,0.400,0.735,0.629,0.192,0.165,-89.954,2.048,1.242,0.446,0.735,0.629,0.192,0.165,0.000,2.037,1.161,0.440,0.964,-0.076,0.253,-0.019,False,False
13.594,1.454,0.953,-0.014,0.000,0.505,0.000,0.863,209.377,1.387,0.953,0.104,0.267,0.480,-0.156,0.821,-53.918,1.664,1.297,0.123,0.628,0.346,-0.367,0.592,57.308,2.005,1.273,0.315,0.649,0.333,-0.379,0.570,-85.944,1.960,1.273,0.396,0.727,0.638,0.190,0.168,-89.954,2.042,1.261,0.442,0.727,0.638,0.190,0.168,0.000,2.032,1.180,0.437,0.965,-0.063,0.253,-0.016,False,False
13.697,1.454,0.953,-0.014,0.000,0.505,0.000,0.863,209.377,1.387,0.953,0.104,0.257,0.482,-0.150,0.824,-55.419,1.656,1.303,0.118,0.620,0.351,-0.363,0.600,57.308,1.998,1.290,0.311,0.641,0.338,-0.375,0.578,-85.944,1.952,1.290,0.392,0.719,0.648,0.188,0.170,-89.954,2.034,1.280,0.438,0.719,0.648,0.188,0.170,0.000,2.027,1.198,0.434,0.966,-0.050,0.253,-0.013,False,False
13.801,1.454,0.953,-0.014,0.000,0.505,0.000,0.863,209.378,1.387,0.953,0.104,0.244,0.484,-0.142,0.828,-57.220,1.647,1.310,0.113,0.611,0.357,-0.357,0.610,57.308,1.988,1.310,0.305,0.632,0.344,-0.370,0.588,-85.944,1.943,1.310,0.386,0.708,0.659,0.185,0.173,-89.954,2.025,1.303,0.433,0.708,0.659,0.185,0.173,0.000,2.020,1.221,0.430,0.967,-0.035,0.253,-0.009,False,False
13.905,1.454,0.953,-0.014,0.000,0.505,0.000,0.863,209.379,1.387,0.953,0.104,0.233,0.486,-0.136,0.831,-58.721,1.638,1.316,0.108,0.603,0.361,-0.352,0.618,57.308,1.980,1.326,0.301,0.624,0.349,-0.365,0.596,-85.944,1.934,1.326,0.382,0.700,0.668,0.183,0.175,-89.954,2.017,1.322,0.428,0.700,0.668,0.183,0.175,0.000,2.013,1.239,0.426,0.967,-0.022,0.254,-0.005,False,False
14.005,1.454,0.953,-0.014,0.000,0.505,0.000,0.863,209.379,1.387,0.953,0.104,0.222,0.488,-0.130,0.834,-60.223,1.630,1.322,0.104,0.595,0.366,-0.348,0.626,57.308,1.971,1.342,0.296,0.617,0.353,-0.360,0.604,-85.944,1.926,1.342,0.377,0.691,0.677,0.181,0.178,-89.954,2.008,1.340,0.423,0.691,0.677,0.181,0.178,0.000,2.007,1.258,0.423,0.967,-0.010,0.254,-0.002,False,False
14.108,1.454,0.953,-0.014,0.000,0.505,0.000,0.863,209.382,1.387,0.953,0.104,0.217,0.488,-0.127,0.835,-60.820,1.627,1.324,0.102,0.586,0.371,-0.342,0.634,56.285,1.967,1.355,0.294,0.608,0.358,-0.355,0.613,-85.944,1.922,1.355,0.375,0.681,0.687,0.178,0.180,-89.954,2.004,1.356,0.421,0.681,0.687,0.178,0.180,0.000,2.005,1.274,0.421,0.967,0.004,0.254,0.001,False,False
14.210,1.454,0.953,-0.014,0.000,0.505,0.000,0.863,209.383,1.387,0.953,0.104,0.216,0.489,-0.127,0.836,-60.957,1.626,1.325,0.101,0.579,0.374,-0.338,0.641,55.146,1.966,1.364,0.293,0.601,0.362,-0.351,0.620,-85.944,1.920,1.364,0.374,0.674,0.694,0.176,0.182,-89.954,2.003,1.367,0.420,0.674,0.694,0.176,0.182,0.000,2.005,1.285,0.422,0.967,0.015,0.254,0.004,False,False
14.312,1.454,0.953,-0.014,0.000,0.505,0.000,0.863,209.383,1.387,0.953,0.104,0.216,0.489,-0.127,0.836,-60.964,1.626,1.325,0.101,0.586,0.370,-0.343,0.634,56.522,1.967,1.355,0.293,0.608,0.358,-0.356,0.613,-85.944,1.921,1.355,0.374,0.682,0.686,0.178,0.180,-89.954,2.003,1.356,0.421,0.682,0.686,0.178,0.180,0.000,2.004,1.273,0.421,0.967,0.003,0.254,0.001,False,False
14.412,1.454,0.953,-0.014,0.000,0.505,0.000,0.863,209.383,1.387,0.953,0.104,0.216,0.489,-0.127,0.836,-60.962,1.626,1.325,0.101,0.595,0.366,-0.348,0.626,58.019,1.967,1.345,0.293,0.616,0.353,-0.360,0.604,-85.944,1.922,1.345,0.375,0.691,0.677,0.181,0.178,-89.954,2.004,1.343,0.421,0.691,0.677,0.181,0.178,0.000,2.003,1.261,0.420,0.967,-0.009,0.254,-0.002,False,False
14.512,1.454,0.953,-0.014,0.000,0.505,0.000,0.863,209.383,1.387,0.953,0.104,0.216,0.489,-0.127,0.836,-60.964,1.626,1.325,0.101,0.603,0.361,-0.352,0.618,59.515,1.968,1.335,0.294,0.624,0.349,-0.365,0.596,-85.944,1.922,1.335,0.375,0.699,0.668,0.183,0.175,-89.954,2.004,1.330,0.421,0.699,0.668,0.183,0.175,0.000,2.001,1.248,0.419,0.967,-0.022,0.254,-0.005,False,False
14.612,1.454,0.953,-0.014,0.000,0.505,0.000,0.863,209.382,1.387,0.953,0.104,0.216,0.489,-0.126,0.836,-60.967,1.626,1.325,0.101,0.611,0.357,-0.357,0.610,61.012,1.968,1.324,0.294,0.632,0.344,-0.369,0.588,-85.944,1.922,1.324,0.375,0.708,0.659,0.185,0.173,-89.954,2.004,1.318,0.421,0.708,0.659,0.185,0.173,0.000,1.999,1.236,0.418,0.967,-0.035,0.253,-0.009,False,False
14.717,1.454,0.953,-0.014,0.000,0.505,0.000,0.863,209.382,1.387,0.953,0.104,0.216,0.489,-0.126,0.836,-60.970,1.626,1.325,0.101,0.619,0.352,-0.362,0.602,62.509,1.967,1.314,0.294,0.640,0.339,-0.374,0.580,-85.944,1.922,1.314,0.375,0.717,0.650,0.188,0.171,-89.954,2.004,1.305,0.421,0.717,0.650,0.188,0.171,0.000,1.997,1.223,0.417,0.966,-0.047,0.253,-0.012,False,False
14.821,1.454,0.953,-0.014,0.000,0.505,0.000,0.863,209.382,1.387,0.953,0.104,0.216,0.489,-0.126,0.836,-60.974,1.626,1.325,0.101,0.628,0.346,-0.367,0.592,64.305,1.967,1.302,0.293,0.649,0.333,-0.379,0.570,-85.944,1.921,1.302,0.374,0.727,0.638,0.190,0.168,-89.954,2.003,1.290,0.420,0.727,0.638,0.190,0.168,0.000,1.994,1.208,0.415,0.965,-0.062,0.253,-0.016,False,False
14.921,1.454,0.953,-0.014,0.000,0.505,0.000,0.863,209.382,1.387,0.953,0.104,0.216,0.489,-0.126,0.836,-60.977,1.626,1.325,0.101,0.636,0.342,-0.372,0.584,65.802,1.966,1.292,0.293,0.656,0.328,-0.383,0.561,-85.944,1.921,1.292,0.374,0.735,0.629,0.192,0.165,-89.954,2.002,1.277,0.420,0.735,0.629,0.192,0.165,0.000,1.991,1.196,0.414,0.964,-0.075,0.253,-0.019,False,False
15.025,1.454,0.953,-0.014,0.000,0.505,0.000,0.863,209.382,1.387,0.953,0.104,0.216,0.489,-0.126,0.836,-60.980,1.626,1.325,0.101,0.643,0.337,-0.376,0.576,67.298,1.965,1.282,0.293,0.663,0.323,-0.388,0.553,-85.944,1.920,1.282,0.374,0.743,0.619,0.195,0.163,-89.954,2.001,1.265,0.419,0.743,0.619,0.195,0.163,0.000,1.988,1.184,0.412,0.963,-0.088,0.253,-0.023,False,False
15.125,1.454,0.953,-0.014,0.000,0.505,0.000,0.863,209.382,1.387,0.953,0.104,0.216,0.489,-0.126,0.836,-60.984,1.626,1.325,0.101,0.651,0.332,-0.380,0.567,68.795,1.964,1.272,0.292,0.670,0.318,-0.392,0.544,-85.944,1.919,1.272,0.373,0.751,0.610,0.197,0.160,-89.954,1.999,1.252,0.418,0.751,0.610,0.197,0.160,0.000,1.985,1.172,0.410,0.962,-0.100,0.252,-0.026,False,False
15.225,1.454,0.953,-0.014,0.000,0.505,0.000,0.863,209.382,1.387,0.953,0.104,0.216,0.489,-0.126,0.836,-60.988,1.626,1.325,0.101,0.658,0.327,-0.385,0.559,70.292,1.963,1.261,0.291,0.677,0.313,-0.396,0.535,-85.944,1.917,1.261,0.372,0.759,0.600,0.199,0.157,-89.954,1.998,1.240,0.417,0.759,0.600,0.199,0.157,0.000,1.981,1.159,0.408,0.961,-0.113,0.252,-0.029,False,False
15.329,1.454,0.953,-0.014,0.000,0.505,0.000,0.863,209.382,1.387,0.953,0.104,0.216,0.489,-0.126,0.836,-60.992,1.626,1.325,0.101,0.665,0.322,-0.389,0.550,71.788,1.961,1.251,0.290,0.684,0.308,-0.400,0.526,-85.944,1.916,1.251,0.371,0.767,0.590,0.201,0.155,-89.954,1.996,1.227,0.416,0.767,0.590,0.201,0.155,0.000,1.977,1.148,0.406,0.959,-0.125,0.251,-0.032,False,False
15.433,1.454,0.953,-0.014,0.000,0.505,0.000,0.863,209.381,1.387,0.953,0.104,0.216,0.489,-0.126,0.836,-60.995,1.626,1.325,0.101,0.672,0.317,-0.393,0.542,73.285,1.960,1.241,0.289,0.691,0.303,-0.404,0.517,-85.944,1.914,1.241,0.370,0.774,0.580,0.203,0.152,-89.954,1.993,1.215,0.415,0.774,0.580,0.203,0.152,0.000,1.973,1.136,0.404,0.957,-0.138,0.251,-0.036,False,False
15.535,1.454,0.953,-0.014,0.000,0.505,0.000,0.863,209.381,1.387,0.953,0.104,0.216,0.489,-0.126,0.836,-60.999,1.626,1.325,0.101,0.679,0.311,-0.397,0.533,74.781,1.958,1.231,0.288,0.698,0.297,-0.408,0.508,-85.944,1.912,1.231,0.369,0.782,0.570,0.205,0.150,-89.954,1.990,1.202,0.413,0.782,0.570,0.205,0.150,0.000,1.968,1.124,0.401,0.956,-0.150,0.250,-0.039,False,False
15.639,1.454,0.953,-0.014,0.000,0.505,0.000,0.863,209.381,1.387,0.953,0.104,0.216,0.489,-0.126,0.836,-61.003,1.626,1.325,0.101,0.686,0.306,-0.401,0.524,76.278,1.955,1.222,0.287,0.704,0.292,-0.412,0.499,-85.944,1.910,1.222,0.368,0.789,0.559,0.207,0.147,-89.954,1.988,1.190,0.412,0.789,0.559,0.207,0.147,0.000,1.964,1.113,0.398,0.954,-0.163,0.250,-0.042,False,False
15.742,1.454,0.953,-0.014,0.000,0.505,0.000,0.863,209.381,1.387,0.953,0.104,0.216,0.489,-0.126,0.836,-61.008,1.626,1.325,0.101,0.694,0.300,-0.406,0.513,78.074,1.952,1.210,0.285,0.712,0.285,-0.416,0.488,-85.944,1.907,1.210,0.366,0.798,0.547,0.209,0.144,-89.954,1.984,1.176,0.409,0.798,0.547,0.209,0.144,0.000,1.958,1.099,0.395,0.951,-0.177,0.249,-0.046,False,False
15.846,1.454,0.953,-0.014,0.000,0.505,0.000,0.863,209.381,1.387,0.953,0.104,0.216,0.489,-0.126,0.836,-61.012,1.626,1.325,0.101,0.701,0.295,-0.410,0.504,79.570,1.950,1.200,0.284,0.718,0.280,-0.420,0.479,-85.944,1.904,1.200,0.365,0.805,0.537,0.211,0.141,-89.954,1.980,1.164,0.407,0.805,0.537,0.211,0.141,0.000,1.952,1.088,0.392,0.949,-0.190,0.249,-0.049,False,False
15.950,1.454,0.953,-0.014,0.000,0.505,0.000,0.863,209.380,1.387,0.953,0.104,0.216,0.489,-0.126,0.836,-61.017,1.626,1.325,0.101,0.707,0.289,-0.414,0.495,81.067,1.947,1.190,0.282,0.724,0.274,-0.424,0.470,-85.944,1.901,1.190,0.363,0.812,0.526,0.212,0.138,-89.954,1.976,1.152,0.405,0.812,0.526,0.212,0.138,0.000,1.947,1.077,0.389,0.946,-0.202,0.248,-0.053,False,False
16.055,1.454,0.953,-0.014,0.000,0.505,0.000,0.863,209.380,1.387,0.953,0.104,0.216,0.489,-0.126,0.836,-61.021,1.626,1.325,0.101,0.714,0.284,-0.417,0.486,82.564,1.943,1.181,0.280,0.731,0.269,-0.427,0.460,-85.944,1.898,1.181,0.361,0.819,0.515,0.214,0.135,-89.954,1.972,1.140,0.403,0.819,0.515,0.214,0.135,0.000,1.941,1.066,0.386,0.943,-0.214,0.247,-0.056,False,False
16.158,1.454,0.953,-0.014,0.000,0.505,0.000,0.863,209.380,1.387,0.953,0.104,0.216,0.489,-0.126,0.836,-61.025,1.625,1.325,0.101,0.720,0.278,-0.421,0.476,84.060,1.940,1.171,0.278,0.736,0.263,-0.431,0.450,-85.944,1.894,1.171,0.359,0.825,0.505,0.216,0.133,-89.954,1.968,1.128,0.401,0.825,0.505,0.216,0.133,0.000,1.935,1.055,0.382,0.940,-0.227,0.246,-0.059,False,False
16.262,1.454,0.953,-0.014,0.000,0.505,0.000,0.863,209.380,1.387,0.953,0.104,0.216,0.489,-0.126,0.836,-61.030,1.625,1.325,0.101,0.727,0.272,-0.425,0.465,85.856,1.936,1.160,0.276,0.743,0.257,-0.435,0.439,-85.944,1.890,1.160,0.357,0.833,0.492,0.218,0.129,-89.954,1.962,1.115,0.397,0.833,0.492,0.218,0.129,0.000,1.928,1.043,0.378,0.937,-0.241,0.245,-0.063,False,False
16.366,1.454,0.953,-0.014,0.000,0.505,0.000,0.863,209.379,1.387,0.953,0.104,0.216,0.489,-0.126,0.836,-61.034,1.625,1.325,0.101,0.733,0.266,-0.429,0.455,87.353,1.932,1.151,0.274,0.749,0.251,-0.438,0.429,-85.944,1.886,1.151,0.355,0.839,0.481,0.220,0.126,-89.954,1.957,1.103,0.395,0.839,0.481,0.220,0.126,0.000,1.921,1.032,0.374,0.934,-0.254,0.245,-0.066,False,False
16.470,1.454,0.953,-0.014,0.000,0.505,0.000,0.863,209.379,1.387,0.953,0.104,0.216,0.489,-0.126,0.836,-61.038,1.625,1.325,0.101,0.739,0.261,-0.432,0.446,88.851,1.928,1.142,0.271,0.755,0.245,-0.441,0.419,-85.944,1.882,1.142,0.352,0.846,0.470,0.221,0.123,-89.954,1.952,1.092,0.392,0.846,0.470,0.221,0.123,0.000,1.914,1.022,0.370,0.930,-0.266,0.244,-0.069,False,False
16.570,1.454,0.953,-0.014,0.000,0.505,0.000,0.863,209.379,1.387,0.953,0.104,0.216,0.489,-0.126,0.836,-61.042,1.625,1.325,0.101,0.745,0.255,-0.436,0.436,90.348,1.923,1.133,0.269,0.760,0.239,-0.444,0.410,-85.944,1.878,1.133,0.350,0.852,0.459,0.223,0.120,-89.954,1.947,1.081,0.389,0.852,0.459,0.223,0.120,0.000,1.907,1.012,0.367,0.927,-0.278,0.243,-0.072,False,False
16.670,1.454,0.953,-0.014,0.000,0.505,0.000,0.863,209.379,1.387,0.953,0.104,0.216,0.489,-0.126,0.836,-61.047,1.625,1.325,0.101,0.751,0.249,-0.439,0.426,91.846,1.919,1.124,0.266,0.765,0.234,-0.447,0.400,-85.944,1.873,1.124,0.347,0.858,0.448,0.224,0.118,-89.954,1.941,1.070,0.385,0.858,0.448,0.224,0.118,0.000,1.900,1.003,0.362,0.923,-0.290,0.242,-0.076,False,False
16.774,1.454,0.953,-0.014,0.000,0.505,0.000,0.863,209.378,1.387,0.953,0.104,0.216,0.489,-0.126,0.836,-61.051,1.625,1.325,0.101,0.756,0.244,-0.442,0.417,93.343,1.914,1.115,0.264,0.770,0.228,-0.450,0.390,-85.944,1.869,1.116,0.345,0.863,0.436,0.226,0.115,-89.954,1.935,1.059,0.382,0.863,0.436,0.226,0.115,0.000,1.893,0.993,0.358,0.919,-0.302,0.241,-0.079,False,False
16.874,1.454,0.953,-0.014,0.000,0.505,0.000,0.863,209.378,1.387,0.953,0.104,0.216,0.489,-0.126,0.836,-61.055,1.625,1.325,0.101,0.761,0.238,-0.445,0.407,94.840,1.909,1.107,0.261,0.775,0.222,-0.453,0.380,-85.944,1.864,1.107,0.342,0.869,0.425,0.227,0.112,-89.954,1.929,1.049,0.379,0.869,0.425,0.227,0.112,0.000,1.885,0.984,0.354,0.915,-0.314,0.240,-0.082,False,False
16.978,1.454,0.953,-0.014,0.000,0.505,0.000,0.863,209.378,1.387,0.953,0.104,0.216,0.489,-0.126,0.836,-61.059,1.625,1.325,0.101,0.767,0.232,-0.448,0.397,96.336,1.904,1.099,0.258,0.780,0.216,-0.456,0.369,-85.944,1.859,1.099,0.339,0.874,0.414,0.229,0.109,-89.954,1.923,1.039,0.375,0.874,0.414,0.229,0.109,0.000,1.877,0.975,0.349,0.911,-0.326,0.239,-0.085,False,False
17.079,1.454,0.953,-0.014,0.000,0.505,0.000,0.863,209.378,1.387,0.953,0.104,0.216,0.489,-0.126,0.836,-61.063,1.625,1.325,0.101,0.772,0.226,-0.451,0.387,97.832,1.899,1.090,0.255,0.785,0.210,-0.459,0.359,-85.944,1.853,1.090,0.336,0.880,0.402,0.230,0.106,-89.954,1.916,1.028,0.371,0.880,0.402,0.230,0.106,0.000,1.869,0.966,0.345,0.907,-0.337,0.238,-0.088,False,False
17.179,1.454,0.953,-0.014,0.000,0.505,0.000,0.863,209.377,1.387,0.953,0.104,0.216,0.489,-0.126,0.836,-61.067,1.625,1.325,0.101,0.777,0.220,-0.454,0.377,99.328,1.894,1.082,0.252,0.790,0.204,-0.462,0.349,-85.944,1.848,1.082,0.333,0.885,0.391,0.232,0.103,-89.954,1.909,1.018,0.367,0.885,0.391,0.232,0.103,0.000,1.861,0.958,0.340,0.902,-0.349,0.236,-0.091,False,False
17.283,1.454,0.953,-0.014,0.000,0.505,0.000,0.863,209.377,1.387,0.953,0.104,0.216,0.489,-0.126,0.836,-61.072,1.625,1.325,0.101,0.783,0.213,-0.458,0.364,101.123,1.887,1.073,0.248,0.795,0.197,-0.465,0.337,-85.944,1.841,1.073,0.329,0.891,0.377,0.233,0.099,-89.954,1.900,1.007,0.363,0.891,0.377,0.233,0.099,0.000,1.851,0.948,0.335,0.897,-0.363,0.235,-0.095,False,False
17.387,1.454,0.953,-0.014,0.000,0.505,0.000,0.863,209.380,1.387,0.953,0.104,0.215,0.489,-0.126,0.836,-61.139,1.625,1.325,0.101,0.787,0.207,-0.460,0.355,102.623,1.881,1.066,0.245,0.799,0.191,-0.467,0.327,-85.944,1.835,1.066,0.326,0.896,0.366,0.234,0.096,-89.954,1.893,0.998,0.358,0.896,0.366,0.234,0.096,0.000,1.842,0.940,0.330,0.892,-0.374,0.234,-0.098,False,False
17.490,1.454,0.953,-0.014,0.000,0.505,0.000,0.863,209.380,1.387,0.953,0.104,0.215,0.489,-0.126,0.836,-61.115,1.625,1.325,0.101,0.789,0.205,-0.461,0.351,103.187,1.879,1.062,0.244,0.801,0.189,-0.468,0.323,-85.944,1.833,1.062,0.325,0.897,0.361,0.235,0.095,-89.954,1.890,0.994,0.357,0.897,0.361,0.235,0.095,0.000,1.838,0.937,0.328,0.890,-0.379,0.233,-0.099,False,False
17.594,1.454,0.953,-0.014,0.000,0.505,0.000,0.863,209.379,1.387,0.953,0.104,0.215,0.489,-0.126,0.836,-61.095,1.625,1.325,0.101,0.789,0.205,-0.461,0.350,103.202,1.879,1.062,0.244,0.801,0.188,-0.468,0.322,-85.944,1.833,1.062,0.325,0.897,0.361,0.235,0.095,-89.954,1.890,0.994,0.357,0.897,0.361,0.235,0.095,0.000,1.838,0.937,0.328,0.890,-0.379,0.233,-0.099,False,False
17.695,1.454,0.953,-0.014,0.000,0.505,0.000,0.863,209.379,1.387,0.953,0.104,0.215,0.489,-0.126,0.836,-61.093,1.625,1.325,0.101,0.789,0.205,-0.461,0.350,103.202,1.879,1.062,0.244,0.801,0.188,-0.468,0.322,-85.944,1.833,1.062,0.325,0.897,0.361,0.235,0.095,-89.954,1.890,0.994,0.357,0.897,0.361,0.235,0.095,0.000,1.838,0.937,0.328,0.890,-0.379,0.233,-0.099,False,False
17.799,1.454,0.953,-0.014,0.000,0.505,0.000,0.863,209.379,1.387,0.953,0.104,0.215,0.489,-0.126,0.836,-61.092,1.625,1.325,0.101,0.789,0.205,-0.461,0.350,103.202,1.879,1.062,0.244,0.801,0.188,-0.468,0.322,-85.944,1.833,1.062,0.325,0.897,0.361,0.235,0.095,-89.954,1.890,0.994,0.357,0.897,0.361,0.235,0.095,0.000,1.838,0.937,0.328,0.890,-0.379,0.233,-0.099,False,False
17.903,1.454,0.953,-0.014,0.000,0.505,0.000,0.863,209.379,1.387,0.953,0.104,0.215,0.489,-0.126,0.836,-61.092,1.625,1.325,0.101,0.789,0.205,-0.461,0.350,103.202,1.879,1.062,0.244,0.801,0.188,-0.468,0.322,-85.944,1.833,1.062,0.325,0.897,0.361,0.235,0.095,-89.954,1.890,0.994,0.357,0.897,0.361,0.235,0.095,0.000,1.838,0.937,0.328,0.890,-0.379,0.233,-0.099,False,False
18.007,1.454,0.953,-0.014,0.000,0.505,0.000,0.863,209.379,1.387,0.953,0.104,0.215,0.489,-0.126,0.836,-61.092,1.625,1.325,0.101,0.789,0.205,-0.461,0.350,103.202,1.879,1.062,0.244,0.801,0.188,-0.468,0.322,-85.944,1.833,1.062,0.325,0.897,0.361,0.235,0.095,-89.954,1.890,0.994,0.357,0.897,0.361,0.235,0.095,0.000,1.838,0.937,0.328,0.890,-0.379,0.233,-0.099,False,False
18.111,1.454,0.953,-0.014,0.000,0.505,0.000,0.863,209.379,1.387,0.953,0.104,0.215,0.489,-0.126,0.836,-61.092,1.625,1.325,0.101,0.789,0.205,-0.461,0.350,103.202,1.879,1.062,0.244,0.801,0.188,-0.468,0.322,-85.944,1.833,1.062,0.325,0.897,0.361,0.235,0.095,-89.954,1.890,0.994,0.357,0.897,0.361,0.235,0.095,0.000,1.838,0.937,0.328,0.890,-0.379,0.233,-0.099,False,False
18.215,1.454,0.953,-0.014,0.000,0.505,0.000,0.863,209.379,1.387,0.953,0.104,0.215,0.489,-0.126,0.836,-61.092,1.625,1.325,0.101,0.789,0.205,-0.461,0.350,103.202,1.879,1.062,0.244,0.801,0.188,-0.468,0.322,-85.944,1.833,1.062,0.325,0.897,0.361,0.235,0.095,-89.954,1.890,0.994,0.357,0.897,0.361,0.235,0.095,0.000,1.838,0.937,0.328,0.890,-0.379,0.233,-0.099,False,False
18.315,1.454,0.953,-0.014,0.000,0.505,0.000,0.863,209.379,1.387,0.953,0.104,0.215,0.489,-0.126,0.836,-61.092,1.625,1.325,0.101,0.789,0.205,-0.461,0.350,103.202,1.879,1.062,0.244,0.801,0.188,-0.468,0.322,-85.944,1.833,1.062,0.325,0.897,0.361,0.235,0.095,-89.954,1.890,0.994,0.357,0.897,0.361,0.235,0.095,0.000,1.838,0.937,0.328,0.890,-0.379,0.233,-0.099,False,False
18.416,1.454,0.953,-0.014,0.000,0.505,0.000,0.863,209.379,1.387,0.953,0.104,0.215,0.489,-0.126,0.836,-61.092,1.625,1.325,0.101,0.789,0.205,-0.461,0.350,103.202,1.879,1.062,0.244,0.801,0.188,-0.468,0.322,-85.944,1.833,1.062,0.325,0.897,0.361,0.235,0.095,-89.954,1.890,0.994,0.357,0.897,0.361,0.235,0.095,0.000,1.838,0.937,0.328,0.890,-0.379,0.233,-0.099,False,False
18.519,1.454,0.953,-0.014,0.000,0.505,0.000,0.863,209.381,1.387,0.953,0.104,0.216,0.489,-0.126,0.836,-61.083,1.625,1.325,0.101,0.789,0.205,-0.461,0.350,103.210,1.879,1.062,0.244,0.800,0.190,-0.467,0.325,-86.425,1.833,1.062,0.325,0.896,0.365,0.235,0.096,-89.954,1.891,0.994,0.357,0.896,0.365,0.235,0.096,0.000,1.839,0.937,0.328,0.891,-0.376,0.234,-0.098,False,False
18.620,1.454,0.953,-0.014,0.000,0.505,0.000,0.863,209.383,1.387,0.953,0.104,0.216,0.489,-0.126,0.836,-61.058,1.625,1.325,0.101,0.789,0.205,-0.461,0.350,103.213,1.879,1.062,0.244,0.795,0.196,-0.465,0.336,-87.913,1.833,1.062,0.325,0.891,0.376,0.233,0.099,-89.954,1.892,0.996,0.358,0.891,0.376,0.233,0.099,0.000,1.842,0.937,0.330,0.896,-0.364,0.235,-0.095,False,False
18.723,1.454,0.953,-0.014,0.000,0.505,0.000,0.863,209.381,1.387,0.953,0.104,0.216,0.489,-0.126,0.836,-61.058,1.625,1.325,0.101,0.789,0.205,-0.461,0.350,103.207,1.879,1.062,0.244,0.790,0.204,-0.462,0.348,-89.713,1.833,1.062,0.325,0.885,0.390,0.232,0.102,-89.954,1.894,0.998,0.359,0.885,0.390,0.232,0.102,0.000,1.846,0.937,0.332,0.902,-0.350,0.236,-0.091,False,False
18.823,1.454,0.953,-0.014,0.000,0.505,0.000,0.863,209.379,1.387,0.953,0.104,0.216,0.489,-0.126,0.836,-61.059,1.625,1.325,0.101,0.789,0.205,-0.461,0.350,103.203,1.879,1.062,0.244,0.785,0.210,-0.459,0.358,-91.213,1.833,1.062,0.325,0.880,0.402,0.230,0.105,-89.954,1.895,1.000,0.360,0.880,0.402,0.230,0.105,0.000,1.848,0.938,0.333,0.906,-0.338,0.237,-0.088,False,False
18.924,1.454,0.953,-0.014,0.000,0.505,0.000,0.863,209.381,1.387,0.953,0.104,0.216,0.489,-0.126,0.836,-61.058,1.625,1.325,0.101,0.789,0.205,-0.461,0.350,103.208,1.879,1.062,0.244,0.781,0.216,-0.456,0.369,-92.713,1.833,1.062,0.325,0.875,0.413,0.229,0.108,-89.954,1.897,1.002,0.361,0.875,0.413,0.229,0.108,0.000,1.851,0.938,0.335,0.911,-0.326,0.239,-0.085,False,False
19.024,1.454,0.953,-0.014,0.000,0.505,0.000,0.863,209.381,1.387,0.953,0.104,0.216,0.489,-0.126,0.836,-61.076,1.625,1.325,0.101,0.789,0.205,-0.461,0.350,103.202,1.879,1.062,0.244,0.776,0.222,-0.453,0.379,-94.213,1.833,1.062,0.325,0.869,0.425,0.228,0.112,-89.954,1.898,1.004,0.361,0.869,0.425,0.228,0.112,0.000,1.854,0.939,0.337,0.915,-0.314,0.240,-0.082,False,False
19.128,1.454,0.953,-0.014,0.000,0.505,0.000,0.863,209.377,1.387,0.953,0.104,0.216,0.489,-0.126,0.836,-61.072,1.625,1.325,0.101,0.789,0.205,-0.461,0.350,103.197,1.879,1.062,0.244,0.771,0.228,-0.451,0.389,-95.713,1.833,1.062,0.325,0.864,0.436,0.226,0.114,-89.954,1.899,1.006,0.362,0.864,0.436,0.226,0.114,0.000,1.857,0.940,0.338,0.919,-0.302,0.241,-0.079,False,False
19.228,1.454,0.953,-0.014,0.000,0.505,0.000,0.863,209.376,1.387,0.953,0.104,0.216,0.489,-0.126,0.836,-61.071,1.625,1.325,0.101,0.789,0.205,-0.461,0.350,103.197,1.879,1.062,0.244,0.765,0.233,-0.448,0.399,-97.214,1.833,1.062,0.325,0.858,0.447,0.224,0.117,-89.954,1.901,1.008,0.363,0.858,0.447,0.224,0.117,0.000,1.860,0.940,0.340,0.923,-0.290,0.242,-0.076,False,False
19.328,1.454,0.953,-0.014,0.000,0.505,0.000,0.863,209.376,1.387,0.953,0.104,0.216,0.489,-0.126,0.836,-61.070,1.625,1.325,0.101,0.789,0.205,-0.461,0.350,103.197,1.879,1.062,0.244,0.760,0.239,-0.444,0.409,-98.714,1.833,1.062,0.325,0.852,0.458,0.223,0.120,-89.954,1.902,1.010,0.363,0.852,0.458,0.223,0.120,0.000,1.862,0.941,0.341,0.927,-0.278,0.243,-0.073,False,False
19.432,1.454,0.953,-0.014,0.000,0.505,0.000,0.863,209.376,1.387,0.953,0.104,0.216,0.489,-0.126,0.836,-61.070,1.625,1.325,0.101,0.789,0.205,-0.461,0.350,103.197,1.879,1.062,0.244,0.755,0.245,-0.441,0.419,-100.214,1.833,1.062,0.325,0.846,0.470,0.221,0.123,-89.954,1.903,1.012,0.364,0.846,0.470,0.221,0.123,0.000,1.865,0.942,0.343,0.930,-0.266,0.244,-0.069,False,False
19.536,1.454,0.953,-0.014,0.000,0.505,0.000,0.863,209.376,1.387,0.953,0.104,0.216,0.489,-0.126,0.836,-61.070,1.625,1.325,0.101,0.789,0.205,-0.461,0.350,103.197,1.879,1.062,0.244,0.749,0.251,-0.438,0.429,-101.714,1.833,1.062,0.325,0.840,0.481,0.220,0.126,-89.954,1.904,1.014,0.365,0.840,0.481,0.220,0.126,0.000,1.868,0.943,0.344,0.933,-0.254,0.245,-0.066,False,False
19.640,1.454,0.953,-0.014,0.000,0.505,0.000,0.863,209.376,1.387,0.953,0.104,0.216,0.489,-0.126,0.836,-61.070,1.625,1.325,0.101,0.789,0.205,-0.461,0.350,103.198,1.879,1.062,0.244,0.742,0.258,-0.434,0.441,-103.514,1.833,1.062,0.325,0.832,0.494,0.218,0.130,-89.954,1.906,1.017,0.365,0.832,0.494,0.218,0.130,0.000,1.871,0.944,0.346,0.937,-0.239,0.246,-0.062,False,False
19.740,1.454,0.953,-0.014,0.000,0.505,0.000,0.863,209.376,1.387,0.953,0.104,0.216,0.489,-0.126,0.836,-61.070,1.625,1.325,0.101,0.789,0.205,-0.461,0.350,103.198,1.879,1.062,0.244,0.737,0.263,-0.431,0.450,-105.014,1.833,1.062,0.325,0.825,0.505,0.216,0.132,-89.954,1.907,1.019,0.366,0.825,0.505,0.216,0.132,0.000,1.874,0.946,0.348,0.940,-0.227,0.246,-0.059,False,False
19.845,1.454,0.953,-0.014,0.000,0.505,0.000,0.863,209.376,1.387,0.953,0.104,0.216,0.489,-0.126,0.836,-61.070,1.625,1.325,0.101,0.789,0.205,-0.461,0.350,103.198,1.879,1.062,0.244,0.731,0.269,-0.427,0.460,-106.514,1.833,1.062,0.325,0.819,0.515,0.214,0.135,-89.954,1.907,1.021,0.367,0.819,0.515,0.214,0.135,0.000,1.876,0.947,0.349,0.943,-0.215,0.247,-0.056,False,False
19.949,1.454,0.953,-0.014,0.000,0.505,0.000,0.863,209.376,1.387,0.953,0.104,0.216,0.489,-0.126,0.836,-61.070,1.625,1.325,0.101,0.789,0.205,-0.461,0.350,103.198,1.879,1.062,0.244,0.724,0.274,-0.424,0.469,-108.014,1.833,1.062,0.325,0.812,0.526,0.212,0.138,-89.954,1.908,1.023,0.367,0.812,0.526,0.212,0.138,0.000,1.879,0.948,0.351,0.946,-0.202,0.248,-0.053,False,False
20.049,1.454,0.953,-0.014,0.000,0.505,0.000,0.863,209.376,1.387,0.953,0.104,0.216,0.489,-0.126,0.836,-61.069,1.625,1.325,0.101,0.789,0.205,-0.461,0.350,103.198,1.879,1.062,0.244,0.718,0.280,-0.420,0.479,-109.514,1.833,1.062,0.325,0.805,0.537,0.211,0.141,-89.954,1.909,1.026,0.368,0.805,0.537,0.211,0.141,0.000,1.882,0.950,0.352,0.949,-0.190,0.249,-0.049,False,False
20.153,1.454,0.953,-0.014,0.000,0.505,0.000,0.863,209.376,1.387,0.953,0.104,0.216,0.489,-0.126,0.836,-61.069,1.625,1.325,0.101,0.789,0.205,-0.461,0.350,103.198,1.879,1.062,0.244,0.712,0.285,-0.416,0.488,-111.014,1.833,1.062,0.325,0.798,0.547,0.209,0.144,-89.954,1.910,1.028,0.368,0.798,0.547,0.209,0.144,0.000,1.884,0.951,0.353,0.951,-0.177,0.249,-0.046,False,False
20.253,1.454,0.953,-0.014,0.000,0.505,0.000,0.863,209.376,1.387,0.953,0.104,0.216,0.489,-0.126,0.836,-61.069,1.625,1.325,0.101,0.789,0.205,-0.461,0.350,103.198,1.879,1.062,0.244,0.705,0.291,-0.412,0.498,-112.514,1.833,1.062,0.325,0.791,0.557,0.207,0.146,-89.954,1.911,1.030,0.368,0.791,0.557,0.207,0.146,0.000,1.887,0.953,0.355,0.953,-0.165,0.250,-0.043,False,False
20.356,1.454,0.953,-0.014,0.000,0.505,0.000,0.863,209.376,1.387,0.953,0.104,0.216,0.489,-0.126,0.836,-61.069,1.625,1.325,0.101,0.789,0.205,-0.461,0.350,103.198,1.879,1.062,0.244,0.699,0.296,-0.409,0.507,-114.014,1.833,1.062,0.325,0.783,0.568,0.205,0.149,-89.954,1.912,1.033,0.369,0.783,0.568,0.205,0.149,0.000,1.889,0.954,0.356,0.955,-0.152,0.250,-0.040,False,False
20.459,1.454,0.953,-0.014,0.000,0.505,0.000,0.863,209.376,1.387,0.953,0.104,0.216,0.489,-0.126,0.836,-61.069,1.625,1.325,0.101,0.789,0.205,-0.461,0.350,103.198,1.879,1.062,0.244,0.692,0.302,-0.405,0.516,-115.514,1.833,1.062,0.325,0.776,0.578,0.203,0.152,-89.954,1.912,1.035,0.369,0.776,0.578,0.203,0.152,0.000,1.892,0.956,0.358,0.957,-0.140,0.251,-0.036,False,False
20.561,1.454,0.953,-0.014,0.000,0.505,0.000,0.863,209.376,1.387,0.953,0.104,0.216,0.489,-0.126,0.836,-61.069,1.625,1.325,0.101,0.789,0.205,-0.461,0.350,103.198,1.879,1.062,0.244,0.684,0.308,-0.400,0.527,-117.314,1.833,1.062,0.325,0.767,0.590,0.201,0.155,-89.954,1.913,1.038,0.370,0.767,0.590,0.201,0.155,0.000,1.894,0.958,0.359,0.959,-0.125,0.251,-0.032,False,False
20.666,1.454,0.953,-0.014,0.000,0.505,0.000,0.863,209.376,1.387,0.953,0.104,0.216,0.489,-0.126,0.836,-61.069,1.625,1.325,0.101,0.789,0.205,-0.461,0.350,103.199,1.879,1.062,0.244,0.677,0.313,-0.396,0.536,-118.814,1.833,1.062,0.325,0.759,0.600,0.199,0.158,-89.954,1.913,1.040,0.370,0.759,0.600,0.199,0.158,0.000,1.897,0.960,0.361,0.961,-0.112,0.252,-0.029,False,False
20.769,1.454,0.953,-0.014,0.000,0.505,0.000,0.863,209.376,1.387,0.953,0.104,0.216,0.489,-0.126,0.836,-61.069,1.625,1.325,0.101,0.789,0.205,-0.461,0.350,103.199,1.879,1.062,0.244,0.670,0.318,-0.392,0.544,-120.314,1.833,1.062,0.325,0.751,0.610,0.196,0.160,-89.954,1.914,1.043,0.370,0.751,0.610,0.196,0.160,0.000,1.899,0.962,0.362,0.962,-0.100,0.252,-0.026,False,False
20.873,1.454,0.953,-0.014,0.000,0.505,0.000,0.863,209.376,1.387,0.953,0.104,0.216,0.489,-0.126,0.836,-61.069,1.625,1.325,0.101,0.789,0.205,-0.461,0.350,103.199,1.879,1.062,0.244,0.663,0.323,-0.388,0.553,-121.815,1.833,1.062,0.325,0.743,0.620,0.194,0.163,-89.954,1.914,1.045,0.370,0.743,0.620,0.194,0.163,0.000,1.901,0.964,0.363,0.963,-0.087,0.252,-0.022,False,False
20.973,1.454,0.953,-0.014,0.000,0.505,0.000,0.863,209.376,1.387,0.953,0.104,0.216,0.489,-0.126,0.836,-61.069,1.625,1.325,0.101,0.789,0.205,-0.461,0.350,103.199,1.879,1.062,0.244,0.656,0.328,-0.383,0.562,-123.315,1.833,1.062,0.325,0.735,0.629,0.192,0.165,-89.954,1.915,1.047,0.371,0.735,0.629,0.192,0.165,0.000,1.904,0.966,0.364,0.964,-0.074,0.253,-0.019,False,False
21.077,1.454,0.953,-0.014,0.000,0.505,0.000,0.863,209.376,1.387,0.953,0.104,0.216,0.489,-0.126,0.836,-61.069,1.625,1.325,0.101,0.789,0.205,-0.461,0.350,103.199,1.879,1.062,0.244,0.648,0.333,-0.379,0.570,-124.815,1.833,1.062,0.325,0.726,0.639,0.190,0.168,-89.954,1.915,1.050,0.371,0.726,0.639,0.190,0.168,0.000,1.906,0.968,0.366,0.965,-0.062,0.253,-0.016,False,False
21.177,1.454,0.953,-0.014,0.000,0.505,0.000,0.863,209.376,1.387,0.953,0.104,0.216,0.489,-0.126,0.836,-61.068,1.625,1.325,0.101,0.789,0.205,-0.461,0.350,103.199,1.879,1.062,0.244,0.641,0.338,-0.375,0.579,-126.315,1.833,1.062,0.325,0.718,0.648,0.188,0.170,-89.954,1.915,1.052,0.371,0.718,0.648,0.188,0.170,0.000,1.908,0.971,0.367,0.966,-0.049,0.253,-0.012,False,False
21.282,1.454,0.953,-0.014,0.000,0.505,0.000,0.863,209.376,1.387,0.953,0.104,0.216,0.489,-0.126,0.836,-61.068,1.625,1.325,0.101,0.789,0.205,-0.461,0.350,103.199,1.879,1.062,0.244,0.631,0.344,-0.369,0.589,-128.115,1.833,1.062,0.325,0.708,0.660,0.185,0.173,-89.954,1.915,1.055,0.371,0.708,0.660,0.185,0.173,0.000,1.910,0.973,0.368,0.967,-0.034,0.253,-0.008,False,False
21.382,1.454,0.953,-0.014,0.000,0.505,0.000,0.863,209.376,1.387,0.953,0.104,0.216,0.489,-0.126,0.836,-61.068,1.625,1.325,0.101,0.789,0.205,-0.461,0.350,103.199,1.879,1.062,0.244,0.624,0.349,-0.365,0.597,-129.615,1.833,1.062,0.325,0.699,0.669,0.183,0.176,-89.954,1.916,1.058,0.371,0.699,0.669,0.183,0.176,0.000,1.912,0.976,0.369,0.967,-0.021,0.253,-0.005,False,False
21.482,1.454,0.953,-0.014,0.000,0.505,0.000,0.863,209.376,1.387,0.953,0.104,0.216,0.489,-0.126,0.836,-61.068,1.625,1.325,0.101,0.789,0.205,-0.461,0.350,103.199,1.879,1.062,0.244,0.616,0.354,-0.360,0.605,-131.115,1.833,1.062,0.325,0.690,0.678,0.181,0.178,-89.954,1.916,1.060,0.371,0.690,0.678,0.181,0.178,0.000,1.914,0.978,0.370,0.967,-0.009,0.254,-0.002,False,False
21.586,1.454,0.953,-0.014,0.000,0.505,0.000,0.863,209.376,1.387,0.953,0.104,0.216,0.489,-0.126,0.836,-61.068,1.625,1.325,0.101,0.789,0.205,-0.461,0.350,103.199,1.879,1.062,0.244,0.608,0.358,-0.355,0.613,-132.615,1.833,1.062,0.325,0.681,0.687,0.178,0.180,-89.954,1.916,1.063,0.371,0.681,0.687,0.178,0.180,0.000,1.916,0.980,0.371,0.967,0.004,0.254,0.001,False,False
21.689,1.454,0.953,-0.014,0.000,0.505,0.000,0.863,209.376,1.387,0.953,0.104,0.216,0.489,-0.126,0.836,-61.068,1.625,1.325,0.101,0.789,0.205,-0.461,0.350,103.199,1.879,1.062,0.244,0.600,0.363,-0.351,0.621,-134.115,1.833,1.062,0.325,0.672,0.696,0.176,0.183,-89.954,1.916,1.065,0.371,0.672,0.696,0.176,0.183,0.000,1.918,0.983,0.373,0.967,0.017,0.254,0.005,False,False
21.794,1.454,0.953,-0.014,0.000,0.505,0.000,0.863,209.376,1.387,0.953,0.104,0.216,0.489,-0.126,0.836,-61.068,1.625,1.325,0.101,0.789,0.205,-0.461,0.350,103.199,1.879,1.062,0.244,0.592,0.368,-0.346,0.629,-135.615,1.833,1.062,0.325,0.663,0.704,0.173,0.185,-89.954,1.915,1.068,0.371,0.663,0.704,0.173,0.185,0.000,1.920,0.986,0.374,0.967,0.029,0.253,0.008,False,False
21.897,1.454,0.953,-0.014,0.000,0.505,0.000,0.863,209.376,1.387,0.953,0.104,0.216,0.489,-0.126,0.836,-61.068,1.625,1.325,0.101,0.789,0.205,-0.461,0.350,103.199,1.879,1.062,0.244,0.583,0.372,-0.341,0.636,-137.115,1.833,1.062,0.325,0.654,0.713,0.171,0.187,-89.954,1.915,1.070,0.371,0.654,0.713,0.171,0.187,0.000,1.921,0.988,0.374,0.966,0.042,0.253,0.011,False,False
21.998,1.454,0.953,-0.014,0.000,0.505,0.000,0.863,209.376,1.387,0.953,0.104,0.216,0.489,-0.126,0.836,-61.068,1.625,1.325,0.101,0.789,0.205,-0.461,0.350,103.200,1.879,1.062,0.244,0.575,0.376,-0.336,0.644,-138.615,1.833,1.062,0.325,0.644,0.722,0.169,0.189,-89.954,1.915,1.073,0.371,0.644,0.722,0.169,0.189,0.000,1.923,0.991,0.375,0.966,0.055,0.253,0.015,False,False
22.102,1.454,0.953,-0.014,0.000,0.505,0.000,0.863,209.376,1.387,0.953,0.104,0.216,0.489,-0.126,0.836,-61.068,1.625,1.325,0.101,0.789,0.205,-0.461,0.350,103.200,1.879,1.062,0.244,0.565,0.382,-0.330,0.653,-140.415,1.833,1.062,0.325,0.633,0.732,0.166,0.192,-89.954,1.915,1.076,0.371,0.633,0.732,0.166,0.192,0.000,1.925,0.994,0.376,0.965,0.070,0.253,0.019,False,False
22.202,1.454,0.953,-0.014,0.000,0.505,0.000,0.863,209.376,1.387,0.953,0.104,0.216,0.489,-0.126,0.836,-61.071,1.625,1.325,0.101,0.789,0.205,-0.461,0.350,103.196,1.879,1.062,0.244,0.557,0.385,-0.326,0.659,-141.705,1.833,1.062,0.325,0.625,0.739,0.163,0.194,-89.954,1.914,1.078,0.370,0.625,0.739,0.163,0.194,0.000,1.926,0.997,0.377,0.964,0.081,0.253,0.022,False,False
22.306,1.454,0.953,-0.014,0.000,0.505,0.000,0.863,209.376,1.387,0.953,0.104,0.216,0.489,-0.126,0.836,-61.072,1.625,1.325,0.101,0.789,0.205,-0.461,0.350,103.201,1.879,1.062,0.244,0.557,0.386,-0.326,0.659,-141.744,1.833,1.062,0.325,0.624,0.739,0.163,0.194,-89.954,1.914,1.078,0.370,0.624,0.739,0.163,0.194,0.000,1.926,0.997,0.377,0.964,0.081,0.253,0.022,False,False
22.408,1.454,0.953,-0.014,0.000,0.505,0.000,0.863,209.376,1.387,0.953,0.104,0.216,0.489,-0.126,0.836,-61.072,1.625,1.325,0.101,0.789,0.205,-0.461,0.350,103.201,1.879,1.062,0.244,0.557,0.386,-0.326,0.659,-141.744,1.833,1.062,0.325,0.624,0.739,0.163,0.194,-89.954,1.914,1.078,0.370,0.624,0.739,0.163,0.194,0.000,1.926,0.997,0.377,0.964,0.081,0.253,0.022,False,False
22.509,1.454,0.953,-0.014,0.000,0.505,0.000,0.863,209.376,1.387,0.953,0.104,0.216,0.489,-0.126,0.836,-61.072,1.625,1.325,0.101,0.789,0.205,-0.461,0.350,103.201,1.879,1.062,0.244,0.557,0.386,-0.326,0.659,-141.744,1.833,1.062,0.325,0.624,0.739,0.163,0.194,-89.954,1.914,1.078,0.370,0.624,0.739,0.163,0.194,0.000,1.926,0.997,0.377,0.964,0.081,0.253,0.022,False,False
22.612,1.454,0.953,-0.014,0.000,0.505,0.000,0.863,209.376,1.387,0.953,0.104,0.216,0.489,-0.126,0.836,-61.079,1.625,1.325,0.101,0.789,0.204,-0.462,0.349,103.352,1.878,1.061,0.243,0.558,0.385,-0.326,0.659,-141.744,1.832,1.061,0.324,0.625,0.738,0.164,0.194,-89.954,1.914,1.077,0.370,0.625,0.738,0.164,0.194,0.000,1.926,0.996,0.377,0.964,0.080,0.253,0.021,False,False
22.713,1.454,0.953,-0.014,0.000,0.505,0.000,0.863,209.376,1.387,0.953,0.104,0.216,0.489,-0.126,0.836,-61.081,1.625,1.325,0.101,0.794,0.199,-0.464,0.340,104.722,1.873,1.054,0.240,0.566,0.381,-0.331,0.652,-141.744,1.827,1.054,0.321,0.634,0.731,0.166,0.192,-89.954,1.909,1.068,0.367,0.634,0.731,0.166,0.192,0.000,1.919,0.986,0.373,0.965,0.068,0.253,0.018,False,False
22.817,1.454,0.953,-0.014,0.000,0.505,0.000,0.863,209.376,1.387,0.953,0.104,0.216,0.489,-0.126,0.836,-61.073,1.625,1.325,0.101,0.795,0.196,-0.465,0.336,105.287,1.870,1.052,0.239,0.569,0.380,-0.333,0.649,-141.744,1.825,1.052,0.320,0.638,0.727,0.167,0.191,-89.954,1.906,1.064,0.366,0.638,0.727,0.167,0.191,0.000,1.916,0.982,0.371,0.965,0.063,0.253,0.017,False,False
22.921,1.454,0.953,-0.014,0.000,0.505,0.000,0.863,209.375,1.387,0.953,0.104,0.216,0.489,-0.126,0.836,-61.076,1.625,1.325,0.101,0.795,0.196,-0.465,0.336,105.301,1.870,1.052,0.239,0.569,0.380,-0.333,0.649,-141.744,1.825,1.052,0.320,0.638,0.727,0.167,0.191,-89.954,1.906,1.064,0.366,0.638,0.727,0.167,0.191,0.000,1.916,0.982,0.371,0.965,0.063,0.253,0.017,False,False
23.024,1.454,0.953,-0.014,0.000,0.505,0.000,0.863,209.375,1.387,0.953,0.104,0.216,0.489,-0.126,0.836,-61.077,1.625,1.325,0.101,0.795,0.196,-0.465,0.336,105.301,1.870,1.052,0.239,0.569,0.380,-0.333,0.649,-141.744,1.825,1.052,0.320,0.638,0.727,0.167,0.191,-89.954,1.906,1.064,0.366,0.638,0.727,0.167,0.191,0.000,1.916,0.982,0.371,0.965,0.063,0.253,0.017,False,False
23.128,1.454,0.953,-0.014,0.000,0.505,0.000,0.863,209.375,1.387,0.953,0.104,0.216,0.489,-0.126,0.836,-61.086,1.625,1.325,0.101,0.796,0.195,-0.466,0.333,105.680,1.869,1.050,0.238,0.571,0.378,-0.334,0.647,-141.744,1.823,1.050,0.319,0.640,0.725,0.168,0.190,-89.954,1.905,1.062,0.365,0.640,0.725,0.168,0.190,0.000,1.914,0.980,0.370,0.965,0.060,0.253,0.016,False,False
23.231,1.454,0.953,-0.014,0.000,0.505,0.000,0.863,209.375,1.387,0.953,0.104,0.216,0.489,-0.126,0.836,-61.086,1.625,1.325,0.101,0.801,0.189,-0.468,0.323,107.116,1.862,1.043,0.234,0.579,0.374,-0.339,0.640,-141.744,1.817,1.043,0.315,0.649,0.717,0.170,0.188,-89.954,1.899,1.052,0.362,0.649,0.717,0.170,0.188,0.000,1.906,0.970,0.366,0.966,0.048,0.253,0.013,False,False
23.335,1.454,0.953,-0.014,0.000,0.505,0.000,0.863,209.375,1.387,0.953,0.104,0.216,0.489,-0.126,0.836,-61.088,1.625,1.325,0.101,0.805,0.183,-0.470,0.313,108.612,1.856,1.036,0.231,0.588,0.370,-0.344,0.632,-141.744,1.810,1.036,0.312,0.658,0.709,0.172,0.186,-89.954,1.893,1.043,0.358,0.658,0.709,0.172,0.186,0.000,1.898,0.961,0.361,0.967,0.036,0.253,0.010,False,False
23.439,1.454,0.953,-0.014,0.000,0.505,0.000,0.863,209.375,1.387,0.953,0.104,0.215,0.489,-0.126,0.836,-61.091,1.625,1.325,0.101,0.809,0.177,-0.473,0.302,110.110,1.849,1.029,0.227,0.596,0.365,-0.348,0.625,-141.744,1.804,1.029,0.308,0.668,0.700,0.175,0.184,-89.954,1.886,1.034,0.354,0.668,0.700,0.175,0.184,0.000,1.889,0.951,0.356,0.967,0.023,0.253,0.006,False,False
23.541,1.454,0.953,-0.014,0.000,0.505,0.000,0.863,209.375,1.387,0.953,0.104,0.215,0.489,-0.126,0.836,-61.095,1.625,1.325,0.101,0.813,0.169,-0.475,0.290,111.907,1.841,1.021,0.222,0.605,0.360,-0.354,0.615,-141.744,1.795,1.021,0.303,0.678,0.689,0.178,0.181,-89.954,1.878,1.023,0.350,0.678,0.689,0.178,0.181,0.000,1.879,0.940,0.351,0.967,0.008,0.254,0.002,False,False
23.642,1.454,0.953,-0.014,0.000,0.505,0.000,0.863,209.374,1.387,0.953,0.104,0.215,0.489,-0.126,0.836,-61.098,1.625,1.325,0.101,0.817,0.163,-0.478,0.279,113.404,1.834,1.015,0.218,0.613,0.355,-0.359,0.607,-141.744,1.788,1.015,0.300,0.687,0.681,0.180,0.179,-89.954,1.871,1.014,0.346,0.687,0.681,0.180,0.179,0.000,1.870,0.932,0.346,0.967,-0.005,0.254,-0.001,False,False
23.746,1.454,0.953,-0.014,0.000,0.505,0.000,0.863,209.374,1.387,0.953,0.104,0.215,0.489,-0.126,0.836,-61.101,1.625,1.325,0.101,0.821,0.157,-0.480,0.268,114.902,1.827,1.009,0.214,0.621,0.350,-0.363,0.599,-141.744,1.781,1.009,0.295,0.696,0.672,0.182,0.176,-89.954,1.864,1.005,0.342,0.696,0.672,0.182,0.176,0.000,1.861,0.923,0.341,0.967,-0.017,0.253,-0.004,False,False
23.849,1.454,0.953,-0.014,0.000,0.505,0.000,0.863,209.374,1.387,0.953,0.104,0.215,0.489,-0.126,0.836,-61.104,1.625,1.325,0.101,0.824,0.151,-0.482,0.257,116.400,1.820,1.003,0.210,0.629,0.346,-0.368,0.591,-141.744,1.774,1.003,0.291,0.705,0.662,0.184,0.174,-89.954,1.856,0.997,0.338,0.705,0.662,0.184,0.174,0.000,1.852,0.915,0.335,0.967,-0.030,0.253,-0.007,False,False
23.953,1.454,0.953,-0.014,0.000,0.505,0.000,0.863,209.374,1.387,0.953,0.104,0.215,0.489,-0.126,0.836,-61.101,1.625,1.325,0.101,0.827,0.145,-0.484,0.248,117.752,1.813,0.998,0.207,0.636,0.341,-0.372,0.584,-141.744,1.767,0.998,0.288,0.713,0.654,0.187,0.172,-89.954,1.850,0.989,0.334,0.713,0.654,0.187,0.172,0.000,1.843,0.907,0.330,0.966,-0.042,0.253,-0.010,False,False
24.057,1.454,0.953,-0.014,0.000,0.505,0.000,0.863,209.373,1.387,0.953,0.104,0.215,0.489,-0.126,0.836,-61.102,1.625,1.325,0.101,0.827,0.144,-0.484,0.247,117.896,1.812,0.997,0.206,0.637,0.341,-0.372,0.583,-141.744,1.767,0.997,0.287,0.714,0.653,0.187,0.171,-89.954,1.849,0.989,0.333,0.714,0.653,0.187,0.171,0.000,1.842,0.907,0.330,0.966,-0.043,0.253,-0.011,False,False
24.161,1.454,0.953,-0.014,0.000,0.505,0.000,0.863,209.373,1.387,0.953,0.104,0.215,0.489,-0.126,0.836,-61.104,1.625,1.325,0.101,0.827,0.144,-0.484,0.247,117.900,1.812,0.997,0.206,0.637,0.341,-0.372,0.583,-141.744,1.767,0.997,0.287,0.714,0.653,0.187,0.171,-89.954,1.849,0.989,0.333,0.714,0.653,0.187,0.171,0.000,1.842,0.907,0.330,0.966,-0.043,0.253,-0.011,False,False
24.264,1.454,0.953,-0.014,0.000,0.505,0.000,0.863,209.373,1.387,0.953,0.104,0.215,0.489,-0.126,0.836,-61.104,1.625,1.325,0.101,0.827,0.144,-0.484,0.247,117.900,1.812,0.997,0.206,0.637,0.341,-0.372,0.583,-141.744,1.767,0.997,0.287,0.714,0.653,0.187,0.171,-89.954,1.849,0.989,0.333,0.714,0.653,0.187,0.171,0.000,1.842,0.907,0.330,0.966,-0.043,0.253,-0.011,False,False
24.368,1.454,0.953,-0.014,0.000,0.505,0.000,0.863,209.373,1.387,0.953,0.104,0.215,0.489,-0.126,0.836,-61.104,1.625,1.325,0.101,0.827,0.144,-0.484,0.247,117.900,1.812,0.997,0.206,0.637,0.341,-0.372,0.583,-141.744,1.767,0.997,0.287,0.714,0.653,0.187,0.171,-89.954,1.849,0.989,0.333,0.714,0.653,0.187,0.171,0.000,1.842,0.907,0.330,0.966,-0.043,0.253,-0.011,False,False
24.468,1.454,0.953,-0.014,0.000,0.505,0.000,0.863,209.373,1.387,0.953,0.104,0.215,0.489,-0.126,0.836,-61.104,1.625,1.325,0.101,0.827,0.144,-0.484,0.247,117.900,1.812,0.997,0.206,0.637,0.341,-0.372,0.583,-141.744,1.767,0.997,0.287,0.714,0.653,0.187,0.171,-89.954,1.849,0.989,0.333,0.714,0.653,0.187,0.171,0.000,1.842,0.907,0.330,0.966,-0.043,0.253,-0.011,False,False
24.570,1.454,0.953,-0.014,0.000,0.505,0.000,0.863,209.373,1.387,0.953,0.104,0.215,0.489,-0.126,0.836,-61.104,1.625,1.325,0.101,0.827,0.144,-0.484,0.247,117.900,1.812,0.997,0.206,0.637,0.341,-0.372,0.583,-141.744,1.767,0.997,0.287,0.714,0.653,0.187,0.171,-89.954,1.849,0.989,0.333,0.714,0.653,0.187,0.171,0.000,1.842,0.907,0.330,0.966,-0.043,0.253,-0.011,False,False
24.673,1.454,0.953,-0.014,0.000,0.505,0.000,0.863,209.373,1.387,0.953,0.104,0.215,0.489,-0.126,0.836,-61.104,1.625,1.325,0.101,0.827,0.144,-0.484,0.247,117.900,1.812,0.997,0.206,0.637,0.341,-0.372,0.583,-141.744,1.767,0.997,0.287,0.714,0.653,0.187,0.171,-89.954,1.849,0.989,0.333,0.714,0.653,0.187,0.171,0.000,1.842,0.907,0.330,0.966,-0.043,0.253,-0.011,False,False
24.773,1.454,0.953,-0.014,0.000,0.505,0.000,0.863,209.373,1.387,0.953,0.104,0.215,0.489,-0.126,0.836,-61.104,1.625,1.325,0.101,0.827,0.144,-0.484,0.247,117.900,1.812,0.997,0.206,0.637,0.341,-0.372,0.583,-141.744,1.767,0.997,0.287,0.714,0.653,0.187,0.171,-89.954,1.849,0.989,0.333,0.714,0.653,0.187,0.171,0.000,1.842,0.907,0.330,0.966,-0.043,0.253,-0.011,False,False
24.877,1.454,0.953,-0.014,0.000,0.505,0.000,0.863,209.373,1.387,0.953,0.104,0.215,0.489,-0.126,0.836,-61.104,1.625,1.325,0.101,0.827,0.144,-0.484,0.247,117.900,1.812,0.997,0.206,0.637,0.341,-0.372,0.583,-141.744,1.767,0.997,0.287,0.714,0.653,0.187,0.171,-89.954,1.849,0.989,0.333,0.714,0.653,0.187,0.171,0.000,1.842,0.907,0.330,0.966,-0.043,0.253,-0.011,False,False
24.977,1.454,0.953,-0.014,0.000,0.500,0.000,0.866,210.059,1.386,0.953,0.104,0.216,0.484,-0.125,0.839,-61.105,1.624,1.325,0.103,0.830,0.143,-0.479,0.248,117.900,1.810,0.997,0.210,0.639,0.337,-0.368,0.585,-141.744,1.763,0.997,0.291,0.712,0.652,0.191,0.175,-89.954,1.845,0.989,0.338,0.712,0.652,0.191,0.175,0.000,1.838,0.907,0.335,0.965,-0.043,0.259,-0.011,False,False
25.081,1.454,0.953,-0.014,0.000,0.487,0.000,0.873,211.728,1.383,0.953,0.102,0.218,0.471,-0.121,0.846,-61.104,1.620,1.325,0.108,0.837,0.139,-0.467,0.250,117.900,1.803,0.997,0.221,0.644,0.329,-0.359,0.590,-141.744,1.754,0.997,0.300,0.710,0.649,0.201,0.185,-89.954,1.834,0.989,0.349,0.710,0.649,0.201,0.185,0.000,1.828,0.907,0.346,0.961,-0.042,0.273,-0.012,False,False
25.185,1.454,0.953,-0.014,0.000,0.479,0.000,0.878,212.761,1.380,0.953,0.100,0.219,0.464,-0.120,0.850,-61.104,1.618,1.325,0.111,0.841,0.137,-0.459,0.251,117.900,1.799,0.997,0.227,0.647,0.323,-0.353,0.593,-141.744,1.748,0.997,0.305,0.708,0.648,0.208,0.191,-89.954,1.828,0.989,0.356,0.708,0.648,0.208,0.191,0.000,1.821,0.907,0.352,0.958,-0.042,0.282,-0.012,False,False
25.289,1.454,0.953,-0.014,0.000,0.478,0.000,0.879,212.940,1.380,0.953,0.100,0.219,0.463,-0.119,0.851,-61.104,1.618,1.325,0.111,0.842,0.136,-0.458,0.251,117.900,1.798,0.997,0.228,0.648,0.323,-0.352,0.593,-141.744,1.747,0.997,0.306,0.707,0.647,0.209,0.192,-89.954,1.826,0.989,0.357,0.707,0.647,0.209,0.192,0.000,1.820,0.907,0.353,0.958,-0.042,0.283,-0.012,False,False
25.393,1.454,0.953,-0.014,0.000,0.475,0.000,0.880,213.219,1.380,0.953,0.100,0.219,0.460,-0.119,0.852,-61.104,1.617,1.325,0.112,0.843,0.136,-0.456,0.251,117.900,1.797,0.997,0.230,0.649,0.321,-0.351,0.594,-141.744,1.746,0.997,0.308,0.707,0.647,0.211,0.193,-89.954,1.825,0.989,0.359,0.707,0.647,0.211,0.193,0.000,1.818,0.907,0.355,0.957,-0.042,0.286,-0.012,False,False
25.497,1.454,0.953,-0.014,0.000,0.466,0.000,0.885,214.459,1.377,0.953,0.098,0.221,0.451,-0.116,0.857,-61.104,1.614,1.325,0.116,0.848,0.133,-0.447,0.253,117.900,1.791,0.997,0.237,0.653,0.315,-0.344,0.597,-141.744,1.739,0.997,0.314,0.705,0.645,0.218,0.200,-89.954,1.816,0.989,0.367,0.705,0.645,0.218,0.200,0.000,1.810,0.907,0.363,0.954,-0.042,0.296,-0.013,False,False
25.597,1.454,0.953,-0.014,0.000,0.455,0.000,0.891,215.920,1.374,0.953,0.096,0.222,0.440,-0.113,0.863,-61.104,1.611,1.325,0.120,0.854,0.130,-0.436,0.254,117.900,1.785,0.997,0.246,0.657,0.307,-0.335,0.601,-141.744,1.730,0.997,0.321,0.702,0.642,0.227,0.208,-89.954,1.807,0.989,0.376,0.702,0.642,0.227,0.208,0.000,1.801,0.907,0.372,0.950,-0.042,0.308,-0.013,False,False
25.701,1.454,0.953,-0.014,0.000,0.441,0.000,0.898,217.713,1.371,0.953,0.093,0.224,0.427,-0.110,0.869,-61.104,1.607,1.325,0.124,0.860,0.126,-0.422,0.256,117.900,1.777,0.997,0.256,0.662,0.298,-0.325,0.606,-141.744,1.720,0.997,0.329,0.698,0.639,0.238,0.218,-89.954,1.794,0.989,0.387,0.698,0.639,0.238,0.218,0.000,1.788,0.907,0.383,0.945,-0.042,0.323,-0.014,False,False
25.805,1.454,0.953,-0.014,0.000,0.429,0.000,0.903,219.213,1.368,0.953,0.091,0.225,0.415,-0.107,0.875,-61.104,1.603,1.325,0.128,0.866,0.123,-0.411,0.258,117.900,1.769,0.997,0.264,0.666,0.290,-0.316,0.610,-141.744,1.711,0.997,0.336,0.695,0.636,0.247,0.227,-89.954,1.784,0.989,0.396,0.695,0.636,0.247,0.227,0.000,1.778,0.907,0.391,0.941,-0.042,0.335,-0.014,False,False
25.909,1.454,0.953,-0.014,0.000,0.419,0.000,0.908,220.462,1.366,0.953,0.089,0.227,0.406,-0.105,0.879,-61.104,1.600,1.325,0.132,0.870,0.120,-0.401,0.259,117.900,1.763,0.997,0.271,0.670,0.283,-0.309,0.613,-141.744,1.703,0.997,0.342,0.692,0.634,0.255,0.234,-89.954,1.775,0.989,0.403,0.692,0.634,0.255,0.234,0.000,1.769,0.907,0.398,0.937,-0.041,0.345,-0.015,False,False
26.013,1.454,0.953,-0.014,0.000,0.417,0.000,0.909,220.725,1.365,0.953,0.089,0.227,0.404,-0.104,0.880,-61.104,1.599,1.325,0.132,0.871,0.119,-0.399,0.260,117.900,1.762,0.997,0.272,0.670,0.281,-0.307,0.614,-141.744,1.701,0.997,0.343,0.692,0.633,0.256,0.235,-89.954,1.773,0.989,0.404,0.692,0.633,0.256,0.235,0.000,1.767,0.907,0.400,0.937,-0.041,0.348,-0.015,False,False
26.114,1.454,0.953,-0.014,0.000,0.411,0.000,0.912,221.452,1.364,0.953,0.088,0.227,0.398,-0.103,0.883,-61.104,1.597,1.325,0.134,0.874,0.117,-0.394,0.260,117.900,1.758,0.997,0.276,0.672,0.278,-0.303,0.616,-141.744,1.697,0.997,0.346,0.690,0.631,0.261,0.239,-89.954,1.767,0.989,0.408,0.690,0.631,0.261,0.239,0.000,1.762,0.907,0.404,0.934,-0.041,0.354,-0.015,False,False
26.214,1.454,0.953,-0.014,0.000,0.400,0.000,0.916,222.834,1.362,0.953,0.086,0.229,0.387,-0.100,0.887,-61.104,1.594,1.325,0.137,0.878,0.114,-0.383,0.262,117.900,1.751,0.997,0.284,0.676,0.270,-0.295,0.619,-141.744,1.688,0.997,0.352,0.687,0.629,0.269,0.247,-89.954,1.757,0.989,0.416,0.687,0.629,0.269,0.247,0.000,1.752,0.907,0.411,0.930,-0.041,0.365,-0.016,False,False
26.318,1.454,0.953,-0.014,0.000,0.396,0.000,0.918,223.375,1.361,0.953,0.085,0.229,0.383,-0.099,0.889,-61.104,1.592,1.325,0.139,0.880,0.113,-0.379,0.262,117.900,1.748,0.997,0.286,0.677,0.267,-0.292,0.620,-141.744,1.684,0.997,0.354,0.685,0.627,0.272,0.250,-89.954,1.753,0.989,0.419,0.685,0.627,0.272,0.250,0.000,1.748,0.907,0.414,0.928,-0.041,0.369,-0.016,False,False
26.422,1.454,0.953,-0.014,0.000,0.395,0.000,0.919,223.462,1.361,0.953,0.085,0.229,0.383,-0.099,0.890,-61.104,1.592,1.325,0.139,0.880,0.113,-0.379,0.262,117.900,1.748,0.997,0.287,0.678,0.267,-0.291,0.620,-141.744,1.684,0.997,0.354,0.685,0.627,0.273,0.250,-89.954,1.752,0.989,0.419,0.685,0.627,0.273,0.250,0.000,1.747,0.907,0.414,0.928,-0.041,0.370,-0.016,False,False
26.522,1.454,0.953,-0.014,0.000,0.395,0.000,0.919,223.471,1.361,0.953,0.085,0.229,0.382,-0.099,0.890,-61.104,1.592,1.325,0.139,0.880,0.113,-0.379,0.262,117.900,1.748,0.997,0.287,0.678,0.267,-0.291,0.620,-141.744,1.684,0.997,0.354,0.685,0.627,0.273,0.250,-89.954,1.752,0.989,0.419,0.685,0.627,0.273,0.250,0.000,1.747,0.907,0.414,0.928,-0.041,0.370,-0.016,False,False
26.626,1.454,0.953,-0.014,0.000,0.395,0.000,0.919,223.472,1.361,0.953,0.085,0.229,0.382,-0.099,0.890,-61.104,1.592,1.325,0.139,0.880,0.113,-0.379,0.262,117.900,1.748,0.997,0.287,0.678,0.267,-0.291,0.620,-141.744,1.684,0.997,0.354,0.685,0.627,0.273,0.250,-89.954,1.752,0.989,0.419,0.685,0.627,0.273,0.250,0.000,1.747,0.907,0.414,0.928,-0.041,0.370,-0.016,False,False
26.726,1.454,0.953,-0.014,0.000,0.395,0.000,0.919,223.473,1.361,0.953,0.085,0.229,0.382,-0.099,0.890,-61.104,1.592,1.325,0.139,0.880,0.113,-0.378,0.262,117.900,1.748,0.997,0.287,0.678,0.267,-0.291,0.620,-141.744,1.684,0.997,0.354,0.685,0.627,0.273,0.250,-89.954,1.752,0.989,0.419,0.685,0.627,0.273,0.250,0.000,1.747,0.907,0.414,0.928,-0.041,0.370,-0.016,False,False
26.826,1.454,0.953,-0.014,0.000,0.395,0.000,0.919,223.473,1.361,0.953,0.085,0.229,0.382,-0.099,0.890,-61.104,1.592,1.325,0.139,0.880,0.113,-0.378,0.262,117.900,1.748,0.997,0.287,0.678,0.267,-0.291,0.620,-141.744,1.684,0.997,0.354,0.685,0.627,0.273,0.250,-89.954,1.752,0.989,0.419,0.685,0.627,0.273,0.250,0.000,1.747,0.907,0.414,0.928,-0.041,0.370,-0.016,False,False
26.930,1.454,0.953,-0.014,0.000,0.395,0.000,0.919,223.473,1.361,0.953,0.085,0.229,0.382,-0.099,0.890,-61.104,1.592,1.325,0.139,0.880,0.113,-0.378,0.262,117.900,1.748,0.997,0.287,0.678,0.267,-0.291,0.620,-141.744,1.684,0.997,0.354,0.685,0.627,0.273,0.250,-89.954,1.752,0.989,0.419,0.685,0.627,0.273,0.250,0.000,1.747,0.907,0.414,0.928,-0.041,0.370,-0.016,False,False
27.030,1.454,0.953,-0.014,0.000,0.395,0.000,0.919,223.473,1.361,0.953,0.085,0.229,0.382,-0.099,0.890,-61.104,1.592,1.325,0.139,0.880,0.113,-0.378,0.262,117.900,1.748,0.997,0.287,0.678,0.267,-0.291,0.620,-141.744,1.684,0.997,0.354,0.685,0.627,0.273,0.250,-89.954,1.752,0.989,0.419,0.685,0.627,0.273,0.250,0.000,1.747,0.907,0.414,0.928,-0.041,0.370,-0.016,False,False
27.134,1.454,0.953,-0.014,0.000,0.395,0.000,0.919,223.473,1.361,0.953,0.085,0.229,0.382,-0.099,0.890,-61.104,1.592,1.325,0.139,0.880,0.113,-0.378,0.262,117.900,1.748,0.997,0.287,0.678,0.267,-0.291,0.620,-141.744,1.684,0.997,0.354,0.685,0.627,0.273,0.250,-89.954,1.752,0.989,0.419,0.685,0.627,0.273,0.250,0.000,1.747,0.907,0.414,0.928,-0.041,0.370,-0.016,False,False
27.238,1.454,0.953,-0.014,0.000,0.395,0.000,0.919,223.473,1.361,0.953,0.085,0.229,0.382,-0.099,0.890,-61.104,1.592,1.325,0.139,0.880,0.113,-0.378,0.262,117.900,1.748,0.997,0.287,0.678,0.267,-0.291,0.620,-141.744,1.684,0.997,0.354,0.685,0.627,0.273,0.250,-89.954,1.752,0.989,0.419,0.685,0.627,0.273,0.250,0.000,1.747,0.907,0.414,0.928,-0.041,0.370,-0.016,False,False
27.342,1.454,0.953,-0.014,0.000,0.395,0.000,0.919,223.473,1.361,0.953,0.085,0.229,0.382,-0.099,0.890,-61.104,1.592,1.325,0.139,0.880,0.113,-0.378,0.262,117.900,1.748,0.997,0.287,0.678,0.267,-0.291,0.620,-141.744,1.684,0.997,0.354,0.685,0.627,0.273,0.250,-89.954,1.752,0.989,0.419,0.685,0.627,0.273,0.250,0.000,1.747,0.907,0.414,0.928,-0.041,0.370,-0.016,False,False
27.446,1.454,0.953,-0.014,0.000,0.395,0.000,0.919,223.473,1.361,0.953,0.085,0.229,0.382,-0.099,0.890,-61.104,1.592,1.325,0.139,0.880,0.113,-0.378,0.262,117.900,1.748,0.997,0.287,0.678,0.267,-0.291,0.620,-141.744,1.684,0.997,0.354,0.685,0.627,0.273,0.250,-89.954,1.752,0.989,0.419,0.685,0.627,0.273,0.250,0.000,1.747,0.907,0.414,0.928,-0.041,0.370,-0.016,False,False
27.546,1.454,0.953,-0.014,0.000,0.395,0.000,0.919,223.473,1.361,0.953,0.085,0.229,0.382,-0.099,0.890,-61.104,1.592,1.325,0.139,0.880,0.113,-0.378,0.262,117.900,1.748,0.997,0.287,0.678,0.267,-0.291,0.620,-141.744,1.684,0.997,0.354,0.685,0.627,0.273,0.250,-89.954,1.752,0.989,0.419,0.685,0.627,0.273,0.250,0.000,1.747,0.907,0.414,0.928,-0.041,0.370,-0.016,False,False
