kendriklim/UROP-VLM-Robotics/ur5_simulation/AgenticAIPaths/old/ur5_left.csv
Timestamp,base_PosX,base_PosY,base_PosZ,base_RotX,base_RotY,base_RotZ,base_RotW,base_jointAngle,shoulder_PosX,shoulder_PosY,shoulder_PosZ,shoulder_RotX,shoulder_RotY,shoulder_RotZ,shoulder_RotW,shoulder_jointAngle,elbow_PosX,elbow_PosY,elbow_PosZ,elbow_RotX,elbow_RotY,elbow_RotZ,elbow_RotW,elbow_jointAngle,wrist1_PosX,wrist1_PosY,wrist1_PosZ,wrist1_RotX,wrist1_RotY,wrist1_RotZ,wrist1_RotW,wrist1_jointAngle,wrist2_PosX,wrist2_PosY,wrist2_PosZ,wrist2_RotX,wrist2_RotY,wrist2_RotZ,wrist2_RotW,wrist2_jointAngle,wrist3_PosX,wrist3_PosY,wrist3_PosZ,wrist3_RotX,wrist3_RotY,wrist3_RotZ,wrist3_RotW,wrist3_jointAngle,ee_PosX,ee_PosY,ee_PosZ,ee_RotX,ee_RotY,ee_RotZ,ee_RotW,suctionOn,blockAttracted
0.000,0.275,0.958,0.120,0.000,-0.719,0.000,-0.695,-1.916,0.280,0.958,0.256,-0.401,-0.587,0.415,-0.568,-19.499,0.676,1.100,0.123,-0.600,-0.362,0.621,-0.350,48.950,1.017,0.907,0.111,-0.651,-0.253,0.673,-0.244,-70.596,1.020,0.907,0.204,-0.925,-0.349,0.143,-0.042,-74.374,1.083,0.836,0.202,-0.925,-0.349,0.143,-0.042,0.002,1.024,0.784,0.226,-0.901,0.408,0.071,-0.131,False,False
0.131,0.275,0.958,0.120,0.000,-0.711,0.000,-0.703,-0.644,0.277,0.958,0.256,-0.273,-0.655,0.276,-0.648,-44.246,0.580,1.255,0.133,-0.550,-0.443,0.556,-0.438,57.190,0.962,1.167,0.128,-0.565,-0.423,0.572,-0.418,-85.933,0.963,1.167,0.221,-0.804,-0.595,0.005,0.003,-89.931,1.053,1.139,0.220,-0.804,-0.595,0.005,0.003,0.000,1.029,1.060,0.221,-0.989,0.148,0.006,-0.001,False,False
0.248,0.275,0.958,0.120,0.000,-0.708,0.000,-0.706,-0.208,0.275,0.958,0.256,-0.267,-0.656,0.268,-0.653,-45.498,0.573,1.261,0.135,-0.548,-0.447,0.550,-0.445,57.301,0.957,1.181,0.134,-0.563,-0.427,0.565,-0.425,-85.944,0.957,1.181,0.227,-0.798,-0.603,0.002,0.001,-89.954,1.048,1.155,0.226,-0.798,-0.603,0.002,0.001,0.000,1.026,1.076,0.226,-0.990,0.138,0.002,-0.001,False,False
0.357,0.275,0.958,0.120,0.000,-0.708,0.000,-0.707,-0.090,0.275,0.958,0.256,-0.267,-0.655,0.267,-0.654,-45.630,0.572,1.262,0.136,-0.548,-0.447,0.549,-0.446,57.303,0.956,1.183,0.135,-0.563,-0.427,0.564,-0.427,-85.944,0.957,1.183,0.228,-0.797,-0.604,0.001,0.000,-89.954,1.048,1.157,0.228,-0.797,-0.604,0.001,0.000,0.000,1.025,1.078,0.228,-0.991,0.137,0.001,-0.001,False,False
0.469,0.275,0.958,0.120,0.000,-0.707,0.000,-0.707,-0.043,0.275,0.958,0.256,-0.267,-0.655,0.267,-0.655,-45.653,0.572,1.262,0.136,-0.548,-0.447,0.548,-0.447,57.303,0.956,1.183,0.136,-0.563,-0.427,0.564,-0.427,-85.944,0.956,1.183,0.229,-0.797,-0.604,0.001,0.000,-89.954,1.047,1.157,0.229,-0.797,-0.604,0.001,0.000,0.000,1.025,1.078,0.229,-0.991,0.137,0.000,0.000,False,False
0.579,0.275,0.958,0.120,0.000,-0.707,0.000,-0.707,-0.031,0.275,0.958,0.256,-0.267,-0.655,0.267,-0.655,-45.655,0.572,1.262,0.136,-0.548,-0.447,0.548,-0.447,57.303,0.956,1.183,0.136,-0.563,-0.427,0.564,-0.427,-85.944,0.956,1.183,0.229,-0.797,-0.604,0.001,0.000,-89.954,1.047,1.157,0.229,-0.797,-0.604,0.001,0.000,0.000,1.025,1.078,0.229,-0.991,0.137,0.000,0.000,False,False
0.685,0.275,0.958,0.120,0.000,-0.707,0.000,-0.707,-0.025,0.275,0.958,0.256,-0.267,-0.655,0.267,-0.655,-45.656,0.572,1.262,0.136,-0.548,-0.447,0.548,-0.447,57.303,0.956,1.183,0.136,-0.563,-0.427,0.564,-0.427,-85.944,0.956,1.183,0.229,-0.797,-0.604,0.000,0.000,-89.954,1.047,1.157,0.229,-0.797,-0.604,0.000,0.000,0.000,1.025,1.078,0.229,-0.991,0.137,0.000,0.000,False,False
0.792,0.275,0.958,0.120,0.000,-0.707,0.000,-0.707,-0.024,0.275,0.958,0.256,-0.267,-0.655,0.267,-0.655,-45.656,0.572,1.262,0.136,-0.548,-0.447,0.548,-0.447,57.303,0.956,1.183,0.136,-0.564,-0.427,0.564,-0.427,-85.944,0.956,1.183,0.229,-0.797,-0.604,0.000,0.000,-89.954,1.047,1.157,0.229,-0.797,-0.604,0.000,0.000,0.000,1.025,1.078,0.229,-0.991,0.137,0.000,0.000,False,False
0.901,0.275,0.958,0.120,0.000,-0.707,0.000,-0.707,-0.024,0.275,0.958,0.256,-0.267,-0.655,0.267,-0.655,-45.656,0.572,1.262,0.136,-0.548,-0.447,0.548,-0.447,57.303,0.956,1.183,0.136,-0.564,-0.427,0.564,-0.427,-85.944,0.956,1.183,0.229,-0.797,-0.604,0.000,0.000,-89.954,1.047,1.157,0.229,-0.797,-0.604,0.000,0.000,0.000,1.025,1.078,0.229,-0.991,0.137,0.000,0.000,False,False
1.009,0.275,0.958,0.120,0.000,-0.707,0.000,-0.707,-0.023,0.275,0.958,0.256,-0.267,-0.655,0.267,-0.655,-45.656,0.572,1.262,0.136,-0.548,-0.447,0.548,-0.447,57.303,0.956,1.183,0.136,-0.564,-0.427,0.564,-0.427,-85.944,0.956,1.183,0.229,-0.797,-0.604,0.000,0.000,-89.954,1.047,1.157,0.229,-0.797,-0.604,0.000,0.000,0.000,1.025,1.078,0.229,-0.991,0.137,0.000,0.000,False,False
1.118,0.275,0.958,0.120,0.000,-0.707,0.000,-0.707,-0.023,0.275,0.958,0.256,-0.267,-0.655,0.267,-0.655,-45.656,0.572,1.262,0.136,-0.548,-0.447,0.548,-0.447,57.303,0.956,1.183,0.136,-0.564,-0.427,0.564,-0.427,-85.944,0.956,1.183,0.229,-0.797,-0.604,0.000,0.000,-89.954,1.047,1.157,0.229,-0.797,-0.604,0.000,0.000,0.000,1.025,1.078,0.229,-0.991,0.137,0.000,0.000,False,False
1.223,0.275,0.958,0.120,0.000,-0.707,0.000,-0.707,-0.023,0.275,0.958,0.256,-0.267,-0.655,0.267,-0.655,-45.656,0.572,1.262,0.136,-0.548,-0.447,0.548,-0.447,57.303,0.956,1.183,0.136,-0.564,-0.427,0.564,-0.427,-85.944,0.956,1.183,0.229,-0.797,-0.604,0.000,0.000,-89.954,1.047,1.157,0.229,-0.797,-0.604,0.000,0.000,0.000,1.025,1.078,0.229,-0.991,0.137,0.000,0.000,False,False
1.329,0.275,0.958,0.120,0.000,-0.707,0.000,-0.707,-0.023,0.275,0.958,0.256,-0.267,-0.655,0.267,-0.655,-45.656,0.572,1.262,0.136,-0.548,-0.447,0.548,-0.447,57.303,0.956,1.183,0.136,-0.564,-0.427,0.564,-0.427,-85.944,0.956,1.183,0.229,-0.797,-0.604,0.000,0.000,-89.954,1.047,1.157,0.229,-0.797,-0.604,0.000,0.000,0.000,1.025,1.078,0.229,-0.991,0.137,0.000,0.000,False,False
1.441,0.275,0.958,0.120,0.000,-0.707,0.000,-0.707,-0.023,0.275,0.958,0.256,-0.267,-0.655,0.267,-0.655,-45.656,0.572,1.262,0.136,-0.548,-0.447,0.548,-0.447,57.303,0.956,1.183,0.136,-0.564,-0.427,0.564,-0.427,-85.944,0.956,1.183,0.229,-0.797,-0.604,0.000,0.000,-89.954,1.047,1.157,0.229,-0.797,-0.604,0.000,0.000,0.000,1.025,1.078,0.229,-0.991,0.137,0.000,0.000,False,False
1.548,0.275,0.958,0.120,0.000,-0.707,0.000,-0.707,-0.023,0.275,0.958,0.256,-0.267,-0.655,0.267,-0.655,-45.656,0.572,1.262,0.136,-0.548,-0.447,0.548,-0.447,57.303,0.956,1.183,0.136,-0.564,-0.427,0.564,-0.427,-85.944,0.956,1.183,0.229,-0.797,-0.604,0.000,0.000,-89.954,1.047,1.157,0.229,-0.797,-0.604,0.000,0.000,0.000,1.025,1.078,0.229,-0.991,0.137,0.000,0.000,False,False
1.658,0.275,0.958,0.120,0.000,-0.707,0.000,-0.707,-0.023,0.275,0.958,0.256,-0.267,-0.655,0.267,-0.655,-45.656,0.572,1.262,0.136,-0.548,-0.447,0.548,-0.447,57.303,0.956,1.183,0.136,-0.564,-0.427,0.564,-0.427,-85.944,0.956,1.183,0.229,-0.797,-0.604,0.000,0.000,-89.954,1.047,1.157,0.229,-0.797,-0.604,0.000,0.000,0.000,1.025,1.078,0.229,-0.991,0.137,0.000,0.000,False,False
1.764,0.275,0.958,0.120,0.000,-0.707,0.000,-0.707,-0.023,0.275,0.958,0.256,-0.267,-0.655,0.267,-0.655,-45.656,0.572,1.262,0.136,-0.548,-0.447,0.548,-0.447,57.303,0.956,1.183,0.136,-0.564,-0.427,0.564,-0.427,-85.944,0.956,1.183,0.229,-0.797,-0.604,0.000,0.000,-89.954,1.047,1.157,0.229,-0.797,-0.604,0.000,0.000,0.000,1.025,1.078,0.229,-0.991,0.137,0.000,0.000,False,False
1.867,0.275,0.958,0.120,0.000,-0.707,0.000,-0.707,-0.023,0.275,0.958,0.256,-0.267,-0.655,0.267,-0.655,-45.656,0.572,1.262,0.136,-0.548,-0.447,0.548,-0.447,57.303,0.956,1.183,0.136,-0.564,-0.427,0.564,-0.427,-85.944,0.956,1.183,0.229,-0.797,-0.604,0.000,0.000,-89.954,1.047,1.157,0.229,-0.797,-0.604,0.000,0.000,0.000,1.025,1.078,0.229,-0.991,0.137,0.000,0.000,False,False
1.971,0.275,0.958,0.120,0.000,-0.707,0.000,-0.707,-0.023,0.275,0.958,0.256,-0.267,-0.655,0.267,-0.655,-45.656,0.572,1.262,0.136,-0.548,-0.447,0.548,-0.447,57.303,0.956,1.183,0.136,-0.564,-0.427,0.564,-0.427,-85.944,0.956,1.183,0.229,-0.797,-0.604,0.000,0.000,-89.954,1.047,1.157,0.229,-0.797,-0.604,0.000,0.000,0.000,1.025,1.078,0.229,-0.991,0.137,0.000,0.000,False,False
2.072,0.275,0.958,0.120,0.000,-0.707,0.000,-0.707,-0.023,0.275,0.958,0.256,-0.267,-0.655,0.267,-0.655,-45.656,0.572,1.262,0.136,-0.548,-0.447,0.548,-0.447,57.303,0.956,1.183,0.136,-0.564,-0.427,0.564,-0.427,-85.944,0.956,1.183,0.229,-0.797,-0.604,0.000,0.000,-89.954,1.047,1.157,0.229,-0.797,-0.604,0.000,0.000,0.000,1.025,1.078,0.229,-0.991,0.137,0.000,0.000,False,False
2.175,0.275,0.958,0.120,0.000,-0.707,0.000,-0.707,-0.023,0.275,0.958,0.256,-0.267,-0.655,0.267,-0.655,-45.656,0.572,1.262,0.136,-0.548,-0.447,0.548,-0.447,57.303,0.956,1.183,0.136,-0.564,-0.427,0.564,-0.427,-85.944,0.956,1.183,0.229,-0.797,-0.604,0.000,0.000,-89.954,1.047,1.157,0.229,-0.797,-0.604,0.000,0.000,0.000,1.025,1.078,0.229,-0.991,0.137,0.000,0.000,False,False
2.280,0.275,0.958,0.120,0.000,-0.707,0.000,-0.707,-0.023,0.275,0.958,0.256,-0.267,-0.655,0.267,-0.655,-45.656,0.572,1.262,0.136,-0.548,-0.447,0.548,-0.447,57.303,0.956,1.183,0.136,-0.564,-0.427,0.564,-0.427,-85.944,0.956,1.183,0.229,-0.797,-0.604,0.000,0.000,-89.954,1.047,1.157,0.229,-0.797,-0.604,0.000,0.000,0.000,1.025,1.078,0.229,-0.991,0.137,0.000,0.000,False,False
2.386,0.275,0.958,0.120,0.000,-0.707,0.000,-0.707,-0.023,0.275,0.958,0.256,-0.267,-0.655,0.267,-0.655,-45.656,0.572,1.262,0.136,-0.548,-0.447,0.548,-0.447,57.303,0.956,1.183,0.136,-0.564,-0.427,0.564,-0.427,-85.944,0.956,1.183,0.229,-0.797,-0.604,0.000,0.000,-89.954,1.047,1.157,0.229,-0.797,-0.604,0.000,0.000,0.000,1.025,1.078,0.229,-0.991,0.137,0.000,0.000,False,False
2.492,0.275,0.958,0.120,0.000,-0.707,0.000,-0.707,-0.023,0.275,0.958,0.256,-0.267,-0.655,0.267,-0.655,-45.656,0.572,1.262,0.136,-0.548,-0.447,0.548,-0.447,57.303,0.956,1.183,0.136,-0.564,-0.427,0.564,-0.427,-85.944,0.956,1.183,0.229,-0.797,-0.604,0.000,0.000,-89.954,1.047,1.157,0.229,-0.797,-0.604,0.000,0.000,0.000,1.025,1.078,0.229,-0.991,0.137,0.000,0.000,False,False
2.598,0.275,0.958,0.120,0.000,-0.707,0.000,-0.707,-0.023,0.275,0.958,0.256,-0.267,-0.655,0.267,-0.655,-45.656,0.572,1.262,0.136,-0.548,-0.447,0.548,-0.447,57.303,0.956,1.183,0.136,-0.564,-0.427,0.564,-0.427,-85.944,0.956,1.183,0.229,-0.797,-0.604,0.000,0.000,-89.954,1.047,1.157,0.229,-0.797,-0.604,0.000,0.000,0.000,1.025,1.078,0.229,-0.991,0.137,0.000,0.000,False,False
2.699,0.275,0.958,0.120,0.000,-0.707,0.000,-0.707,-0.023,0.275,0.958,0.256,-0.267,-0.655,0.267,-0.655,-45.656,0.572,1.262,0.136,-0.548,-0.447,0.548,-0.447,57.303,0.956,1.183,0.136,-0.564,-0.427,0.564,-0.427,-85.944,0.956,1.183,0.229,-0.797,-0.604,0.000,0.000,-89.954,1.047,1.157,0.229,-0.797,-0.604,0.000,0.000,0.000,1.025,1.078,0.229,-0.991,0.137,0.000,0.000,False,False
2.803,0.275,0.958,0.120,0.000,-0.707,0.000,-0.707,-0.023,0.275,0.958,0.256,-0.267,-0.655,0.267,-0.655,-45.656,0.572,1.262,0.136,-0.548,-0.447,0.548,-0.447,57.303,0.956,1.183,0.136,-0.564,-0.427,0.564,-0.427,-85.944,0.956,1.183,0.229,-0.797,-0.604,0.000,0.000,-89.954,1.047,1.157,0.229,-0.797,-0.604,0.000,0.000,0.000,1.025,1.078,0.229,-0.991,0.137,0.000,0.000,False,False
2.910,0.275,0.958,0.120,0.000,-0.707,0.000,-0.707,-0.023,0.275,0.958,0.256,-0.267,-0.655,0.267,-0.655,-45.656,0.572,1.262,0.136,-0.548,-0.447,0.548,-0.447,57.303,0.956,1.183,0.136,-0.564,-0.427,0.564,-0.427,-85.944,0.956,1.183,0.229,-0.797,-0.604,0.000,0.000,-89.954,1.047,1.157,0.229,-0.797,-0.604,0.000,0.000,0.000,1.025,1.078,0.229,-0.991,0.137,0.000,0.000,False,False
3.014,0.275,0.958,0.120,0.000,-0.707,0.000,-0.707,-0.023,0.275,0.958,0.256,-0.267,-0.655,0.267,-0.655,-45.656,0.572,1.262,0.136,-0.548,-0.447,0.548,-0.447,57.303,0.956,1.183,0.136,-0.564,-0.427,0.564,-0.427,-85.944,0.956,1.183,0.229,-0.797,-0.604,0.000,0.000,-89.954,1.047,1.157,0.229,-0.797,-0.604,0.000,0.000,0.000,1.025,1.078,0.229,-0.991,0.137,0.000,0.000,False,False
3.120,0.275,0.958,0.120,0.000,-0.707,0.000,-0.707,-0.023,0.275,0.958,0.256,-0.267,-0.655,0.267,-0.655,-45.656,0.572,1.262,0.136,-0.548,-0.447,0.548,-0.447,57.303,0.956,1.183,0.136,-0.564,-0.427,0.564,-0.427,-85.944,0.956,1.183,0.229,-0.797,-0.604,0.000,0.000,-89.954,1.047,1.157,0.229,-0.797,-0.604,0.000,0.000,0.000,1.025,1.078,0.229,-0.991,0.137,0.000,0.000,False,False
3.225,0.275,0.958,0.120,0.000,-0.707,0.000,-0.707,-0.023,0.275,0.958,0.256,-0.267,-0.655,0.267,-0.655,-45.656,0.572,1.262,0.136,-0.548,-0.447,0.548,-0.447,57.303,0.956,1.183,0.136,-0.564,-0.427,0.564,-0.427,-85.944,0.956,1.183,0.229,-0.797,-0.604,0.000,0.000,-89.954,1.047,1.157,0.229,-0.797,-0.604,0.000,0.000,0.000,1.025,1.078,0.229,-0.991,0.137,0.000,0.000,False,False
3.331,0.275,0.958,0.120,0.000,-0.707,0.000,-0.707,-0.023,0.275,0.958,0.256,-0.267,-0.655,0.267,-0.655,-45.656,0.572,1.262,0.136,-0.548,-0.447,0.548,-0.447,57.303,0.956,1.183,0.136,-0.564,-0.427,0.564,-0.427,-85.944,0.956,1.183,0.229,-0.797,-0.604,0.000,0.000,-89.954,1.047,1.157,0.229,-0.797,-0.604,0.000,0.000,0.000,1.025,1.078,0.229,-0.991,0.137,0.000,0.000,False,False
3.438,0.275,0.958,0.120,0.000,-0.707,0.000,-0.707,-0.023,0.275,0.958,0.256,-0.267,-0.655,0.267,-0.655,-45.656,0.572,1.262,0.136,-0.548,-0.447,0.548,-0.447,57.303,0.956,1.183,0.136,-0.564,-0.427,0.564,-0.427,-85.944,0.956,1.183,0.229,-0.797,-0.604,0.000,0.000,-89.954,1.047,1.157,0.229,-0.797,-0.604,0.000,0.000,0.000,1.025,1.078,0.229,-0.991,0.137,0.000,0.000,False,False
3.543,0.275,0.958,0.120,0.000,-0.707,0.000,-0.707,-0.023,0.275,0.958,0.256,-0.267,-0.655,0.267,-0.655,-45.656,0.572,1.262,0.136,-0.548,-0.447,0.548,-0.447,57.303,0.956,1.183,0.136,-0.564,-0.427,0.564,-0.427,-85.944,0.956,1.183,0.229,-0.797,-0.604,0.000,0.000,-89.954,1.047,1.157,0.229,-0.797,-0.604,0.000,0.000,0.000,1.025,1.078,0.229,-0.991,0.137,0.000,0.000,False,False
3.650,0.275,0.958,0.120,0.000,-0.707,0.000,-0.707,-0.023,0.275,0.958,0.256,-0.267,-0.655,0.267,-0.655,-45.656,0.572,1.262,0.136,-0.548,-0.447,0.548,-0.447,57.303,0.956,1.183,0.136,-0.564,-0.427,0.564,-0.427,-85.944,0.956,1.183,0.229,-0.797,-0.604,0.000,0.000,-89.954,1.047,1.157,0.229,-0.797,-0.604,0.000,0.000,0.000,1.025,1.078,0.229,-0.991,0.137,0.000,0.000,False,False
3.755,0.275,0.958,0.120,0.000,-0.707,0.000,-0.707,-0.023,0.275,0.958,0.256,-0.267,-0.655,0.267,-0.655,-45.656,0.572,1.262,0.136,-0.548,-0.447,0.548,-0.447,57.303,0.956,1.183,0.136,-0.564,-0.427,0.564,-0.427,-85.944,0.956,1.183,0.229,-0.797,-0.604,0.000,0.000,-89.954,1.047,1.157,0.229,-0.797,-0.604,0.000,0.000,0.000,1.025,1.078,0.229,-0.991,0.137,0.000,0.000,False,False
3.862,0.275,0.958,0.120,0.000,-0.707,0.000,-0.707,-0.023,0.275,0.958,0.256,-0.267,-0.655,0.267,-0.655,-45.656,0.572,1.262,0.136,-0.548,-0.447,0.548,-0.447,57.303,0.956,1.183,0.136,-0.564,-0.427,0.564,-0.427,-85.944,0.956,1.183,0.229,-0.797,-0.604,0.000,0.000,-89.954,1.047,1.157,0.229,-0.797,-0.604,0.000,0.000,0.000,1.025,1.078,0.229,-0.991,0.137,0.000,0.000,False,False
3.966,0.275,0.958,0.120,0.000,-0.707,0.000,-0.707,-0.023,0.275,0.958,0.256,-0.267,-0.655,0.267,-0.655,-45.656,0.572,1.262,0.136,-0.548,-0.447,0.548,-0.447,57.303,0.956,1.183,0.136,-0.564,-0.427,0.564,-0.427,-85.944,0.956,1.183,0.229,-0.797,-0.604,0.000,0.000,-89.954,1.047,1.157,0.229,-0.797,-0.604,0.000,0.000,0.000,1.025,1.078,0.229,-0.991,0.137,0.000,0.000,False,False
4.072,0.275,0.958,0.120,0.000,-0.707,0.000,-0.707,-0.023,0.275,0.958,0.256,-0.267,-0.655,0.267,-0.655,-45.656,0.572,1.262,0.136,-0.548,-0.447,0.548,-0.447,57.303,0.956,1.183,0.136,-0.564,-0.427,0.564,-0.427,-85.944,0.956,1.183,0.229,-0.797,-0.604,0.000,0.000,-89.954,1.047,1.157,0.229,-0.797,-0.604,0.000,0.000,0.000,1.025,1.078,0.229,-0.991,0.137,0.000,0.000,False,False
4.175,0.275,0.958,0.120,0.000,-0.707,0.000,-0.707,-0.023,0.275,0.958,0.256,-0.267,-0.655,0.267,-0.655,-45.656,0.572,1.262,0.136,-0.548,-0.447,0.548,-0.447,57.303,0.956,1.183,0.136,-0.564,-0.427,0.564,-0.427,-85.944,0.956,1.183,0.229,-0.797,-0.604,0.000,0.000,-89.954,1.047,1.157,0.229,-0.797,-0.604,0.000,0.000,0.000,1.025,1.078,0.229,-0.991,0.137,0.000,0.000,False,False
4.282,0.275,0.958,0.120,0.000,-0.707,0.000,-0.707,-0.023,0.275,0.958,0.256,-0.267,-0.655,0.267,-0.655,-45.656,0.572,1.262,0.136,-0.548,-0.447,0.548,-0.447,57.303,0.956,1.183,0.136,-0.564,-0.427,0.564,-0.427,-85.944,0.956,1.183,0.229,-0.797,-0.604,0.000,0.000,-89.954,1.047,1.157,0.229,-0.797,-0.604,0.000,0.000,0.000,1.025,1.078,0.229,-0.991,0.137,0.000,0.000,False,False
4.386,0.275,0.958,0.120,0.000,-0.707,0.000,-0.707,-0.023,0.275,0.958,0.256,-0.267,-0.655,0.267,-0.655,-45.656,0.572,1.262,0.136,-0.548,-0.447,0.548,-0.447,57.303,0.956,1.183,0.136,-0.564,-0.427,0.564,-0.427,-85.944,0.956,1.183,0.229,-0.797,-0.604,0.000,0.000,-89.954,1.047,1.157,0.229,-0.797,-0.604,0.000,0.000,0.000,1.025,1.078,0.229,-0.991,0.137,0.000,0.000,False,False
4.494,0.275,0.958,0.120,0.000,-0.707,0.000,-0.707,-0.023,0.275,0.958,0.256,-0.267,-0.655,0.267,-0.655,-45.656,0.572,1.262,0.136,-0.548,-0.447,0.548,-0.447,57.303,0.956,1.183,0.136,-0.564,-0.427,0.564,-0.427,-85.944,0.956,1.183,0.229,-0.797,-0.604,0.000,0.000,-89.954,1.047,1.157,0.229,-0.797,-0.604,0.000,0.000,0.000,1.025,1.078,0.229,-0.991,0.137,0.000,0.000,False,False
4.599,0.275,0.958,0.120,0.000,-0.707,0.000,-0.707,-0.023,0.275,0.958,0.256,-0.267,-0.655,0.267,-0.655,-45.656,0.572,1.262,0.136,-0.548,-0.447,0.548,-0.447,57.303,0.956,1.183,0.136,-0.564,-0.427,0.564,-0.427,-85.944,0.956,1.183,0.229,-0.797,-0.604,0.000,0.000,-89.954,1.047,1.157,0.229,-0.797,-0.604,0.000,0.000,0.000,1.025,1.078,0.229,-0.991,0.137,0.000,0.000,False,False
4.706,0.275,0.958,0.120,0.000,-0.707,0.000,-0.707,-0.023,0.275,0.958,0.256,-0.267,-0.655,0.267,-0.655,-45.656,0.572,1.262,0.136,-0.548,-0.447,0.548,-0.447,57.303,0.956,1.183,0.136,-0.564,-0.427,0.564,-0.427,-85.944,0.956,1.183,0.229,-0.797,-0.604,0.000,0.000,-89.954,1.047,1.157,0.229,-0.797,-0.604,0.000,0.000,0.000,1.025,1.078,0.229,-0.991,0.137,0.000,0.000,False,False
4.812,0.275,0.958,0.120,0.000,-0.707,0.000,-0.707,-0.023,0.275,0.958,0.256,-0.267,-0.655,0.267,-0.655,-45.656,0.572,1.262,0.136,-0.548,-0.447,0.548,-0.447,57.303,0.956,1.183,0.136,-0.564,-0.427,0.564,-0.427,-85.944,0.956,1.183,0.229,-0.797,-0.604,0.000,0.000,-89.954,1.047,1.157,0.229,-0.797,-0.604,0.000,0.000,0.000,1.025,1.078,0.229,-0.991,0.137,0.000,0.000,False,False
4.916,0.275,0.958,0.120,0.000,-0.707,0.000,-0.707,-0.023,0.275,0.958,0.256,-0.267,-0.655,0.267,-0.655,-45.656,0.572,1.262,0.136,-0.548,-0.447,0.548,-0.447,57.303,0.956,1.183,0.136,-0.564,-0.427,0.564,-0.427,-85.944,0.956,1.183,0.229,-0.797,-0.604,0.000,0.000,-89.954,1.047,1.157,0.229,-0.797,-0.604,0.000,0.000,0.000,1.025,1.078,0.229,-0.991,0.137,0.000,0.000,False,False
5.022,0.275,0.958,0.120,0.000,-0.707,0.000,-0.707,-0.023,0.275,0.958,0.256,-0.267,-0.655,0.267,-0.655,-45.656,0.572,1.262,0.136,-0.548,-0.447,0.548,-0.447,57.303,0.956,1.183,0.136,-0.564,-0.427,0.564,-0.427,-85.944,0.956,1.183,0.229,-0.797,-0.604,0.000,0.000,-89.954,1.047,1.157,0.229,-0.797,-0.604,0.000,0.000,0.000,1.025,1.078,0.229,-0.991,0.137,0.000,0.000,False,False
5.129,0.275,0.958,0.120,0.000,-0.707,0.000,-0.707,-0.023,0.275,0.958,0.256,-0.267,-0.655,0.267,-0.655,-45.656,0.572,1.262,0.136,-0.548,-0.447,0.548,-0.447,57.303,0.956,1.183,0.136,-0.564,-0.427,0.564,-0.427,-85.944,0.956,1.183,0.229,-0.797,-0.604,0.000,0.000,-89.954,1.047,1.157,0.229,-0.797,-0.604,0.000,0.000,0.000,1.025,1.078,0.229,-0.991,0.137,0.000,0.000,False,False
5.234,0.275,0.958,0.120,0.000,-0.707,0.000,-0.707,-0.023,0.275,0.958,0.256,-0.267,-0.655,0.267,-0.655,-45.656,0.572,1.262,0.136,-0.548,-0.447,0.548,-0.447,57.303,0.956,1.183,0.136,-0.564,-0.427,0.564,-0.427,-85.944,0.956,1.183,0.229,-0.797,-0.604,0.000,0.000,-89.954,1.047,1.157,0.229,-0.797,-0.604,0.000,0.000,0.000,1.025,1.078,0.229,-0.991,0.137,0.000,0.000,False,False
5.341,0.275,0.958,0.120,0.000,-0.707,0.000,-0.707,-0.023,0.275,0.958,0.256,-0.267,-0.655,0.267,-0.655,-45.656,0.572,1.262,0.136,-0.548,-0.447,0.548,-0.447,57.303,0.956,1.183,0.136,-0.564,-0.427,0.564,-0.427,-85.944,0.956,1.183,0.229,-0.797,-0.604,0.000,0.000,-89.954,1.047,1.157,0.229,-0.797,-0.604,0.000,0.000,0.000,1.025,1.078,0.229,-0.991,0.137,0.000,0.000,False,False
5.447,0.275,0.958,0.120,0.000,-0.707,0.000,-0.707,-0.023,0.275,0.958,0.256,-0.267,-0.655,0.267,-0.655,-45.656,0.572,1.262,0.136,-0.548,-0.447,0.548,-0.447,57.303,0.956,1.183,0.136,-0.564,-0.427,0.564,-0.427,-85.944,0.956,1.183,0.229,-0.797,-0.604,0.000,0.000,-89.954,1.047,1.157,0.229,-0.797,-0.604,0.000,0.000,0.000,1.025,1.078,0.229,-0.991,0.137,0.000,0.000,False,False
5.554,0.275,0.958,0.120,0.000,-0.707,0.000,-0.707,-0.023,0.275,0.958,0.256,-0.267,-0.655,0.267,-0.655,-45.656,0.572,1.262,0.136,-0.548,-0.447,0.548,-0.447,57.303,0.956,1.183,0.136,-0.564,-0.427,0.564,-0.427,-85.944,0.956,1.183,0.229,-0.797,-0.604,0.000,0.000,-89.954,1.047,1.157,0.229,-0.797,-0.604,0.000,0.000,0.000,1.025,1.078,0.229,-0.991,0.137,0.000,0.000,False,False
5.657,0.275,0.958,0.120,0.000,-0.707,0.000,-0.707,-0.023,0.275,0.958,0.256,-0.267,-0.655,0.267,-0.655,-45.656,0.572,1.262,0.136,-0.548,-0.447,0.548,-0.447,57.303,0.956,1.183,0.136,-0.564,-0.427,0.564,-0.427,-85.944,0.956,1.183,0.229,-0.797,-0.604,0.000,0.000,-89.954,1.047,1.157,0.229,-0.797,-0.604,0.000,0.000,0.000,1.025,1.078,0.229,-0.991,0.137,0.000,0.000,False,False
5.763,0.275,0.958,0.120,0.000,-0.707,0.000,-0.707,-0.023,0.275,0.958,0.256,-0.267,-0.655,0.267,-0.655,-45.656,0.572,1.262,0.136,-0.548,-0.447,0.548,-0.447,57.303,0.956,1.183,0.136,-0.564,-0.427,0.564,-0.427,-85.944,0.956,1.183,0.229,-0.797,-0.604,0.000,0.000,-89.954,1.047,1.157,0.229,-0.797,-0.604,0.000,0.000,0.000,1.025,1.078,0.229,-0.991,0.137,0.000,0.000,False,False
5.870,0.275,0.958,0.120,0.000,-0.707,0.000,-0.707,-0.023,0.275,0.958,0.256,-0.267,-0.655,0.267,-0.655,-45.656,0.572,1.262,0.136,-0.548,-0.447,0.548,-0.447,57.303,0.956,1.183,0.136,-0.564,-0.427,0.564,-0.427,-85.944,0.956,1.183,0.229,-0.797,-0.604,0.000,0.000,-89.954,1.047,1.157,0.229,-0.797,-0.604,0.000,0.000,0.000,1.025,1.078,0.229,-0.991,0.137,0.000,0.000,False,False
5.976,0.275,0.958,0.120,0.000,-0.707,0.000,-0.707,-0.023,0.275,0.958,0.256,-0.267,-0.655,0.267,-0.655,-45.656,0.572,1.262,0.136,-0.548,-0.447,0.548,-0.447,57.303,0.956,1.183,0.136,-0.564,-0.427,0.564,-0.427,-85.944,0.956,1.183,0.229,-0.797,-0.604,0.000,0.000,-89.954,1.047,1.157,0.229,-0.797,-0.604,0.000,0.000,0.000,1.025,1.078,0.229,-0.991,0.137,0.000,0.000,False,False
6.081,0.275,0.958,0.120,0.000,-0.707,0.000,-0.707,-0.023,0.275,0.958,0.256,-0.267,-0.655,0.267,-0.655,-45.656,0.572,1.262,0.136,-0.548,-0.447,0.548,-0.447,57.303,0.956,1.183,0.136,-0.564,-0.427,0.564,-0.427,-85.944,0.956,1.183,0.229,-0.797,-0.604,0.000,0.000,-89.954,1.047,1.157,0.229,-0.797,-0.604,0.000,0.000,0.000,1.025,1.078,0.229,-0.991,0.137,0.000,0.000,False,False
6.186,0.275,0.958,0.120,0.000,-0.707,0.000,-0.707,-0.023,0.275,0.958,0.256,-0.267,-0.655,0.267,-0.655,-45.656,0.572,1.262,0.136,-0.548,-0.447,0.548,-0.447,57.303,0.956,1.183,0.136,-0.564,-0.427,0.564,-0.427,-85.944,0.956,1.183,0.229,-0.797,-0.604,0.000,0.000,-89.954,1.047,1.157,0.229,-0.797,-0.604,0.000,0.000,0.000,1.025,1.078,0.229,-0.991,0.137,0.000,0.000,False,False
6.292,0.275,0.958,0.120,0.000,-0.707,0.000,-0.707,-0.023,0.275,0.958,0.256,-0.267,-0.655,0.267,-0.655,-45.656,0.572,1.262,0.136,-0.548,-0.447,0.548,-0.447,57.303,0.956,1.183,0.136,-0.564,-0.427,0.564,-0.427,-85.944,0.956,1.183,0.229,-0.797,-0.604,0.000,0.000,-89.954,1.047,1.157,0.229,-0.797,-0.604,0.000,0.000,0.000,1.025,1.078,0.229,-0.991,0.137,0.000,0.000,False,False
6.398,0.275,0.958,0.120,0.000,-0.707,0.000,-0.707,-0.023,0.275,0.958,0.256,-0.267,-0.655,0.267,-0.655,-45.656,0.572,1.262,0.136,-0.548,-0.447,0.548,-0.447,57.303,0.956,1.183,0.136,-0.564,-0.427,0.564,-0.427,-85.944,0.956,1.183,0.229,-0.797,-0.604,0.000,0.000,-89.954,1.047,1.157,0.229,-0.797,-0.604,0.000,0.000,0.000,1.025,1.078,0.229,-0.991,0.137,0.000,0.000,False,False
6.504,0.275,0.958,0.120,0.000,-0.707,0.000,-0.707,-0.023,0.275,0.958,0.256,-0.267,-0.655,0.267,-0.655,-45.656,0.572,1.262,0.136,-0.548,-0.447,0.548,-0.447,57.303,0.956,1.183,0.136,-0.564,-0.427,0.564,-0.427,-85.944,0.956,1.183,0.229,-0.797,-0.604,0.000,0.000,-89.954,1.047,1.157,0.229,-0.797,-0.604,0.000,0.000,0.000,1.025,1.078,0.229,-0.991,0.137,0.000,0.000,False,False
6.610,0.275,0.958,0.120,0.000,-0.707,0.000,-0.707,-0.023,0.275,0.958,0.256,-0.267,-0.655,0.267,-0.655,-45.656,0.572,1.262,0.136,-0.548,-0.447,0.548,-0.447,57.303,0.956,1.183,0.136,-0.564,-0.427,0.564,-0.427,-85.944,0.956,1.183,0.229,-0.797,-0.604,0.000,0.000,-89.954,1.047,1.157,0.229,-0.797,-0.604,0.000,0.000,0.000,1.025,1.078,0.229,-0.991,0.137,0.000,0.000,False,False
6.717,0.275,0.958,0.120,0.000,-0.707,0.000,-0.707,-0.023,0.275,0.958,0.256,-0.267,-0.655,0.267,-0.655,-45.656,0.572,1.262,0.136,-0.548,-0.447,0.548,-0.447,57.303,0.956,1.183,0.136,-0.564,-0.427,0.564,-0.427,-85.944,0.956,1.183,0.229,-0.797,-0.604,0.000,0.000,-89.954,1.047,1.157,0.229,-0.797,-0.604,0.000,0.000,0.000,1.025,1.078,0.229,-0.991,0.137,0.000,0.000,False,False
6.822,0.275,0.958,0.120,0.000,-0.707,0.000,-0.707,-0.023,0.275,0.958,0.256,-0.267,-0.655,0.267,-0.655,-45.656,0.572,1.262,0.136,-0.548,-0.447,0.548,-0.447,57.303,0.956,1.183,0.136,-0.564,-0.427,0.564,-0.427,-85.944,0.956,1.183,0.229,-0.797,-0.604,0.000,0.000,-89.954,1.047,1.157,0.229,-0.797,-0.604,0.000,0.000,0.000,1.025,1.078,0.229,-0.991,0.137,0.000,0.000,False,False
6.930,0.275,0.958,0.120,0.000,-0.707,0.000,-0.707,-0.023,0.275,0.958,0.256,-0.267,-0.655,0.267,-0.655,-45.656,0.572,1.262,0.136,-0.548,-0.447,0.548,-0.447,57.303,0.956,1.183,0.136,-0.564,-0.427,0.564,-0.427,-85.944,0.956,1.183,0.229,-0.797,-0.604,0.000,0.000,-89.954,1.047,1.157,0.229,-0.797,-0.604,0.000,0.000,0.000,1.025,1.078,0.229,-0.991,0.137,0.000,0.000,False,False
7.036,0.275,0.958,0.120,0.000,-0.707,0.000,-0.707,-0.023,0.275,0.958,0.256,-0.267,-0.655,0.267,-0.655,-45.656,0.572,1.262,0.136,-0.548,-0.447,0.548,-0.447,57.303,0.956,1.183,0.136,-0.564,-0.427,0.564,-0.427,-85.944,0.956,1.183,0.229,-0.797,-0.604,0.000,0.000,-89.954,1.047,1.157,0.229,-0.797,-0.604,0.000,0.000,0.000,1.025,1.078,0.229,-0.991,0.137,0.000,0.000,False,False
7.142,0.275,0.958,0.120,0.000,-0.707,0.000,-0.707,-0.023,0.275,0.958,0.256,-0.267,-0.655,0.267,-0.655,-45.656,0.572,1.262,0.136,-0.548,-0.447,0.548,-0.447,57.303,0.956,1.183,0.136,-0.564,-0.427,0.564,-0.427,-85.944,0.956,1.183,0.229,-0.797,-0.604,0.000,0.000,-89.954,1.047,1.157,0.229,-0.797,-0.604,0.000,0.000,0.000,1.025,1.078,0.229,-0.991,0.137,0.000,0.000,False,False
7.246,0.275,0.958,0.120,0.000,-0.707,0.000,-0.707,-0.023,0.275,0.958,0.256,-0.267,-0.655,0.267,-0.655,-45.656,0.572,1.262,0.136,-0.548,-0.447,0.548,-0.447,57.303,0.956,1.183,0.136,-0.564,-0.427,0.564,-0.427,-85.944,0.956,1.183,0.229,-0.797,-0.604,0.000,0.000,-89.954,1.047,1.157,0.229,-0.797,-0.604,0.000,0.000,0.000,1.025,1.078,0.229,-0.991,0.137,0.000,0.000,False,False
7.352,0.275,0.958,0.120,0.000,-0.707,0.000,-0.707,-0.023,0.275,0.958,0.256,-0.267,-0.655,0.267,-0.655,-45.656,0.572,1.262,0.136,-0.548,-0.447,0.548,-0.447,57.303,0.956,1.183,0.136,-0.564,-0.427,0.564,-0.427,-85.944,0.956,1.183,0.229,-0.797,-0.604,0.000,0.000,-89.954,1.047,1.157,0.229,-0.797,-0.604,0.000,0.000,0.000,1.025,1.078,0.229,-0.991,0.137,0.000,0.000,False,False
7.456,0.275,0.958,0.120,0.000,-0.707,0.000,-0.707,-0.023,0.275,0.958,0.256,-0.267,-0.655,0.267,-0.655,-45.656,0.572,1.262,0.136,-0.548,-0.447,0.548,-0.447,57.303,0.956,1.183,0.136,-0.564,-0.427,0.564,-0.427,-85.944,0.956,1.183,0.229,-0.797,-0.604,0.000,0.000,-89.954,1.047,1.157,0.229,-0.797,-0.604,0.000,0.000,0.000,1.025,1.078,0.229,-0.991,0.137,0.000,0.000,False,False
7.562,0.275,0.958,0.120,0.000,-0.707,0.000,-0.707,-0.023,0.275,0.958,0.256,-0.267,-0.655,0.267,-0.655,-45.656,0.572,1.262,0.136,-0.548,-0.447,0.548,-0.447,57.303,0.956,1.183,0.136,-0.564,-0.427,0.564,-0.427,-85.944,0.956,1.183,0.229,-0.797,-0.604,0.000,0.000,-89.954,1.047,1.157,0.229,-0.797,-0.604,0.000,0.000,0.000,1.025,1.078,0.229,-0.991,0.137,0.000,0.000,False,False
7.666,0.275,0.958,0.120,0.000,-0.707,0.000,-0.707,-0.023,0.275,0.958,0.256,-0.267,-0.655,0.267,-0.655,-45.656,0.572,1.262,0.136,-0.548,-0.447,0.548,-0.447,57.303,0.956,1.183,0.136,-0.564,-0.427,0.564,-0.427,-85.944,0.956,1.183,0.229,-0.797,-0.604,0.000,0.000,-89.954,1.047,1.157,0.229,-0.797,-0.604,0.000,0.000,0.000,1.025,1.078,0.229,-0.991,0.137,0.000,0.000,False,False
7.773,0.275,0.958,0.120,0.000,-0.707,0.000,-0.707,-0.023,0.275,0.958,0.256,-0.267,-0.655,0.267,-0.655,-45.656,0.572,1.262,0.136,-0.548,-0.447,0.548,-0.447,57.303,0.956,1.183,0.136,-0.564,-0.427,0.564,-0.427,-85.944,0.956,1.183,0.229,-0.797,-0.604,0.000,0.000,-89.954,1.047,1.157,0.229,-0.797,-0.604,0.000,0.000,0.000,1.025,1.078,0.229,-0.991,0.137,0.000,0.000,False,False
7.878,0.275,0.958,0.120,0.000,-0.707,0.000,-0.707,-0.023,0.275,0.958,0.256,-0.267,-0.655,0.267,-0.655,-45.656,0.572,1.262,0.136,-0.548,-0.447,0.548,-0.447,57.303,0.956,1.183,0.136,-0.564,-0.427,0.564,-0.427,-85.944,0.956,1.183,0.229,-0.797,-0.604,0.000,0.000,-89.954,1.047,1.157,0.229,-0.797,-0.604,0.000,0.000,0.000,1.025,1.078,0.229,-0.991,0.137,0.000,0.000,False,False
7.985,0.275,0.958,0.120,0.000,-0.707,0.000,-0.707,-0.023,0.275,0.958,0.256,-0.267,-0.655,0.267,-0.655,-45.656,0.572,1.262,0.136,-0.548,-0.447,0.548,-0.447,57.303,0.956,1.183,0.136,-0.564,-0.427,0.564,-0.427,-85.944,0.956,1.183,0.229,-0.797,-0.604,0.000,0.000,-89.954,1.047,1.157,0.229,-0.797,-0.604,0.000,0.000,0.000,1.025,1.078,0.229,-0.991,0.137,0.000,0.000,False,False
8.090,0.275,0.958,0.120,0.000,-0.707,0.000,-0.707,-0.023,0.275,0.958,0.256,-0.267,-0.655,0.267,-0.655,-45.656,0.572,1.262,0.136,-0.548,-0.447,0.548,-0.447,57.303,0.956,1.183,0.136,-0.564,-0.427,0.564,-0.427,-85.944,0.956,1.183,0.229,-0.797,-0.604,0.000,0.000,-89.954,1.047,1.157,0.229,-0.797,-0.604,0.000,0.000,0.000,1.025,1.078,0.229,-0.991,0.137,0.000,0.000,False,False
8.195,0.275,0.958,0.120,0.000,-0.707,0.000,-0.707,-0.023,0.275,0.958,0.256,-0.267,-0.655,0.267,-0.655,-45.656,0.572,1.262,0.136,-0.548,-0.447,0.548,-0.447,57.303,0.956,1.183,0.136,-0.564,-0.427,0.564,-0.427,-85.944,0.956,1.183,0.229,-0.797,-0.604,0.000,0.000,-89.954,1.047,1.157,0.229,-0.797,-0.604,0.000,0.000,0.000,1.025,1.078,0.229,-0.991,0.137,0.000,0.000,False,False
8.298,0.275,0.958,0.120,0.000,-0.707,0.000,-0.707,-0.023,0.275,0.958,0.256,-0.267,-0.655,0.267,-0.655,-45.656,0.572,1.262,0.136,-0.548,-0.447,0.548,-0.447,57.303,0.956,1.183,0.136,-0.564,-0.427,0.564,-0.427,-85.944,0.956,1.183,0.229,-0.797,-0.604,0.000,0.000,-89.954,1.047,1.157,0.229,-0.797,-0.604,0.000,0.000,0.000,1.025,1.078,0.229,-0.991,0.137,0.000,0.000,False,False
8.403,0.275,0.958,0.120,0.000,-0.707,0.000,-0.707,-0.023,0.275,0.958,0.256,-0.267,-0.655,0.267,-0.655,-45.656,0.572,1.262,0.136,-0.548,-0.447,0.548,-0.447,57.303,0.956,1.183,0.136,-0.564,-0.427,0.564,-0.427,-85.944,0.956,1.183,0.229,-0.797,-0.604,0.000,0.000,-89.954,1.047,1.157,0.229,-0.797,-0.604,0.000,0.000,0.000,1.025,1.078,0.229,-0.991,0.137,0.000,0.000,False,False
8.509,0.275,0.958,0.120,0.000,-0.707,0.000,-0.707,-0.023,0.275,0.958,0.256,-0.267,-0.655,0.267,-0.655,-45.656,0.572,1.262,0.136,-0.548,-0.447,0.548,-0.447,57.303,0.956,1.183,0.136,-0.564,-0.427,0.564,-0.427,-85.944,0.956,1.183,0.229,-0.797,-0.604,0.000,0.000,-89.954,1.047,1.157,0.229,-0.797,-0.604,0.000,0.000,0.000,1.025,1.078,0.229,-0.991,0.137,0.000,0.000,False,False
8.610,0.275,0.958,0.120,0.000,-0.707,0.000,-0.707,-0.023,0.275,0.958,0.256,-0.267,-0.655,0.267,-0.655,-45.656,0.572,1.262,0.136,-0.548,-0.447,0.548,-0.447,57.303,0.956,1.183,0.136,-0.564,-0.427,0.564,-0.427,-85.944,0.956,1.183,0.229,-0.797,-0.604,0.000,0.000,-89.954,1.047,1.157,0.229,-0.797,-0.604,0.000,0.000,0.000,1.025,1.078,0.229,-0.991,0.137,0.000,0.000,False,False
8.715,0.275,0.958,0.120,0.000,-0.707,0.000,-0.707,-0.023,0.275,0.958,0.256,-0.267,-0.655,0.267,-0.655,-45.656,0.572,1.262,0.136,-0.548,-0.447,0.548,-0.447,57.303,0.956,1.183,0.136,-0.564,-0.427,0.564,-0.427,-85.944,0.956,1.183,0.229,-0.797,-0.604,0.000,0.000,-89.954,1.047,1.157,0.229,-0.797,-0.604,0.000,0.000,0.000,1.025,1.078,0.229,-0.991,0.137,0.000,0.000,False,False
8.820,0.275,0.958,0.120,0.000,-0.707,0.000,-0.707,-0.023,0.275,0.958,0.256,-0.267,-0.655,0.267,-0.655,-45.656,0.572,1.262,0.136,-0.548,-0.447,0.548,-0.447,57.303,0.956,1.183,0.136,-0.564,-0.427,0.564,-0.427,-85.944,0.956,1.183,0.229,-0.797,-0.604,0.000,0.000,-89.954,1.047,1.157,0.229,-0.797,-0.604,0.000,0.000,0.000,1.025,1.078,0.229,-0.991,0.137,0.000,0.000,False,False
8.926,0.275,0.958,0.120,0.000,-0.707,0.000,-0.707,-0.023,0.275,0.958,0.256,-0.267,-0.655,0.267,-0.655,-45.656,0.572,1.262,0.136,-0.548,-0.447,0.548,-0.447,57.303,0.956,1.183,0.136,-0.564,-0.427,0.564,-0.427,-85.944,0.956,1.183,0.229,-0.797,-0.604,0.000,0.000,-89.954,1.047,1.157,0.229,-0.797,-0.604,0.000,0.000,0.000,1.025,1.078,0.229,-0.991,0.137,0.000,0.000,False,False
9.032,0.275,0.958,0.120,0.000,-0.707,0.000,-0.707,-0.023,0.275,0.958,0.256,-0.267,-0.655,0.267,-0.655,-45.656,0.572,1.262,0.136,-0.548,-0.447,0.548,-0.447,57.303,0.956,1.183,0.136,-0.564,-0.427,0.564,-0.427,-85.944,0.956,1.183,0.229,-0.797,-0.604,0.000,0.000,-89.954,1.047,1.157,0.229,-0.797,-0.604,0.000,0.000,0.000,1.025,1.078,0.229,-0.991,0.137,0.000,0.000,False,False
9.137,0.275,0.958,0.120,0.000,-0.707,0.000,-0.707,-0.023,0.275,0.958,0.256,-0.267,-0.655,0.267,-0.655,-45.656,0.572,1.262,0.136,-0.548,-0.447,0.548,-0.447,57.303,0.956,1.183,0.136,-0.564,-0.427,0.564,-0.427,-85.944,0.956,1.183,0.229,-0.797,-0.604,0.000,0.000,-89.954,1.047,1.157,0.229,-0.797,-0.604,0.000,0.000,0.000,1.025,1.078,0.229,-0.991,0.137,0.000,0.000,False,False
9.242,0.275,0.958,0.120,0.000,-0.707,0.000,-0.707,-0.023,0.275,0.958,0.256,-0.267,-0.655,0.267,-0.655,-45.656,0.572,1.262,0.136,-0.548,-0.447,0.548,-0.447,57.303,0.956,1.183,0.136,-0.564,-0.427,0.564,-0.427,-85.944,0.956,1.183,0.229,-0.797,-0.604,0.000,0.000,-89.954,1.047,1.157,0.229,-0.797,-0.604,0.000,0.000,0.000,1.025,1.078,0.229,-0.991,0.137,0.000,0.000,False,False
9.347,0.275,0.958,0.120,0.000,-0.707,0.000,-0.707,-0.023,0.275,0.958,0.256,-0.267,-0.655,0.267,-0.655,-45.656,0.572,1.262,0.136,-0.548,-0.447,0.548,-0.447,57.303,0.956,1.183,0.136,-0.564,-0.427,0.564,-0.427,-85.944,0.956,1.183,0.229,-0.797,-0.604,0.000,0.000,-89.954,1.047,1.157,0.229,-0.797,-0.604,0.000,0.000,0.000,1.025,1.078,0.229,-0.991,0.137,0.000,0.000,False,False
9.454,0.275,0.958,0.120,0.000,-0.707,0.000,-0.707,-0.023,0.275,0.958,0.256,-0.267,-0.655,0.267,-0.655,-45.656,0.572,1.262,0.136,-0.548,-0.447,0.548,-0.447,57.303,0.956,1.183,0.136,-0.564,-0.427,0.564,-0.427,-85.944,0.956,1.183,0.229,-0.797,-0.604,0.000,0.000,-89.954,1.047,1.157,0.229,-0.797,-0.604,0.000,0.000,0.000,1.025,1.078,0.229,-0.991,0.137,0.000,0.000,False,False
9.560,0.275,0.958,0.120,0.000,-0.707,0.000,-0.707,-0.023,0.275,0.958,0.256,-0.267,-0.655,0.267,-0.655,-45.656,0.572,1.262,0.136,-0.548,-0.447,0.548,-0.447,57.303,0.956,1.183,0.136,-0.564,-0.427,0.564,-0.427,-85.944,0.956,1.183,0.229,-0.797,-0.604,0.000,0.000,-89.954,1.047,1.157,0.229,-0.797,-0.604,0.000,0.000,0.000,1.025,1.078,0.229,-0.991,0.137,0.000,0.000,False,False
9.664,0.275,0.958,0.120,0.000,-0.707,0.000,-0.707,-0.023,0.275,0.958,0.256,-0.267,-0.655,0.267,-0.655,-45.656,0.572,1.262,0.136,-0.548,-0.447,0.548,-0.447,57.303,0.956,1.183,0.136,-0.564,-0.427,0.564,-0.427,-85.944,0.956,1.183,0.229,-0.797,-0.604,0.000,0.000,-89.954,1.047,1.157,0.229,-0.797,-0.604,0.000,0.000,0.000,1.025,1.078,0.229,-0.991,0.137,0.000,0.000,False,False
9.771,0.275,0.958,0.120,0.000,-0.707,0.000,-0.707,-0.023,0.275,0.958,0.256,-0.267,-0.655,0.267,-0.655,-45.656,0.572,1.262,0.136,-0.548,-0.447,0.548,-0.447,57.303,0.956,1.183,0.136,-0.564,-0.427,0.564,-0.427,-85.944,0.956,1.183,0.229,-0.797,-0.604,0.000,0.000,-89.954,1.047,1.157,0.229,-0.797,-0.604,0.000,0.000,0.000,1.025,1.078,0.229,-0.991,0.137,0.000,0.000,False,False
9.875,0.275,0.958,0.120,0.000,-0.707,0.000,-0.707,-0.023,0.275,0.958,0.256,-0.267,-0.655,0.267,-0.655,-45.656,0.572,1.262,0.136,-0.548,-0.447,0.548,-0.447,57.303,0.956,1.183,0.136,-0.564,-0.427,0.564,-0.427,-85.944,0.956,1.183,0.229,-0.797,-0.604,0.000,0.000,-89.954,1.047,1.157,0.229,-0.797,-0.604,0.000,0.000,0.000,1.025,1.078,0.229,-0.991,0.137,0.000,0.000,False,False
9.982,0.275,0.958,0.120,0.000,-0.707,0.000,-0.707,-0.023,0.275,0.958,0.256,-0.267,-0.655,0.267,-0.655,-45.656,0.572,1.262,0.136,-0.548,-0.447,0.548,-0.447,57.303,0.956,1.183,0.136,-0.564,-0.427,0.564,-0.427,-85.944,0.956,1.183,0.229,-0.797,-0.604,0.000,0.000,-89.954,1.047,1.157,0.229,-0.797,-0.604,0.000,0.000,0.000,1.025,1.078,0.229,-0.991,0.137,0.000,0.000,False,False
10.084,0.275,0.958,0.120,0.000,-0.707,0.000,-0.707,-0.023,0.275,0.958,0.256,-0.267,-0.655,0.267,-0.655,-45.656,0.572,1.262,0.136,-0.548,-0.447,0.548,-0.447,57.303,0.956,1.183,0.136,-0.564,-0.427,0.564,-0.427,-85.944,0.956,1.183,0.229,-0.797,-0.604,0.000,0.000,-89.954,1.047,1.157,0.229,-0.797,-0.604,0.000,0.000,0.000,1.025,1.078,0.229,-0.991,0.137,0.000,0.000,False,False
10.187,0.275,0.958,0.120,0.000,-0.707,0.000,-0.707,-0.023,0.275,0.958,0.256,-0.267,-0.655,0.267,-0.655,-45.656,0.572,1.262,0.136,-0.548,-0.447,0.548,-0.447,57.303,0.956,1.183,0.136,-0.564,-0.427,0.564,-0.427,-85.944,0.956,1.183,0.229,-0.797,-0.604,0.000,0.000,-89.954,1.047,1.157,0.229,-0.797,-0.604,0.000,0.000,0.000,1.025,1.078,0.229,-0.991,0.137,0.000,0.000,False,False
10.289,0.275,0.958,0.120,0.000,-0.707,0.000,-0.707,-0.023,0.275,0.958,0.256,-0.267,-0.655,0.267,-0.655,-45.656,0.572,1.262,0.136,-0.548,-0.447,0.548,-0.447,57.303,0.956,1.183,0.136,-0.564,-0.427,0.564,-0.427,-85.944,0.956,1.183,0.229,-0.797,-0.604,0.000,0.000,-89.954,1.047,1.157,0.229,-0.797,-0.604,0.000,0.000,0.000,1.025,1.078,0.229,-0.991,0.137,0.000,0.000,False,False
10.390,0.275,0.958,0.120,0.000,-0.707,0.000,-0.707,-0.023,0.275,0.958,0.256,-0.267,-0.655,0.267,-0.655,-45.656,0.572,1.262,0.136,-0.548,-0.447,0.548,-0.447,57.303,0.956,1.183,0.136,-0.564,-0.427,0.564,-0.427,-85.944,0.956,1.183,0.229,-0.797,-0.604,0.000,0.000,-89.954,1.047,1.157,0.229,-0.797,-0.604,0.000,0.000,0.000,1.025,1.078,0.229,-0.991,0.137,0.000,0.000,False,False
10.492,0.275,0.958,0.120,0.000,-0.707,0.000,-0.707,-0.023,0.275,0.958,0.256,-0.267,-0.655,0.267,-0.655,-45.656,0.572,1.262,0.136,-0.548,-0.447,0.548,-0.447,57.303,0.956,1.183,0.136,-0.564,-0.427,0.564,-0.427,-85.944,0.956,1.183,0.229,-0.797,-0.604,0.000,0.000,-89.954,1.047,1.157,0.229,-0.797,-0.604,0.000,0.000,0.000,1.025,1.078,0.229,-0.991,0.137,0.000,0.000,False,False
10.594,0.275,0.958,0.120,0.000,-0.707,0.000,-0.707,-0.023,0.275,0.958,0.256,-0.267,-0.655,0.267,-0.655,-45.656,0.572,1.262,0.136,-0.548,-0.447,0.548,-0.447,57.303,0.956,1.183,0.136,-0.564,-0.427,0.564,-0.427,-85.944,0.956,1.183,0.229,-0.797,-0.604,0.000,0.000,-89.954,1.047,1.157,0.229,-0.797,-0.604,0.000,0.000,0.000,1.025,1.078,0.229,-0.991,0.137,0.000,0.000,False,False
10.697,0.275,0.958,0.120,0.000,-0.707,0.000,-0.707,-0.023,0.275,0.958,0.256,-0.267,-0.655,0.267,-0.655,-45.656,0.572,1.262,0.136,-0.548,-0.447,0.548,-0.447,57.303,0.956,1.183,0.136,-0.564,-0.427,0.564,-0.427,-85.944,0.956,1.183,0.229,-0.797,-0.604,0.000,0.000,-89.954,1.047,1.157,0.229,-0.797,-0.604,0.000,0.000,0.000,1.025,1.078,0.229,-0.991,0.137,0.000,0.000,False,False
10.798,0.275,0.958,0.120,0.000,-0.707,0.000,-0.707,-0.023,0.275,0.958,0.256,-0.267,-0.655,0.267,-0.655,-45.656,0.572,1.262,0.136,-0.548,-0.447,0.548,-0.447,57.303,0.956,1.183,0.136,-0.564,-0.427,0.564,-0.427,-85.944,0.956,1.183,0.229,-0.797,-0.604,0.000,0.000,-89.954,1.047,1.157,0.229,-0.797,-0.604,0.000,0.000,0.000,1.025,1.078,0.229,-0.991,0.137,0.000,0.000,False,False
10.898,0.275,0.958,0.120,0.000,-0.707,0.000,-0.707,-0.023,0.275,0.958,0.256,-0.267,-0.655,0.267,-0.655,-45.656,0.572,1.262,0.136,-0.548,-0.447,0.548,-0.447,57.303,0.956,1.183,0.136,-0.564,-0.427,0.564,-0.427,-85.944,0.956,1.183,0.229,-0.797,-0.604,0.000,0.000,-89.954,1.047,1.157,0.229,-0.797,-0.604,0.000,0.000,0.000,1.025,1.078,0.229,-0.991,0.137,0.000,0.000,False,False
11.002,0.275,0.958,0.120,0.000,-0.707,0.000,-0.707,-0.023,0.275,0.958,0.256,-0.267,-0.655,0.267,-0.655,-45.656,0.572,1.262,0.136,-0.548,-0.447,0.548,-0.447,57.303,0.956,1.183,0.136,-0.564,-0.427,0.564,-0.427,-85.944,0.956,1.183,0.229,-0.797,-0.604,0.000,0.000,-89.954,1.047,1.157,0.229,-0.797,-0.604,0.000,0.000,0.000,1.025,1.078,0.229,-0.991,0.137,0.000,0.000,False,False
11.103,0.275,0.958,0.120,0.000,-0.707,0.000,-0.707,-0.023,0.275,0.958,0.256,-0.267,-0.655,0.267,-0.655,-45.656,0.572,1.262,0.136,-0.548,-0.447,0.548,-0.447,57.303,0.956,1.183,0.136,-0.564,-0.427,0.564,-0.427,-85.944,0.956,1.183,0.229,-0.797,-0.604,0.000,0.000,-89.954,1.047,1.157,0.229,-0.797,-0.604,0.000,0.000,0.000,1.025,1.078,0.229,-0.991,0.137,0.000,0.000,False,False
11.207,0.275,0.958,0.120,0.000,-0.707,0.000,-0.707,-0.023,0.275,0.958,0.256,-0.267,-0.655,0.267,-0.655,-45.656,0.572,1.262,0.136,-0.548,-0.447,0.548,-0.447,57.303,0.956,1.183,0.136,-0.564,-0.427,0.564,-0.427,-85.944,0.956,1.183,0.229,-0.797,-0.604,0.000,0.000,-89.954,1.047,1.157,0.229,-0.797,-0.604,0.000,0.000,0.000,1.025,1.078,0.229,-0.991,0.137,0.000,0.000,False,False
11.311,0.275,0.958,0.120,0.000,-0.707,0.000,-0.707,-0.023,0.275,0.958,0.256,-0.267,-0.655,0.267,-0.655,-45.656,0.572,1.262,0.136,-0.548,-0.447,0.548,-0.447,57.303,0.956,1.183,0.136,-0.564,-0.427,0.564,-0.427,-85.944,0.956,1.183,0.229,-0.797,-0.604,0.000,0.000,-89.954,1.047,1.157,0.229,-0.797,-0.604,0.000,0.000,0.000,1.025,1.078,0.229,-0.991,0.137,0.000,0.000,False,False
11.415,0.275,0.958,0.120,0.000,-0.707,0.000,-0.707,-0.023,0.275,0.958,0.256,-0.267,-0.655,0.267,-0.655,-45.656,0.572,1.262,0.136,-0.548,-0.447,0.548,-0.447,57.303,0.956,1.183,0.136,-0.564,-0.427,0.564,-0.427,-85.944,0.956,1.183,0.229,-0.797,-0.604,0.000,0.000,-89.954,1.047,1.157,0.229,-0.797,-0.604,0.000,0.000,0.000,1.025,1.078,0.229,-0.991,0.137,0.000,0.000,False,False
11.519,0.275,0.958,0.120,0.000,-0.707,0.000,-0.707,-0.023,0.275,0.958,0.256,-0.267,-0.655,0.267,-0.655,-45.656,0.572,1.262,0.136,-0.548,-0.447,0.548,-0.447,57.303,0.956,1.183,0.136,-0.564,-0.427,0.564,-0.427,-85.944,0.956,1.183,0.229,-0.797,-0.604,0.000,0.000,-89.954,1.047,1.157,0.229,-0.797,-0.604,0.000,0.000,0.000,1.025,1.078,0.229,-0.991,0.137,0.000,0.000,False,False
11.620,0.275,0.958,0.120,0.000,-0.707,0.000,-0.707,-0.023,0.275,0.958,0.256,-0.267,-0.655,0.267,-0.655,-45.656,0.572,1.262,0.136,-0.548,-0.447,0.548,-0.447,57.303,0.956,1.183,0.136,-0.564,-0.427,0.564,-0.427,-85.944,0.956,1.183,0.229,-0.797,-0.604,0.000,0.000,-89.954,1.047,1.157,0.229,-0.797,-0.604,0.000,0.000,0.000,1.025,1.078,0.229,-0.991,0.137,0.000,0.000,False,False
11.726,0.275,0.958,0.120,0.000,-0.707,0.000,-0.707,-0.023,0.275,0.958,0.256,-0.267,-0.655,0.267,-0.655,-45.656,0.572,1.262,0.136,-0.548,-0.447,0.548,-0.447,57.303,0.956,1.183,0.136,-0.564,-0.427,0.564,-0.427,-85.944,0.956,1.183,0.229,-0.797,-0.604,0.000,0.000,-89.954,1.047,1.157,0.229,-0.797,-0.604,0.000,0.000,0.000,1.025,1.078,0.229,-0.991,0.137,0.000,0.000,False,False
11.830,0.275,0.958,0.120,0.000,-0.707,0.000,-0.707,-0.023,0.275,0.958,0.256,-0.267,-0.655,0.267,-0.655,-45.656,0.572,1.262,0.136,-0.548,-0.447,0.548,-0.447,57.303,0.956,1.183,0.136,-0.564,-0.427,0.564,-0.427,-85.944,0.956,1.183,0.229,-0.797,-0.604,0.000,0.000,-89.954,1.047,1.157,0.229,-0.797,-0.604,0.000,0.000,0.000,1.025,1.078,0.229,-0.991,0.137,0.000,0.000,False,False
11.930,0.275,0.958,0.120,0.000,-0.707,0.000,-0.707,-0.023,0.275,0.958,0.256,-0.267,-0.655,0.267,-0.655,-45.656,0.572,1.262,0.136,-0.548,-0.447,0.548,-0.447,57.303,0.956,1.183,0.136,-0.564,-0.427,0.564,-0.427,-85.944,0.956,1.183,0.229,-0.797,-0.604,0.000,0.000,-89.954,1.047,1.157,0.229,-0.797,-0.604,0.000,0.000,0.000,1.025,1.078,0.229,-0.991,0.137,0.000,0.000,False,False
12.031,0.275,0.958,0.120,0.000,-0.707,0.000,-0.707,-0.023,0.275,0.958,0.256,-0.267,-0.655,0.267,-0.655,-45.656,0.572,1.262,0.136,-0.548,-0.447,0.548,-0.447,57.303,0.956,1.183,0.136,-0.564,-0.427,0.564,-0.427,-85.944,0.956,1.183,0.229,-0.797,-0.604,0.000,0.000,-89.954,1.047,1.157,0.229,-0.797,-0.604,0.000,0.000,0.000,1.025,1.078,0.229,-0.991,0.137,0.000,0.000,False,False
12.132,0.275,0.958,0.120,0.000,-0.707,0.000,-0.707,-0.023,0.275,0.958,0.256,-0.267,-0.655,0.267,-0.655,-45.656,0.572,1.262,0.136,-0.548,-0.447,0.548,-0.447,57.303,0.956,1.183,0.136,-0.564,-0.427,0.564,-0.427,-85.944,0.956,1.183,0.229,-0.797,-0.604,0.000,0.000,-89.954,1.047,1.157,0.229,-0.797,-0.604,0.000,0.000,0.000,1.025,1.078,0.229,-0.991,0.137,0.000,0.000,False,False
12.233,0.275,0.958,0.120,0.000,-0.707,0.000,-0.707,-0.023,0.275,0.958,0.256,-0.267,-0.655,0.267,-0.655,-45.656,0.572,1.262,0.136,-0.548,-0.447,0.548,-0.447,57.303,0.956,1.183,0.136,-0.564,-0.427,0.564,-0.427,-85.944,0.956,1.183,0.229,-0.797,-0.604,0.000,0.000,-89.954,1.047,1.157,0.229,-0.797,-0.604,0.000,0.000,0.000,1.025,1.078,0.229,-0.991,0.137,0.000,0.000,False,False
12.338,0.275,0.958,0.120,0.000,-0.707,0.000,-0.707,-0.023,0.275,0.958,0.256,-0.267,-0.655,0.267,-0.655,-45.656,0.572,1.262,0.136,-0.548,-0.447,0.548,-0.447,57.303,0.956,1.183,0.136,-0.564,-0.427,0.564,-0.427,-85.944,0.956,1.183,0.229,-0.797,-0.604,0.000,0.000,-89.954,1.047,1.157,0.229,-0.797,-0.604,0.000,0.000,0.000,1.025,1.078,0.229,-0.991,0.137,0.000,0.000,False,False
12.439,0.275,0.958,0.120,0.000,-0.707,0.000,-0.707,-0.023,0.275,0.958,0.256,-0.267,-0.655,0.267,-0.655,-45.656,0.572,1.262,0.136,-0.548,-0.447,0.548,-0.447,57.303,0.956,1.183,0.136,-0.564,-0.427,0.564,-0.427,-85.944,0.956,1.183,0.229,-0.797,-0.604,0.000,0.000,-89.954,1.047,1.157,0.229,-0.797,-0.604,0.000,0.000,0.000,1.025,1.078,0.229,-0.991,0.137,0.000,0.000,False,False
12.539,0.275,0.958,0.120,0.000,-0.707,0.000,-0.707,-0.023,0.275,0.958,0.256,-0.267,-0.655,0.267,-0.655,-45.656,0.572,1.262,0.136,-0.548,-0.447,0.548,-0.447,57.303,0.956,1.183,0.136,-0.564,-0.427,0.564,-0.427,-85.944,0.956,1.183,0.229,-0.797,-0.604,0.000,0.000,-89.954,1.047,1.157,0.229,-0.797,-0.604,0.000,0.000,0.000,1.025,1.078,0.229,-0.991,0.137,0.000,0.000,False,False
12.643,0.275,0.958,0.120,0.000,-0.707,0.000,-0.707,-0.023,0.275,0.958,0.256,-0.267,-0.655,0.267,-0.655,-45.656,0.572,1.262,0.136,-0.548,-0.447,0.548,-0.447,57.303,0.956,1.183,0.136,-0.564,-0.427,0.564,-0.427,-85.944,0.956,1.183,0.229,-0.797,-0.604,0.000,0.000,-89.954,1.047,1.157,0.229,-0.797,-0.604,0.000,0.000,0.000,1.025,1.078,0.229,-0.991,0.137,0.000,0.000,False,False
12.746,0.275,0.958,0.120,0.000,-0.707,0.000,-0.707,-0.023,0.275,0.958,0.256,-0.267,-0.655,0.267,-0.655,-45.656,0.572,1.262,0.136,-0.548,-0.447,0.548,-0.447,57.303,0.956,1.183,0.136,-0.564,-0.427,0.564,-0.427,-85.944,0.956,1.183,0.229,-0.797,-0.604,0.000,0.000,-89.954,1.047,1.157,0.229,-0.797,-0.604,0.000,0.000,0.000,1.025,1.078,0.229,-0.991,0.137,0.000,0.000,False,False
12.849,0.275,0.958,0.120,0.000,-0.707,0.000,-0.707,-0.023,0.275,0.958,0.256,-0.267,-0.655,0.267,-0.655,-45.656,0.572,1.262,0.136,-0.548,-0.447,0.548,-0.447,57.303,0.956,1.183,0.136,-0.564,-0.427,0.564,-0.427,-85.944,0.956,1.183,0.229,-0.797,-0.604,0.000,0.000,-89.954,1.047,1.157,0.229,-0.797,-0.604,0.000,0.000,0.000,1.025,1.078,0.229,-0.991,0.137,0.000,0.000,False,False
12.950,0.275,0.958,0.120,0.000,-0.707,0.000,-0.707,-0.023,0.275,0.958,0.256,-0.267,-0.655,0.267,-0.655,-45.656,0.572,1.262,0.136,-0.548,-0.447,0.548,-0.447,57.303,0.956,1.183,0.136,-0.564,-0.427,0.564,-0.427,-85.944,0.956,1.183,0.229,-0.797,-0.604,0.000,0.000,-89.954,1.047,1.157,0.229,-0.797,-0.604,0.000,0.000,0.000,1.025,1.078,0.229,-0.991,0.137,0.000,0.000,False,False
13.053,0.275,0.958,0.120,0.000,-0.707,0.000,-0.707,-0.023,0.275,0.958,0.256,-0.267,-0.655,0.267,-0.655,-45.656,0.572,1.262,0.136,-0.548,-0.447,0.548,-0.447,57.303,0.956,1.183,0.136,-0.564,-0.427,0.564,-0.427,-85.944,0.956,1.183,0.229,-0.797,-0.604,0.000,0.000,-89.954,1.047,1.157,0.229,-0.797,-0.604,0.000,0.000,0.000,1.025,1.078,0.229,-0.991,0.137,0.000,0.000,False,False
13.155,0.275,0.958,0.120,0.000,-0.707,0.000,-0.707,-0.023,0.275,0.958,0.256,-0.267,-0.655,0.267,-0.655,-45.656,0.572,1.262,0.136,-0.548,-0.447,0.548,-0.447,57.303,0.956,1.183,0.136,-0.564,-0.427,0.564,-0.427,-85.944,0.956,1.183,0.229,-0.797,-0.604,0.000,0.000,-89.954,1.047,1.157,0.229,-0.797,-0.604,0.000,0.000,0.000,1.025,1.078,0.229,-0.991,0.137,0.000,0.000,False,False
13.255,0.275,0.958,0.120,0.000,-0.707,0.000,-0.707,-0.023,0.275,0.958,0.256,-0.267,-0.655,0.267,-0.655,-45.656,0.572,1.262,0.136,-0.548,-0.447,0.548,-0.447,57.303,0.956,1.183,0.136,-0.564,-0.427,0.564,-0.427,-85.944,0.956,1.183,0.229,-0.797,-0.604,0.000,0.000,-89.954,1.047,1.157,0.229,-0.797,-0.604,0.000,0.000,0.000,1.025,1.078,0.229,-0.991,0.137,0.000,0.000,False,False
13.359,0.275,0.958,0.120,0.000,-0.707,0.000,-0.707,-0.023,0.275,0.958,0.256,-0.267,-0.655,0.267,-0.655,-45.656,0.572,1.262,0.136,-0.548,-0.447,0.548,-0.447,57.303,0.956,1.183,0.136,-0.564,-0.427,0.564,-0.427,-85.944,0.956,1.183,0.229,-0.797,-0.604,0.000,0.000,-89.954,1.047,1.157,0.229,-0.797,-0.604,0.000,0.000,0.000,1.025,1.078,0.229,-0.991,0.137,0.000,0.000,False,False
13.461,0.275,0.958,0.120,0.000,-0.707,0.000,-0.707,-0.023,0.275,0.958,0.256,-0.267,-0.655,0.267,-0.655,-45.656,0.572,1.262,0.136,-0.548,-0.447,0.548,-0.447,57.303,0.956,1.183,0.136,-0.564,-0.427,0.564,-0.427,-85.944,0.956,1.183,0.229,-0.797,-0.604,0.000,0.000,-89.954,1.047,1.157,0.229,-0.797,-0.604,0.000,0.000,0.000,1.025,1.078,0.229,-0.991,0.137,0.000,0.000,False,False
13.563,0.275,0.958,0.120,0.000,-0.707,0.000,-0.707,-0.023,0.275,0.958,0.256,-0.267,-0.655,0.267,-0.655,-45.656,0.572,1.262,0.136,-0.548,-0.447,0.548,-0.447,57.303,0.956,1.183,0.136,-0.564,-0.427,0.564,-0.427,-85.944,0.956,1.183,0.229,-0.797,-0.604,0.000,0.000,-89.954,1.047,1.157,0.229,-0.797,-0.604,0.000,0.000,0.000,1.025,1.078,0.229,-0.991,0.137,0.000,0.000,False,False
13.663,0.275,0.958,0.120,0.000,-0.707,0.000,-0.707,-0.023,0.275,0.958,0.256,-0.267,-0.655,0.267,-0.655,-45.656,0.572,1.262,0.136,-0.548,-0.447,0.548,-0.447,57.303,0.956,1.183,0.136,-0.564,-0.427,0.564,-0.427,-85.944,0.956,1.183,0.229,-0.797,-0.604,0.000,0.000,-89.954,1.047,1.157,0.229,-0.797,-0.604,0.000,0.000,0.000,1.025,1.078,0.229,-0.991,0.137,0.000,0.000,False,False
13.767,0.275,0.958,0.120,0.000,-0.707,0.000,-0.707,-0.023,0.275,0.958,0.256,-0.267,-0.655,0.267,-0.655,-45.656,0.572,1.262,0.136,-0.548,-0.447,0.548,-0.447,57.303,0.956,1.183,0.136,-0.564,-0.427,0.564,-0.427,-85.944,0.956,1.183,0.229,-0.797,-0.604,0.000,0.000,-89.954,1.047,1.157,0.229,-0.797,-0.604,0.000,0.000,0.000,1.025,1.078,0.229,-0.991,0.137,0.000,0.000,False,False
13.869,0.275,0.958,0.120,0.000,-0.707,0.000,-0.707,-0.023,0.275,0.958,0.256,-0.267,-0.655,0.267,-0.655,-45.656,0.572,1.262,0.136,-0.548,-0.447,0.548,-0.447,57.303,0.956,1.183,0.136,-0.564,-0.427,0.564,-0.427,-85.944,0.956,1.183,0.229,-0.797,-0.604,0.000,0.000,-89.954,1.047,1.157,0.229,-0.797,-0.604,0.000,0.000,0.000,1.025,1.078,0.229,-0.991,0.137,0.000,0.000,False,False
13.970,0.275,0.958,0.120,0.000,-0.707,0.000,-0.707,-0.023,0.275,0.958,0.256,-0.267,-0.655,0.267,-0.655,-45.656,0.572,1.262,0.136,-0.548,-0.447,0.548,-0.447,57.303,0.956,1.183,0.136,-0.564,-0.427,0.564,-0.427,-85.944,0.956,1.183,0.229,-0.797,-0.604,0.000,0.000,-89.954,1.047,1.157,0.229,-0.797,-0.604,0.000,0.000,0.000,1.025,1.078,0.229,-0.991,0.137,0.000,0.000,False,False
14.070,0.275,0.958,0.120,0.000,-0.707,0.000,-0.707,-0.023,0.275,0.958,0.256,-0.267,-0.655,0.267,-0.655,-45.656,0.572,1.262,0.136,-0.548,-0.447,0.548,-0.447,57.303,0.956,1.183,0.136,-0.564,-0.427,0.564,-0.427,-85.944,0.956,1.183,0.229,-0.797,-0.604,0.000,0.000,-89.954,1.047,1.157,0.229,-0.797,-0.604,0.000,0.000,0.000,1.025,1.078,0.229,-0.991,0.137,0.000,0.000,False,False
14.170,0.275,0.958,0.120,0.000,-0.707,0.000,-0.707,-0.023,0.275,0.958,0.256,-0.267,-0.655,0.267,-0.655,-45.656,0.572,1.262,0.136,-0.548,-0.447,0.548,-0.447,57.303,0.956,1.183,0.136,-0.564,-0.427,0.564,-0.427,-85.944,0.956,1.183,0.229,-0.797,-0.604,0.000,0.000,-89.954,1.047,1.157,0.229,-0.797,-0.604,0.000,0.000,0.000,1.025,1.078,0.229,-0.991,0.137,0.000,0.000,False,False
14.271,0.275,0.958,0.120,0.000,-0.707,0.000,-0.707,-0.023,0.275,0.958,0.256,-0.267,-0.655,0.267,-0.655,-45.656,0.572,1.262,0.136,-0.548,-0.447,0.548,-0.447,57.303,0.956,1.183,0.136,-0.564,-0.427,0.564,-0.427,-85.944,0.956,1.183,0.229,-0.797,-0.604,0.000,0.000,-89.954,1.047,1.157,0.229,-0.797,-0.604,0.000,0.000,0.000,1.025,1.078,0.229,-0.991,0.137,0.000,0.000,False,False
14.373,0.275,0.958,0.120,0.000,-0.707,0.000,-0.707,-0.023,0.275,0.958,0.256,-0.267,-0.655,0.267,-0.655,-45.656,0.572,1.262,0.136,-0.548,-0.447,0.548,-0.447,57.303,0.956,1.183,0.136,-0.564,-0.427,0.564,-0.427,-85.944,0.956,1.183,0.229,-0.797,-0.604,0.000,0.000,-89.954,1.047,1.157,0.229,-0.797,-0.604,0.000,0.000,0.000,1.025,1.078,0.229,-0.991,0.137,0.000,0.000,False,False
14.474,0.275,0.958,0.120,0.000,-0.707,0.000,-0.707,-0.023,0.275,0.958,0.256,-0.267,-0.655,0.267,-0.655,-45.656,0.572,1.262,0.136,-0.548,-0.447,0.548,-0.447,57.303,0.956,1.183,0.136,-0.564,-0.427,0.564,-0.427,-85.944,0.956,1.183,0.229,-0.797,-0.604,0.000,0.000,-89.954,1.047,1.157,0.229,-0.797,-0.604,0.000,0.000,0.000,1.025,1.078,0.229,-0.991,0.137,0.000,0.000,False,False
14.577,0.275,0.958,0.120,0.000,-0.707,0.000,-0.707,-0.023,0.275,0.958,0.256,-0.267,-0.655,0.267,-0.655,-45.656,0.572,1.262,0.136,-0.548,-0.447,0.548,-0.447,57.303,0.956,1.183,0.136,-0.564,-0.427,0.564,-0.427,-85.944,0.956,1.183,0.229,-0.797,-0.604,0.000,0.000,-89.954,1.047,1.157,0.229,-0.797,-0.604,0.000,0.000,0.000,1.025,1.078,0.229,-0.991,0.137,0.000,0.000,False,False
14.681,0.275,0.958,0.120,0.000,-0.707,0.000,-0.707,-0.023,0.275,0.958,0.256,-0.267,-0.655,0.267,-0.655,-45.656,0.572,1.262,0.136,-0.548,-0.447,0.548,-0.447,57.303,0.956,1.183,0.136,-0.564,-0.427,0.564,-0.427,-85.944,0.956,1.183,0.229,-0.797,-0.604,0.000,0.000,-89.954,1.047,1.157,0.229,-0.797,-0.604,0.000,0.000,0.000,1.025,1.078,0.229,-0.991,0.137,0.000,0.000,False,False
14.784,0.275,0.958,0.120,0.000,-0.707,0.000,-0.707,-0.023,0.275,0.958,0.256,-0.267,-0.655,0.267,-0.655,-45.656,0.572,1.262,0.136,-0.548,-0.447,0.548,-0.447,57.303,0.956,1.183,0.136,-0.564,-0.427,0.564,-0.427,-85.944,0.956,1.183,0.229,-0.797,-0.604,0.000,0.000,-89.954,1.047,1.157,0.229,-0.797,-0.604,0.000,0.000,0.000,1.025,1.078,0.229,-0.991,0.137,0.000,0.000,False,False
14.885,0.275,0.958,0.120,0.000,-0.707,0.000,-0.707,-0.023,0.275,0.958,0.256,-0.267,-0.655,0.267,-0.655,-45.656,0.572,1.262,0.136,-0.548,-0.447,0.548,-0.447,57.303,0.956,1.183,0.136,-0.564,-0.427,0.564,-0.427,-85.944,0.956,1.183,0.229,-0.797,-0.604,0.000,0.000,-89.954,1.047,1.157,0.229,-0.797,-0.604,0.000,0.000,0.000,1.025,1.078,0.229,-0.991,0.137,0.000,0.000,False,False
14.985,0.275,0.958,0.120,0.000,-0.707,0.000,-0.707,-0.023,0.275,0.958,0.256,-0.267,-0.655,0.267,-0.655,-45.656,0.572,1.262,0.136,-0.548,-0.447,0.548,-0.447,57.303,0.956,1.183,0.136,-0.564,-0.427,0.564,-0.427,-85.944,0.956,1.183,0.229,-0.797,-0.604,0.000,0.000,-89.954,1.047,1.157,0.229,-0.797,-0.604,0.000,0.000,0.000,1.025,1.078,0.229,-0.991,0.137,0.000,0.000,False,False
15.085,0.275,0.958,0.120,0.000,-0.707,0.000,-0.707,-0.023,0.275,0.958,0.256,-0.267,-0.655,0.267,-0.655,-45.656,0.572,1.262,0.136,-0.548,-0.447,0.548,-0.447,57.303,0.956,1.183,0.136,-0.564,-0.427,0.564,-0.427,-85.944,0.956,1.183,0.229,-0.797,-0.604,0.000,0.000,-89.954,1.047,1.157,0.229,-0.797,-0.604,0.000,0.000,0.000,1.025,1.078,0.229,-0.991,0.137,0.000,0.000,False,False
15.187,0.275,0.958,0.120,0.000,-0.707,0.000,-0.707,-0.023,0.275,0.958,0.256,-0.267,-0.655,0.267,-0.655,-45.656,0.572,1.262,0.136,-0.548,-0.447,0.548,-0.447,57.303,0.956,1.183,0.136,-0.564,-0.427,0.564,-0.427,-85.944,0.956,1.183,0.229,-0.797,-0.604,0.000,0.000,-89.954,1.047,1.157,0.229,-0.797,-0.604,0.000,0.000,0.000,1.025,1.078,0.229,-0.991,0.137,0.000,0.000,False,False
15.287,0.275,0.958,0.120,0.000,-0.707,0.000,-0.707,-0.023,0.275,0.958,0.256,-0.267,-0.655,0.267,-0.655,-45.656,0.572,1.262,0.136,-0.548,-0.447,0.548,-0.447,57.303,0.956,1.183,0.136,-0.564,-0.427,0.564,-0.427,-85.944,0.956,1.183,0.229,-0.797,-0.604,0.000,0.000,-89.954,1.047,1.157,0.229,-0.797,-0.604,0.000,0.000,0.000,1.025,1.078,0.229,-0.991,0.137,0.000,0.000,False,False
15.392,0.275,0.958,0.120,0.000,-0.707,0.000,-0.707,-0.023,0.275,0.958,0.256,-0.267,-0.655,0.267,-0.655,-45.656,0.572,1.262,0.136,-0.548,-0.447,0.548,-0.447,57.303,0.956,1.183,0.136,-0.564,-0.427,0.564,-0.427,-85.944,0.956,1.183,0.229,-0.797,-0.604,0.000,0.000,-89.954,1.047,1.157,0.229,-0.797,-0.604,0.000,0.000,0.000,1.025,1.078,0.229,-0.991,0.137,0.000,0.000,False,False
15.492,0.275,0.958,0.120,0.000,-0.707,0.000,-0.707,-0.023,0.275,0.958,0.256,-0.267,-0.655,0.267,-0.655,-45.656,0.572,1.262,0.136,-0.548,-0.447,0.548,-0.447,57.303,0.956,1.183,0.136,-0.564,-0.427,0.564,-0.427,-85.944,0.956,1.183,0.229,-0.797,-0.604,0.000,0.000,-89.954,1.047,1.157,0.229,-0.797,-0.604,0.000,0.000,0.000,1.025,1.078,0.229,-0.991,0.137,0.000,0.000,False,False
15.592,0.275,0.958,0.120,0.000,-0.707,0.000,-0.707,-0.023,0.275,0.958,0.256,-0.267,-0.655,0.267,-0.655,-45.656,0.572,1.262,0.136,-0.548,-0.447,0.548,-0.447,57.303,0.956,1.183,0.136,-0.564,-0.427,0.564,-0.427,-85.944,0.956,1.183,0.229,-0.797,-0.604,0.000,0.000,-89.954,1.047,1.157,0.229,-0.797,-0.604,0.000,0.000,0.000,1.025,1.078,0.229,-0.991,0.137,0.000,0.000,False,False
15.697,0.275,0.958,0.120,0.000,-0.707,0.000,-0.707,-0.023,0.275,0.958,0.256,-0.267,-0.655,0.267,-0.655,-45.656,0.572,1.262,0.136,-0.548,-0.447,0.548,-0.447,57.303,0.956,1.183,0.136,-0.564,-0.427,0.564,-0.427,-85.944,0.956,1.183,0.229,-0.797,-0.604,0.000,0.000,-89.954,1.047,1.157,0.229,-0.797,-0.604,0.000,0.000,0.000,1.025,1.078,0.229,-0.991,0.137,0.000,0.000,False,False
15.799,0.275,0.958,0.120,0.000,-0.707,0.000,-0.707,-0.023,0.275,0.958,0.256,-0.267,-0.655,0.267,-0.655,-45.656,0.572,1.262,0.136,-0.548,-0.447,0.548,-0.447,57.303,0.956,1.183,0.136,-0.564,-0.427,0.564,-0.427,-85.944,0.956,1.183,0.229,-0.797,-0.604,0.000,0.000,-89.954,1.047,1.157,0.229,-0.797,-0.604,0.000,0.000,0.000,1.025,1.078,0.229,-0.991,0.137,0.000,0.000,False,False
15.900,0.275,0.958,0.120,0.000,-0.707,0.000,-0.707,-0.023,0.275,0.958,0.256,-0.267,-0.655,0.267,-0.655,-45.656,0.572,1.262,0.136,-0.548,-0.447,0.548,-0.447,57.303,0.956,1.183,0.136,-0.564,-0.427,0.564,-0.427,-85.944,0.956,1.183,0.229,-0.797,-0.604,0.000,0.000,-89.954,1.047,1.157,0.229,-0.797,-0.604,0.000,0.000,0.000,1.025,1.078,0.229,-0.991,0.137,0.000,0.000,False,False
16.001,0.275,0.958,0.120,0.000,-0.707,0.000,-0.707,-0.023,0.275,0.958,0.256,-0.267,-0.655,0.267,-0.655,-45.656,0.572,1.262,0.136,-0.548,-0.447,0.548,-0.447,57.303,0.956,1.183,0.136,-0.564,-0.427,0.564,-0.427,-85.944,0.956,1.183,0.229,-0.797,-0.604,0.000,0.000,-89.954,1.047,1.157,0.229,-0.797,-0.604,0.000,0.000,0.000,1.025,1.078,0.229,-0.991,0.137,0.000,0.000,False,False
16.106,0.275,0.958,0.120,0.000,-0.707,0.000,-0.707,-0.023,0.275,0.958,0.256,-0.267,-0.655,0.267,-0.655,-45.656,0.572,1.262,0.136,-0.548,-0.447,0.548,-0.447,57.303,0.956,1.183,0.136,-0.564,-0.427,0.564,-0.427,-85.944,0.956,1.183,0.229,-0.797,-0.604,0.000,0.000,-89.954,1.047,1.157,0.229,-0.797,-0.604,0.000,0.000,0.000,1.025,1.078,0.229,-0.991,0.137,0.000,0.000,False,False
16.208,0.275,0.958,0.120,0.000,-0.707,0.000,-0.707,-0.023,0.275,0.958,0.256,-0.267,-0.655,0.267,-0.655,-45.656,0.572,1.262,0.136,-0.548,-0.447,0.548,-0.447,57.303,0.956,1.183,0.136,-0.564,-0.427,0.564,-0.427,-85.944,0.956,1.183,0.229,-0.797,-0.604,0.000,0.000,-89.954,1.047,1.157,0.229,-0.797,-0.604,0.000,0.000,0.000,1.025,1.078,0.229,-0.991,0.137,0.000,0.000,False,False
16.309,0.275,0.958,0.120,0.000,-0.707,0.000,-0.707,-0.023,0.275,0.958,0.256,-0.267,-0.655,0.267,-0.655,-45.656,0.572,1.262,0.136,-0.548,-0.447,0.548,-0.447,57.303,0.956,1.183,0.136,-0.564,-0.427,0.564,-0.427,-85.944,0.956,1.183,0.229,-0.797,-0.604,0.000,0.000,-89.954,1.047,1.157,0.229,-0.797,-0.604,0.000,0.000,0.000,1.025,1.078,0.229,-0.991,0.137,0.000,0.000,False,False
16.410,0.275,0.958,0.120,0.000,-0.707,0.000,-0.707,-0.023,0.275,0.958,0.256,-0.267,-0.655,0.267,-0.655,-45.656,0.572,1.262,0.136,-0.548,-0.447,0.548,-0.447,57.303,0.956,1.183,0.136,-0.564,-0.427,0.564,-0.427,-85.944,0.956,1.183,0.229,-0.797,-0.604,0.000,0.000,-89.954,1.047,1.157,0.229,-0.797,-0.604,0.000,0.000,0.000,1.025,1.078,0.229,-0.991,0.137,0.000,0.000,False,False
16.510,0.275,0.958,0.120,0.000,-0.707,0.000,-0.707,-0.023,0.275,0.958,0.256,-0.267,-0.655,0.267,-0.655,-45.656,0.572,1.262,0.136,-0.548,-0.447,0.548,-0.447,57.303,0.956,1.183,0.136,-0.564,-0.427,0.564,-0.427,-85.944,0.956,1.183,0.229,-0.797,-0.604,0.000,0.000,-89.954,1.047,1.157,0.229,-0.797,-0.604,0.000,0.000,0.000,1.025,1.078,0.229,-0.991,0.137,0.000,0.000,False,False
16.612,0.275,0.958,0.120,0.000,-0.707,0.000,-0.707,-0.023,0.275,0.958,0.256,-0.267,-0.655,0.267,-0.655,-45.656,0.572,1.262,0.136,-0.548,-0.447,0.548,-0.447,57.303,0.956,1.183,0.136,-0.564,-0.427,0.564,-0.427,-85.944,0.956,1.183,0.229,-0.797,-0.604,0.000,0.000,-89.954,1.047,1.157,0.229,-0.797,-0.604,0.000,0.000,0.000,1.025,1.078,0.229,-0.991,0.137,0.000,0.000,False,False
16.715,0.275,0.958,0.120,0.000,-0.707,0.000,-0.707,-0.023,0.275,0.958,0.256,-0.267,-0.655,0.267,-0.655,-45.656,0.572,1.262,0.136,-0.548,-0.447,0.548,-0.447,57.303,0.956,1.183,0.136,-0.564,-0.427,0.564,-0.427,-85.944,0.956,1.183,0.229,-0.797,-0.604,0.000,0.000,-89.954,1.047,1.157,0.229,-0.797,-0.604,0.000,0.000,0.000,1.025,1.078,0.229,-0.991,0.137,0.000,0.000,False,False
16.816,0.275,0.958,0.120,0.000,-0.707,0.000,-0.707,-0.023,0.275,0.958,0.256,-0.267,-0.655,0.267,-0.655,-45.656,0.572,1.262,0.136,-0.548,-0.447,0.548,-0.447,57.303,0.956,1.183,0.136,-0.564,-0.427,0.564,-0.427,-85.944,0.956,1.183,0.229,-0.797,-0.604,0.000,0.000,-89.954,1.047,1.157,0.229,-0.797,-0.604,0.000,0.000,0.000,1.025,1.078,0.229,-0.991,0.137,0.000,0.000,False,False
16.920,0.275,0.958,0.120,0.000,-0.707,0.000,-0.707,-0.023,0.275,0.958,0.256,-0.267,-0.655,0.267,-0.655,-45.656,0.572,1.262,0.136,-0.548,-0.447,0.548,-0.447,57.303,0.956,1.183,0.136,-0.564,-0.427,0.564,-0.427,-85.944,0.956,1.183,0.229,-0.797,-0.604,0.000,0.000,-89.954,1.047,1.157,0.229,-0.797,-0.604,0.000,0.000,0.000,1.025,1.078,0.229,-0.991,0.137,0.000,0.000,False,False
17.020,0.275,0.958,0.120,0.000,-0.707,0.000,-0.707,-0.023,0.275,0.958,0.256,-0.267,-0.655,0.267,-0.655,-45.656,0.572,1.262,0.136,-0.548,-0.447,0.548,-0.447,57.303,0.956,1.183,0.136,-0.564,-0.427,0.564,-0.427,-85.944,0.956,1.183,0.229,-0.797,-0.604,0.000,0.000,-89.954,1.047,1.157,0.229,-0.797,-0.604,0.000,0.000,0.000,1.025,1.078,0.229,-0.991,0.137,0.000,0.000,False,False
17.123,0.275,0.958,0.120,0.000,-0.707,0.000,-0.707,-0.023,0.275,0.958,0.256,-0.267,-0.655,0.267,-0.655,-45.656,0.572,1.262,0.136,-0.548,-0.447,0.548,-0.447,57.303,0.956,1.183,0.136,-0.564,-0.427,0.564,-0.427,-85.944,0.956,1.183,0.229,-0.797,-0.604,0.000,0.000,-89.954,1.047,1.157,0.229,-0.797,-0.604,0.000,0.000,0.000,1.025,1.078,0.229,-0.991,0.137,0.000,0.000,False,False
17.223,0.275,0.958,0.120,0.000,-0.707,0.000,-0.707,-0.023,0.275,0.958,0.256,-0.267,-0.655,0.267,-0.655,-45.656,0.572,1.262,0.136,-0.548,-0.447,0.548,-0.447,57.303,0.956,1.183,0.136,-0.564,-0.427,0.564,-0.427,-85.944,0.956,1.183,0.229,-0.797,-0.604,0.000,0.000,-89.954,1.047,1.157,0.229,-0.797,-0.604,0.000,0.000,0.000,1.025,1.078,0.229,-0.991,0.137,0.000,0.000,False,False
17.327,0.275,0.958,0.120,0.000,-0.707,0.000,-0.707,-0.023,0.275,0.958,0.256,-0.267,-0.655,0.267,-0.655,-45.656,0.572,1.262,0.136,-0.548,-0.447,0.548,-0.447,57.303,0.956,1.183,0.136,-0.564,-0.427,0.564,-0.427,-85.944,0.956,1.183,0.229,-0.797,-0.604,0.000,0.000,-89.954,1.047,1.157,0.229,-0.797,-0.604,0.000,0.000,0.000,1.025,1.078,0.229,-0.991,0.137,0.000,0.000,False,False
17.429,0.275,0.958,0.120,0.000,-0.707,0.000,-0.707,-0.023,0.275,0.958,0.256,-0.267,-0.655,0.267,-0.655,-45.656,0.572,1.262,0.136,-0.548,-0.447,0.548,-0.447,57.303,0.956,1.183,0.136,-0.564,-0.427,0.564,-0.427,-85.944,0.956,1.183,0.229,-0.797,-0.604,0.000,0.000,-89.954,1.047,1.157,0.229,-0.797,-0.604,0.000,0.000,0.000,1.025,1.078,0.229,-0.991,0.137,0.000,0.000,False,False
17.530,0.275,0.958,0.120,0.000,-0.707,0.000,-0.707,-0.023,0.275,0.958,0.256,-0.267,-0.655,0.267,-0.655,-45.656,0.572,1.262,0.136,-0.548,-0.447,0.548,-0.447,57.303,0.956,1.183,0.136,-0.564,-0.427,0.564,-0.427,-85.944,0.956,1.183,0.229,-0.797,-0.604,0.000,0.000,-89.954,1.047,1.157,0.229,-0.797,-0.604,0.000,0.000,0.000,1.025,1.078,0.229,-0.991,0.137,0.000,0.000,False,False
17.634,0.275,0.958,0.120,0.000,-0.707,0.000,-0.707,-0.023,0.275,0.958,0.256,-0.267,-0.655,0.267,-0.655,-45.656,0.572,1.262,0.136,-0.548,-0.447,0.548,-0.447,57.303,0.956,1.183,0.136,-0.564,-0.427,0.564,-0.427,-85.944,0.956,1.183,0.229,-0.797,-0.604,0.000,0.000,-89.954,1.047,1.157,0.229,-0.797,-0.604,0.000,0.000,0.000,1.025,1.078,0.229,-0.991,0.137,0.000,0.000,False,False
17.738,0.275,0.958,0.120,0.000,-0.707,0.000,-0.707,-0.023,0.275,0.958,0.256,-0.267,-0.655,0.267,-0.655,-45.656,0.572,1.262,0.136,-0.548,-0.447,0.548,-0.447,57.303,0.956,1.183,0.136,-0.564,-0.427,0.564,-0.427,-85.944,0.956,1.183,0.229,-0.797,-0.604,0.000,0.000,-89.954,1.047,1.157,0.229,-0.797,-0.604,0.000,0.000,0.000,1.025,1.078,0.229,-0.991,0.137,0.000,0.000,False,False
17.842,0.275,0.958,0.120,0.000,-0.707,0.000,-0.707,-0.023,0.275,0.958,0.256,-0.267,-0.655,0.267,-0.655,-45.656,0.572,1.262,0.136,-0.548,-0.447,0.548,-0.447,57.303,0.956,1.183,0.136,-0.564,-0.427,0.564,-0.427,-85.944,0.956,1.183,0.229,-0.797,-0.604,0.000,0.000,-89.954,1.047,1.157,0.229,-0.797,-0.604,0.000,0.000,0.000,1.025,1.078,0.229,-0.991,0.137,0.000,0.000,False,False
17.946,0.275,0.958,0.120,0.000,-0.707,0.000,-0.707,-0.023,0.275,0.958,0.256,-0.267,-0.655,0.267,-0.655,-45.656,0.572,1.262,0.136,-0.548,-0.447,0.548,-0.447,57.303,0.956,1.183,0.136,-0.564,-0.427,0.564,-0.427,-85.944,0.956,1.183,0.229,-0.797,-0.604,0.000,0.000,-89.954,1.047,1.157,0.229,-0.797,-0.604,0.000,0.000,0.000,1.025,1.078,0.229,-0.991,0.137,0.000,0.000,False,False
18.048,0.275,0.958,0.120,0.000,-0.707,0.000,-0.707,-0.023,0.275,0.958,0.256,-0.267,-0.655,0.267,-0.655,-45.656,0.572,1.262,0.136,-0.548,-0.447,0.548,-0.447,57.303,0.956,1.183,0.136,-0.564,-0.427,0.564,-0.427,-85.944,0.956,1.183,0.229,-0.797,-0.604,0.000,0.000,-89.954,1.047,1.157,0.229,-0.797,-0.604,0.000,0.000,0.000,1.025,1.078,0.229,-0.991,0.137,0.000,0.000,False,False
18.152,0.275,0.958,0.120,0.000,-0.707,0.000,-0.707,-0.023,0.275,0.958,0.256,-0.267,-0.655,0.267,-0.655,-45.656,0.572,1.262,0.136,-0.548,-0.447,0.548,-0.447,57.303,0.956,1.183,0.136,-0.564,-0.427,0.564,-0.427,-85.944,0.956,1.183,0.229,-0.797,-0.604,0.000,0.000,-89.954,1.047,1.157,0.229,-0.797,-0.604,0.000,0.000,0.000,1.025,1.078,0.229,-0.991,0.137,0.000,0.000,False,False
18.255,0.275,0.958,0.120,0.000,-0.707,0.000,-0.707,-0.023,0.275,0.958,0.256,-0.267,-0.655,0.267,-0.655,-45.656,0.572,1.262,0.136,-0.548,-0.447,0.548,-0.447,57.303,0.956,1.183,0.136,-0.564,-0.427,0.564,-0.427,-85.944,0.956,1.183,0.229,-0.797,-0.604,0.000,0.000,-89.954,1.047,1.157,0.229,-0.797,-0.604,0.000,0.000,0.000,1.025,1.078,0.229,-0.991,0.137,0.000,0.000,False,False
18.357,0.275,0.958,0.120,0.000,-0.707,0.000,-0.707,-0.023,0.275,0.958,0.256,-0.267,-0.655,0.267,-0.655,-45.656,0.572,1.262,0.136,-0.548,-0.447,0.548,-0.447,57.303,0.956,1.183,0.136,-0.564,-0.427,0.564,-0.427,-85.944,0.956,1.183,0.229,-0.797,-0.604,0.000,0.000,-89.954,1.047,1.157,0.229,-0.797,-0.604,0.000,0.000,0.000,1.025,1.078,0.229,-0.991,0.137,0.000,0.000,False,False
18.458,0.275,0.958,0.120,0.000,-0.707,0.000,-0.707,-0.023,0.275,0.958,0.256,-0.267,-0.655,0.267,-0.655,-45.656,0.572,1.262,0.136,-0.548,-0.447,0.548,-0.447,57.303,0.956,1.183,0.136,-0.564,-0.427,0.564,-0.427,-85.944,0.956,1.183,0.229,-0.797,-0.604,0.000,0.000,-89.954,1.047,1.157,0.229,-0.797,-0.604,0.000,0.000,0.000,1.025,1.078,0.229,-0.991,0.137,0.000,0.000,False,False
18.560,0.275,0.958,0.120,0.000,-0.707,0.000,-0.707,-0.023,0.275,0.958,0.256,-0.267,-0.655,0.267,-0.655,-45.656,0.572,1.262,0.136,-0.548,-0.447,0.548,-0.447,57.303,0.956,1.183,0.136,-0.564,-0.427,0.564,-0.427,-85.944,0.956,1.183,0.229,-0.797,-0.604,0.000,0.000,-89.954,1.047,1.157,0.229,-0.797,-0.604,0.000,0.000,0.000,1.025,1.078,0.229,-0.991,0.137,0.000,0.000,False,False
18.660,0.275,0.958,0.120,0.000,-0.707,0.000,-0.707,-0.023,0.275,0.958,0.256,-0.267,-0.655,0.267,-0.655,-45.656,0.572,1.262,0.136,-0.548,-0.447,0.548,-0.447,57.303,0.956,1.183,0.136,-0.564,-0.427,0.564,-0.427,-85.944,0.956,1.183,0.229,-0.797,-0.604,0.000,0.000,-89.954,1.047,1.157,0.229,-0.797,-0.604,0.000,0.000,0.000,1.025,1.078,0.229,-0.991,0.137,0.000,0.000,False,False
18.761,0.275,0.958,0.120,0.000,-0.707,0.000,-0.707,-0.023,0.275,0.958,0.256,-0.267,-0.655,0.267,-0.655,-45.656,0.572,1.262,0.136,-0.548,-0.447,0.548,-0.447,57.303,0.956,1.183,0.136,-0.564,-0.427,0.564,-0.427,-85.944,0.956,1.183,0.229,-0.797,-0.604,0.000,0.000,-89.954,1.047,1.157,0.229,-0.797,-0.604,0.000,0.000,0.000,1.025,1.078,0.229,-0.991,0.137,0.000,0.000,False,False
18.863,0.275,0.958,0.120,0.000,-0.707,0.000,-0.707,-0.023,0.275,0.958,0.256,-0.267,-0.655,0.267,-0.655,-45.656,0.572,1.262,0.136,-0.548,-0.447,0.548,-0.447,57.303,0.956,1.183,0.136,-0.564,-0.427,0.564,-0.427,-85.944,0.956,1.183,0.229,-0.797,-0.604,0.000,0.000,-89.954,1.047,1.157,0.229,-0.797,-0.604,0.000,0.000,0.000,1.025,1.078,0.229,-0.991,0.137,0.000,0.000,False,False
18.964,0.275,0.958,0.120,0.000,-0.707,0.000,-0.707,-0.023,0.275,0.958,0.256,-0.267,-0.655,0.267,-0.655,-45.656,0.572,1.262,0.136,-0.548,-0.447,0.548,-0.447,57.303,0.956,1.183,0.136,-0.564,-0.427,0.564,-0.427,-85.944,0.956,1.183,0.229,-0.797,-0.604,0.000,0.000,-89.954,1.047,1.157,0.229,-0.797,-0.604,0.000,0.000,0.000,1.025,1.078,0.229,-0.991,0.137,0.000,0.000,False,False
19.065,0.275,0.958,0.120,0.000,-0.707,0.000,-0.707,-0.023,0.275,0.958,0.256,-0.267,-0.655,0.267,-0.655,-45.656,0.572,1.262,0.136,-0.548,-0.447,0.548,-0.447,57.303,0.956,1.183,0.136,-0.564,-0.427,0.564,-0.427,-85.944,0.956,1.183,0.229,-0.797,-0.604,0.000,0.000,-89.954,1.047,1.157,0.229,-0.797,-0.604,0.000,0.000,0.000,1.025,1.078,0.229,-0.991,0.137,0.000,0.000,False,False
19.165,0.275,0.958,0.120,0.000,-0.707,0.000,-0.707,-0.023,0.275,0.958,0.256,-0.267,-0.655,0.267,-0.655,-45.656,0.572,1.262,0.136,-0.548,-0.447,0.548,-0.447,57.303,0.956,1.183,0.136,-0.564,-0.427,0.564,-0.427,-85.944,0.956,1.183,0.229,-0.797,-0.604,0.000,0.000,-89.954,1.047,1.157,0.229,-0.797,-0.604,0.000,0.000,0.000,1.025,1.078,0.229,-0.991,0.137,0.000,0.000,False,False
19.271,0.275,0.958,0.120,0.000,-0.707,0.000,-0.707,-0.023,0.275,0.958,0.256,-0.267,-0.655,0.267,-0.655,-45.656,0.572,1.262,0.136,-0.548,-0.447,0.548,-0.447,57.303,0.956,1.183,0.136,-0.564,-0.427,0.564,-0.427,-85.944,0.956,1.183,0.229,-0.797,-0.604,0.000,0.000,-89.954,1.047,1.157,0.229,-0.797,-0.604,0.000,0.000,0.000,1.025,1.078,0.229,-0.991,0.137,0.000,0.000,False,False
19.374,0.275,0.958,0.120,0.000,-0.707,0.000,-0.707,-0.023,0.275,0.958,0.256,-0.267,-0.655,0.267,-0.655,-45.656,0.572,1.262,0.136,-0.548,-0.447,0.548,-0.447,57.303,0.956,1.183,0.136,-0.564,-0.427,0.564,-0.427,-85.944,0.956,1.183,0.229,-0.797,-0.604,0.000,0.000,-89.954,1.047,1.157,0.229,-0.797,-0.604,0.000,0.000,0.000,1.025,1.078,0.229,-0.991,0.137,0.000,0.000,False,False
19.478,0.275,0.958,0.120,0.000,-0.707,0.000,-0.707,-0.023,0.275,0.958,0.256,-0.267,-0.655,0.267,-0.655,-45.656,0.572,1.262,0.136,-0.548,-0.447,0.548,-0.447,57.303,0.956,1.183,0.136,-0.564,-0.427,0.564,-0.427,-85.944,0.956,1.183,0.229,-0.797,-0.604,0.000,0.000,-89.954,1.047,1.157,0.229,-0.797,-0.604,0.000,0.000,0.000,1.025,1.078,0.229,-0.991,0.137,0.000,0.000,False,False
19.581,0.275,0.958,0.120,0.000,-0.707,0.000,-0.707,-0.023,0.275,0.958,0.256,-0.267,-0.655,0.267,-0.655,-45.656,0.572,1.262,0.136,-0.548,-0.447,0.548,-0.447,57.303,0.956,1.183,0.136,-0.564,-0.427,0.564,-0.427,-85.944,0.956,1.183,0.229,-0.797,-0.604,0.000,0.000,-89.954,1.047,1.157,0.229,-0.797,-0.604,0.000,0.000,0.000,1.025,1.078,0.229,-0.991,0.137,0.000,0.000,False,False
19.682,0.275,0.958,0.120,0.000,-0.707,0.000,-0.707,-0.023,0.275,0.958,0.256,-0.267,-0.655,0.267,-0.655,-45.656,0.572,1.262,0.136,-0.548,-0.447,0.548,-0.447,57.303,0.956,1.183,0.136,-0.564,-0.427,0.564,-0.427,-85.944,0.956,1.183,0.229,-0.797,-0.604,0.000,0.000,-89.954,1.047,1.157,0.229,-0.797,-0.604,0.000,0.000,0.000,1.025,1.078,0.229,-0.991,0.137,0.000,0.000,False,False
19.784,0.275,0.958,0.120,0.000,-0.707,0.000,-0.707,-0.023,0.275,0.958,0.256,-0.267,-0.655,0.267,-0.655,-45.656,0.572,1.262,0.136,-0.548,-0.447,0.548,-0.447,57.303,0.956,1.183,0.136,-0.564,-0.427,0.564,-0.427,-85.944,0.956,1.183,0.229,-0.797,-0.604,0.000,0.000,-89.954,1.047,1.157,0.229,-0.797,-0.604,0.000,0.000,0.000,1.025,1.078,0.229,-0.991,0.137,0.000,0.000,False,False
19.885,0.275,0.958,0.120,0.000,-0.707,0.000,-0.707,-0.023,0.275,0.958,0.256,-0.267,-0.655,0.267,-0.655,-45.656,0.572,1.262,0.136,-0.548,-0.447,0.548,-0.447,57.303,0.956,1.183,0.136,-0.564,-0.427,0.564,-0.427,-85.944,0.956,1.183,0.229,-0.797,-0.604,0.000,0.000,-89.954,1.047,1.157,0.229,-0.797,-0.604,0.000,0.000,0.000,1.025,1.078,0.229,-0.991,0.137,0.000,0.000,False,False
19.986,0.275,0.958,0.120,0.000,-0.707,0.000,-0.707,-0.023,0.275,0.958,0.256,-0.267,-0.655,0.267,-0.655,-45.656,0.572,1.262,0.136,-0.548,-0.447,0.548,-0.447,57.303,0.956,1.183,0.136,-0.564,-0.427,0.564,-0.427,-85.944,0.956,1.183,0.229,-0.797,-0.604,0.000,0.000,-89.954,1.047,1.157,0.229,-0.797,-0.604,0.000,0.000,0.000,1.025,1.078,0.229,-0.991,0.137,0.000,0.000,False,False
20.086,0.275,0.958,0.120,0.000,-0.707,0.000,-0.707,-0.023,0.275,0.958,0.256,-0.267,-0.655,0.267,-0.655,-45.656,0.572,1.262,0.136,-0.548,-0.447,0.548,-0.447,57.303,0.956,1.183,0.136,-0.564,-0.427,0.564,-0.427,-85.944,0.956,1.183,0.229,-0.797,-0.604,0.000,0.000,-89.954,1.047,1.157,0.229,-0.797,-0.604,0.000,0.000,0.000,1.025,1.078,0.229,-0.991,0.137,0.000,0.000,False,False
20.188,0.275,0.958,0.120,0.000,-0.707,0.000,-0.707,-0.023,0.275,0.958,0.256,-0.267,-0.655,0.267,-0.655,-45.656,0.572,1.262,0.136,-0.548,-0.447,0.548,-0.447,57.303,0.956,1.183,0.136,-0.564,-0.427,0.564,-0.427,-85.944,0.956,1.183,0.229,-0.797,-0.604,0.000,0.000,-89.954,1.047,1.157,0.229,-0.797,-0.604,0.000,0.000,0.000,1.025,1.078,0.229,-0.991,0.137,0.000,0.000,False,False
20.290,0.275,0.958,0.120,0.000,-0.707,0.000,-0.707,-0.023,0.275,0.958,0.256,-0.267,-0.655,0.267,-0.655,-45.656,0.572,1.262,0.136,-0.548,-0.447,0.548,-0.447,57.303,0.956,1.183,0.136,-0.564,-0.427,0.564,-0.427,-85.944,0.956,1.183,0.229,-0.797,-0.604,0.000,0.000,-89.954,1.047,1.157,0.229,-0.797,-0.604,0.000,0.000,0.000,1.025,1.078,0.229,-0.991,0.137,0.000,0.000,False,False
20.394,0.275,0.958,0.120,0.000,-0.707,0.000,-0.707,-0.023,0.275,0.958,0.256,-0.267,-0.655,0.267,-0.655,-45.656,0.572,1.262,0.136,-0.548,-0.447,0.548,-0.447,57.303,0.956,1.183,0.136,-0.564,-0.427,0.564,-0.427,-85.944,0.956,1.183,0.229,-0.797,-0.604,0.000,0.000,-89.954,1.047,1.157,0.229,-0.797,-0.604,0.000,0.000,0.000,1.025,1.078,0.229,-0.991,0.137,0.000,0.000,False,False
20.496,0.275,0.958,0.120,0.000,-0.707,0.000,-0.707,-0.023,0.275,0.958,0.256,-0.267,-0.655,0.267,-0.655,-45.656,0.572,1.262,0.136,-0.548,-0.447,0.548,-0.447,57.303,0.956,1.183,0.136,-0.564,-0.427,0.564,-0.427,-85.944,0.956,1.183,0.229,-0.797,-0.604,0.000,0.000,-89.954,1.047,1.157,0.229,-0.797,-0.604,0.000,0.000,0.000,1.025,1.078,0.229,-0.991,0.137,0.000,0.000,False,False
20.596,0.275,0.958,0.120,0.000,-0.707,0.000,-0.707,-0.023,0.275,0.958,0.256,-0.267,-0.655,0.267,-0.655,-45.656,0.572,1.262,0.136,-0.548,-0.447,0.548,-0.447,57.303,0.956,1.183,0.136,-0.564,-0.427,0.564,-0.427,-85.944,0.956,1.183,0.229,-0.797,-0.604,0.000,0.000,-89.954,1.047,1.157,0.229,-0.797,-0.604,0.000,0.000,0.000,1.025,1.078,0.229,-0.991,0.137,0.000,0.000,False,False
20.698,0.275,0.958,0.120,0.000,-0.707,0.000,-0.707,-0.023,0.275,0.958,0.256,-0.267,-0.655,0.267,-0.655,-45.656,0.572,1.262,0.136,-0.548,-0.447,0.548,-0.447,57.303,0.956,1.183,0.136,-0.564,-0.427,0.564,-0.427,-85.944,0.956,1.183,0.229,-0.797,-0.604,0.000,0.000,-89.954,1.047,1.157,0.229,-0.797,-0.604,0.000,0.000,0.000,1.025,1.078,0.229,-0.991,0.137,0.000,0.000,False,False
20.800,0.275,0.958,0.120,0.000,-0.707,0.000,-0.707,-0.023,0.275,0.958,0.256,-0.267,-0.655,0.267,-0.655,-45.656,0.572,1.262,0.136,-0.548,-0.447,0.548,-0.447,57.303,0.956,1.183,0.136,-0.564,-0.427,0.564,-0.427,-85.944,0.956,1.183,0.229,-0.797,-0.604,0.000,0.000,-89.954,1.047,1.157,0.229,-0.797,-0.604,0.000,0.000,0.000,1.025,1.078,0.229,-0.991,0.137,0.000,0.000,False,False
20.905,0.275,0.958,0.120,0.000,-0.707,0.000,-0.707,-0.023,0.275,0.958,0.256,-0.267,-0.655,0.267,-0.655,-45.656,0.572,1.262,0.136,-0.548,-0.447,0.548,-0.447,57.303,0.956,1.183,0.136,-0.564,-0.427,0.564,-0.427,-85.944,0.956,1.183,0.229,-0.797,-0.604,0.000,0.000,-89.954,1.047,1.157,0.229,-0.797,-0.604,0.000,0.000,0.000,1.025,1.078,0.229,-0.991,0.137,0.000,0.000,False,False
21.009,0.275,0.958,0.120,0.000,-0.707,0.000,-0.707,-0.023,0.275,0.958,0.256,-0.267,-0.655,0.267,-0.655,-45.656,0.572,1.262,0.136,-0.548,-0.447,0.548,-0.447,57.303,0.956,1.183,0.136,-0.564,-0.427,0.564,-0.427,-85.944,0.956,1.183,0.229,-0.797,-0.604,0.000,0.000,-89.954,1.047,1.157,0.229,-0.797,-0.604,0.000,0.000,0.000,1.025,1.078,0.229,-0.991,0.137,0.000,0.000,False,False
21.109,0.275,0.958,0.120,0.000,-0.707,0.000,-0.707,-0.023,0.275,0.958,0.256,-0.267,-0.655,0.267,-0.655,-45.656,0.572,1.262,0.136,-0.548,-0.447,0.548,-0.447,57.303,0.956,1.183,0.136,-0.564,-0.427,0.564,-0.427,-85.944,0.956,1.183,0.229,-0.797,-0.604,0.000,0.000,-89.954,1.047,1.157,0.229,-0.797,-0.604,0.000,0.000,0.000,1.025,1.078,0.229,-0.991,0.137,0.000,0.000,False,False
21.212,0.275,0.958,0.120,0.000,-0.707,0.000,-0.707,-0.023,0.275,0.958,0.256,-0.267,-0.655,0.267,-0.655,-45.656,0.572,1.262,0.136,-0.548,-0.447,0.548,-0.447,57.303,0.956,1.183,0.136,-0.564,-0.427,0.564,-0.427,-85.944,0.956,1.183,0.229,-0.797,-0.604,0.000,0.000,-89.954,1.047,1.157,0.229,-0.797,-0.604,0.000,0.000,0.000,1.025,1.078,0.229,-0.991,0.137,0.000,0.000,False,False
21.316,0.275,0.958,0.120,0.000,-0.707,0.000,-0.707,-0.023,0.275,0.958,0.256,-0.267,-0.655,0.267,-0.655,-45.656,0.572,1.262,0.136,-0.548,-0.447,0.548,-0.447,57.303,0.956,1.183,0.136,-0.564,-0.427,0.564,-0.427,-85.944,0.956,1.183,0.229,-0.797,-0.604,0.000,0.000,-89.954,1.047,1.157,0.229,-0.797,-0.604,0.000,0.000,0.000,1.025,1.078,0.229,-0.991,0.137,0.000,0.000,False,False
21.416,0.275,0.958,0.120,0.000,-0.707,0.000,-0.707,-0.023,0.275,0.958,0.256,-0.267,-0.655,0.267,-0.655,-45.656,0.572,1.262,0.136,-0.548,-0.447,0.548,-0.447,57.303,0.956,1.183,0.136,-0.564,-0.427,0.564,-0.427,-85.944,0.956,1.183,0.229,-0.797,-0.604,0.000,0.000,-89.954,1.047,1.157,0.229,-0.797,-0.604,0.000,0.000,0.000,1.025,1.078,0.229,-0.991,0.137,0.000,0.000,False,False
21.516,0.275,0.958,0.120,0.000,-0.707,0.000,-0.707,-0.023,0.275,0.958,0.256,-0.267,-0.655,0.267,-0.655,-45.656,0.572,1.262,0.136,-0.548,-0.447,0.548,-0.447,57.303,0.956,1.183,0.136,-0.564,-0.427,0.564,-0.427,-85.944,0.956,1.183,0.229,-0.797,-0.604,0.000,0.000,-89.954,1.047,1.157,0.229,-0.797,-0.604,0.000,0.000,0.000,1.025,1.078,0.229,-0.991,0.137,0.000,0.000,False,False
21.621,0.275,0.958,0.120,0.000,-0.707,0.000,-0.707,-0.023,0.275,0.958,0.256,-0.267,-0.655,0.267,-0.655,-45.656,0.572,1.262,0.136,-0.548,-0.447,0.548,-0.447,57.303,0.956,1.183,0.136,-0.564,-0.427,0.564,-0.427,-85.944,0.956,1.183,0.229,-0.797,-0.604,0.000,0.000,-89.954,1.047,1.157,0.229,-0.797,-0.604,0.000,0.000,0.000,1.025,1.078,0.229,-0.991,0.137,0.000,0.000,False,False
21.722,0.275,0.958,0.120,0.000,-0.707,0.000,-0.707,-0.023,0.275,0.958,0.256,-0.267,-0.655,0.267,-0.655,-45.656,0.572,1.262,0.136,-0.548,-0.447,0.548,-0.447,57.303,0.956,1.183,0.136,-0.564,-0.427,0.564,-0.427,-85.944,0.956,1.183,0.229,-0.797,-0.604,0.000,0.000,-89.954,1.047,1.157,0.229,-0.797,-0.604,0.000,0.000,0.000,1.025,1.078,0.229,-0.991,0.137,0.000,0.000,False,False
21.822,0.275,0.958,0.120,0.000,-0.707,0.000,-0.707,-0.023,0.275,0.958,0.256,-0.267,-0.655,0.267,-0.655,-45.656,0.572,1.262,0.136,-0.548,-0.447,0.548,-0.447,57.303,0.956,1.183,0.136,-0.564,-0.427,0.564,-0.427,-85.944,0.956,1.183,0.229,-0.797,-0.604,0.000,0.000,-89.954,1.047,1.157,0.229,-0.797,-0.604,0.000,0.000,0.000,1.025,1.078,0.229,-0.991,0.137,0.000,0.000,False,False
21.924,0.275,0.958,0.120,0.000,-0.707,0.000,-0.707,-0.023,0.275,0.958,0.256,-0.267,-0.655,0.267,-0.655,-45.656,0.572,1.262,0.136,-0.548,-0.447,0.548,-0.447,57.303,0.956,1.183,0.136,-0.564,-0.427,0.564,-0.427,-85.944,0.956,1.183,0.229,-0.797,-0.604,0.000,0.000,-89.954,1.047,1.157,0.229,-0.797,-0.604,0.000,0.000,0.000,1.025,1.078,0.229,-0.991,0.137,0.000,0.000,False,False
22.025,0.275,0.958,0.120,0.000,-0.707,0.000,-0.707,-0.023,0.275,0.958,0.256,-0.267,-0.655,0.267,-0.655,-45.656,0.572,1.262,0.136,-0.548,-0.447,0.548,-0.447,57.303,0.956,1.183,0.136,-0.564,-0.427,0.564,-0.427,-85.944,0.956,1.183,0.229,-0.797,-0.604,0.000,0.000,-89.954,1.047,1.157,0.229,-0.797,-0.604,0.000,0.000,0.000,1.025,1.078,0.229,-0.991,0.137,0.000,0.000,False,False
22.127,0.275,0.958,0.120,0.000,-0.707,0.000,-0.707,-0.023,0.275,0.958,0.256,-0.267,-0.655,0.267,-0.655,-45.656,0.572,1.262,0.136,-0.548,-0.447,0.548,-0.447,57.303,0.956,1.183,0.136,-0.564,-0.427,0.564,-0.427,-85.944,0.956,1.183,0.229,-0.797,-0.604,0.000,0.000,-89.954,1.047,1.157,0.229,-0.797,-0.604,0.000,0.000,0.000,1.025,1.078,0.229,-0.991,0.137,0.000,0.000,False,False
22.228,0.275,0.958,0.120,0.000,-0.707,0.000,-0.707,-0.023,0.275,0.958,0.256,-0.267,-0.655,0.267,-0.655,-45.656,0.572,1.262,0.136,-0.548,-0.447,0.548,-0.447,57.303,0.956,1.183,0.136,-0.564,-0.427,0.564,-0.427,-85.944,0.956,1.183,0.229,-0.797,-0.604,0.000,0.000,-89.954,1.047,1.157,0.229,-0.797,-0.604,0.000,0.000,0.000,1.025,1.078,0.229,-0.991,0.137,0.000,0.000,False,False
22.328,0.275,0.958,0.120,0.000,-0.707,0.000,-0.707,-0.023,0.275,0.958,0.256,-0.267,-0.655,0.267,-0.655,-45.656,0.572,1.262,0.136,-0.548,-0.447,0.548,-0.447,57.303,0.956,1.183,0.136,-0.564,-0.427,0.564,-0.427,-85.944,0.956,1.183,0.229,-0.797,-0.604,0.000,0.000,-89.954,1.047,1.157,0.229,-0.797,-0.604,0.000,0.000,0.000,1.025,1.078,0.229,-0.991,0.137,0.000,0.000,False,False
22.432,0.275,0.958,0.120,0.000,-0.707,0.000,-0.707,-0.023,0.275,0.958,0.256,-0.267,-0.655,0.267,-0.655,-45.656,0.572,1.262,0.136,-0.548,-0.447,0.548,-0.447,57.303,0.956,1.183,0.136,-0.564,-0.427,0.564,-0.427,-85.944,0.956,1.183,0.229,-0.797,-0.604,0.000,0.000,-89.954,1.047,1.157,0.229,-0.797,-0.604,0.000,0.000,0.000,1.025,1.078,0.229,-0.991,0.137,0.000,0.000,False,False
22.534,0.275,0.958,0.120,0.000,-0.707,0.000,-0.707,-0.023,0.275,0.958,0.256,-0.267,-0.655,0.267,-0.655,-45.656,0.572,1.262,0.136,-0.548,-0.447,0.548,-0.447,57.303,0.956,1.183,0.136,-0.564,-0.427,0.564,-0.427,-85.944,0.956,1.183,0.229,-0.797,-0.604,0.000,0.000,-89.954,1.047,1.157,0.229,-0.797,-0.604,0.000,0.000,0.000,1.025,1.078,0.229,-0.991,0.137,0.000,0.000,False,False
22.639,0.275,0.958,0.120,0.000,-0.707,0.000,-0.707,-0.023,0.275,0.958,0.256,-0.267,-0.655,0.267,-0.655,-45.656,0.572,1.262,0.136,-0.548,-0.447,0.548,-0.447,57.303,0.956,1.183,0.136,-0.564,-0.427,0.564,-0.427,-85.944,0.956,1.183,0.229,-0.797,-0.604,0.000,0.000,-89.954,1.047,1.157,0.229,-0.797,-0.604,0.000,0.000,0.000,1.025,1.078,0.229,-0.991,0.137,0.000,0.000,False,False
22.740,0.275,0.958,0.120,0.000,-0.707,0.000,-0.707,-0.023,0.275,0.958,0.256,-0.267,-0.655,0.267,-0.655,-45.656,0.572,1.262,0.136,-0.548,-0.447,0.548,-0.447,57.303,0.956,1.183,0.136,-0.564,-0.427,0.564,-0.427,-85.944,0.956,1.183,0.229,-0.797,-0.604,0.000,0.000,-89.954,1.047,1.157,0.229,-0.797,-0.604,0.000,0.000,0.000,1.025,1.078,0.229,-0.991,0.137,0.000,0.000,False,False
22.840,0.275,0.958,0.120,0.000,-0.707,0.000,-0.707,-0.023,0.275,0.958,0.256,-0.267,-0.655,0.267,-0.655,-45.656,0.572,1.262,0.136,-0.548,-0.447,0.548,-0.447,57.303,0.956,1.183,0.136,-0.564,-0.427,0.564,-0.427,-85.944,0.956,1.183,0.229,-0.797,-0.604,0.000,0.000,-89.954,1.047,1.157,0.229,-0.797,-0.604,0.000,0.000,0.000,1.025,1.078,0.229,-0.991,0.137,0.000,0.000,True,False
22.941,0.275,0.958,0.120,0.000,-0.707,0.000,-0.707,-0.023,0.275,0.958,0.256,-0.267,-0.655,0.267,-0.655,-45.656,0.572,1.262,0.136,-0.548,-0.447,0.548,-0.447,57.303,0.956,1.183,0.136,-0.564,-0.427,0.564,-0.427,-85.944,0.956,1.183,0.229,-0.797,-0.604,0.000,0.000,-89.954,1.047,1.157,0.229,-0.797,-0.604,0.000,0.000,0.000,1.025,1.078,0.229,-0.991,0.137,0.000,0.000,True,False
23.044,0.275,0.958,0.120,0.000,-0.707,0.000,-0.707,-0.023,0.275,0.958,0.256,-0.267,-0.655,0.267,-0.655,-45.656,0.572,1.262,0.136,-0.548,-0.447,0.548,-0.447,57.303,0.956,1.183,0.136,-0.564,-0.427,0.564,-0.427,-85.944,0.956,1.183,0.229,-0.797,-0.604,0.000,0.000,-89.954,1.047,1.157,0.229,-0.797,-0.604,0.000,0.000,0.000,1.025,1.078,0.229,-0.991,0.137,0.000,0.000,True,False
23.152,0.275,0.958,0.120,0.000,-0.707,0.000,-0.707,-0.023,0.275,0.958,0.256,-0.267,-0.655,0.267,-0.655,-45.656,0.572,1.262,0.136,-0.548,-0.447,0.548,-0.447,57.303,0.956,1.183,0.136,-0.564,-0.427,0.564,-0.427,-85.944,0.956,1.183,0.229,-0.797,-0.604,0.000,0.000,-89.954,1.047,1.157,0.229,-0.797,-0.604,0.000,0.000,0.000,1.025,1.078,0.229,-0.991,0.137,0.000,0.000,True,False
23.260,0.275,0.958,0.120,0.000,-0.707,0.000,-0.707,-0.023,0.275,0.958,0.256,-0.267,-0.655,0.267,-0.655,-45.656,0.572,1.262,0.136,-0.548,-0.447,0.548,-0.447,57.303,0.956,1.183,0.136,-0.564,-0.427,0.564,-0.427,-85.944,0.956,1.183,0.229,-0.797,-0.604,0.000,0.000,-89.954,1.047,1.157,0.229,-0.797,-0.604,0.000,0.000,0.000,1.025,1.078,0.229,-0.991,0.137,0.000,0.000,True,False
23.367,0.275,0.958,0.120,0.000,-0.707,0.000,-0.707,-0.023,0.275,0.958,0.256,-0.267,-0.655,0.267,-0.655,-45.656,0.572,1.262,0.136,-0.548,-0.447,0.548,-0.447,57.303,0.956,1.183,0.136,-0.564,-0.427,0.564,-0.427,-85.944,0.956,1.183,0.229,-0.797,-0.604,0.000,0.000,-89.954,1.047,1.157,0.229,-0.797,-0.604,0.000,0.000,0.000,1.025,1.078,0.229,-0.991,0.137,0.000,0.000,True,False
23.471,0.275,0.958,0.120,0.000,-0.707,0.000,-0.707,-0.023,0.275,0.958,0.256,-0.267,-0.655,0.267,-0.655,-45.656,0.572,1.262,0.136,-0.548,-0.447,0.548,-0.447,57.303,0.956,1.183,0.136,-0.564,-0.427,0.564,-0.427,-85.944,0.956,1.183,0.229,-0.797,-0.604,0.000,0.000,-89.954,1.047,1.157,0.229,-0.797,-0.604,0.000,0.000,0.000,1.025,1.078,0.229,-0.991,0.137,0.000,0.000,True,False
23.576,0.275,0.958,0.120,0.000,-0.708,0.000,-0.706,-0.177,0.275,0.958,0.256,-0.266,-0.656,0.267,-0.654,-45.655,0.572,1.262,0.135,-0.547,-0.447,0.549,-0.446,57.303,0.956,1.183,0.134,-0.563,-0.428,0.564,-0.426,-85.944,0.957,1.183,0.227,-0.797,-0.604,0.002,0.001,-89.954,1.048,1.157,0.227,-0.797,-0.604,0.002,0.001,0.000,1.025,1.078,0.227,-0.991,0.137,0.002,-0.001,True,False
23.683,0.275,0.958,0.120,0.000,-0.715,0.000,-0.699,-1.348,0.278,0.958,0.256,-0.264,-0.662,0.270,-0.647,-45.655,0.572,1.262,0.129,-0.542,-0.452,0.555,-0.441,57.303,0.956,1.183,0.120,-0.557,-0.432,0.570,-0.422,-85.944,0.959,1.183,0.213,-0.797,-0.604,0.010,0.007,-89.954,1.050,1.157,0.211,-0.797,-0.604,0.010,0.007,0.000,1.027,1.078,0.212,-0.991,0.137,0.012,-0.002,True,False
23.793,0.275,0.958,0.120,0.000,-0.723,0.000,-0.690,-2.678,0.281,0.958,0.256,-0.261,-0.670,0.273,-0.639,-45.656,0.572,1.262,0.122,-0.535,-0.457,0.561,-0.436,57.303,0.956,1.183,0.104,-0.550,-0.437,0.577,-0.417,-85.944,0.961,1.183,0.197,-0.797,-0.604,0.019,0.014,-89.954,1.052,1.157,0.193,-0.797,-0.604,0.019,0.014,0.000,1.029,1.078,0.194,-0.990,0.137,0.023,-0.004,True,False
23.894,0.275,0.958,0.120,0.000,-0.732,0.000,-0.681,-4.116,0.285,0.958,0.255,-0.257,-0.678,0.276,-0.631,-45.656,0.572,1.262,0.115,-0.528,-0.462,0.567,-0.430,57.303,0.956,1.183,0.087,-0.543,-0.442,0.583,-0.411,-85.944,0.962,1.183,0.180,-0.797,-0.603,0.029,0.021,-89.954,1.053,1.157,0.173,-0.797,-0.603,0.029,0.021,0.000,1.031,1.078,0.175,-0.990,0.137,0.036,-0.005,True,False
24.000,0.275,0.958,0.120,0.000,-0.741,0.000,-0.672,-5.593,0.288,0.958,0.255,-0.254,-0.686,0.280,-0.622,-45.656,0.572,1.262,0.107,-0.521,-0.468,0.574,-0.424,57.303,0.955,1.183,0.070,-0.535,-0.447,0.590,-0.406,-85.944,0.964,1.183,0.162,-0.796,-0.603,0.039,0.029,-89.954,1.054,1.157,0.153,-0.796,-0.603,0.039,0.029,0.000,1.032,1.078,0.156,-0.989,0.136,0.048,-0.007,True,False
24.106,0.275,0.958,0.120,0.000,-0.751,0.000,-0.660,-7.384,0.292,0.958,0.255,-0.249,-0.696,0.283,-0.611,-45.656,0.572,1.262,0.098,-0.512,-0.475,0.582,-0.417,57.303,0.953,1.183,0.048,-0.526,-0.454,0.599,-0.399,-85.944,0.965,1.183,0.141,-0.795,-0.603,0.052,0.039,-89.954,1.055,1.157,0.129,-0.795,-0.603,0.052,0.039,0.000,1.033,1.078,0.132,-0.989,0.136,0.064,-0.009,True,False
24.211,0.275,0.958,0.120,0.000,-0.760,0.000,-0.650,-8.882,0.296,0.958,0.254,-0.245,-0.704,0.287,-0.602,-45.656,0.571,1.262,0.090,-0.504,-0.480,0.589,-0.411,57.303,0.951,1.183,0.031,-0.518,-0.459,0.606,-0.393,-85.944,0.965,1.183,0.123,-0.795,-0.602,0.062,0.047,-89.954,1.055,1.157,0.109,-0.795,-0.602,0.062,0.047,0.000,1.033,1.078,0.112,-0.988,0.136,0.077,-0.011,True,False
24.317,0.275,0.958,0.120,0.000,-0.768,0.000,-0.640,-10.381,0.299,0.958,0.254,-0.242,-0.711,0.290,-0.593,-45.656,0.570,1.262,0.082,-0.496,-0.485,0.595,-0.404,57.303,0.948,1.183,0.013,-0.510,-0.464,0.612,-0.387,-85.944,0.965,1.183,0.105,-0.794,-0.601,0.072,0.054,-89.954,1.054,1.157,0.088,-0.794,-0.601,0.072,0.054,0.000,1.032,1.078,0.092,-0.987,0.136,0.090,-0.013,True,False
24.420,0.275,0.958,0.120,0.000,-0.778,0.000,-0.628,-12.181,0.304,0.958,0.253,-0.237,-0.721,0.294,-0.582,-45.656,0.569,1.262,0.073,-0.487,-0.492,0.603,-0.397,57.303,0.944,1.183,-0.008,-0.501,-0.470,0.620,-0.379,-85.944,0.964,1.183,0.083,-0.793,-0.600,0.085,0.064,-89.954,1.053,1.157,0.064,-0.793,-0.600,0.085,0.064,0.000,1.031,1.078,0.068,-0.985,0.136,0.105,-0.015,True,False
24.523,0.275,0.958,0.120,0.000,-0.786,0.000,-0.618,-13.681,0.307,0.958,0.252,-0.233,-0.728,0.297,-0.572,-45.656,0.567,1.262,0.065,-0.479,-0.497,0.610,-0.390,57.303,0.941,1.183,-0.025,-0.492,-0.475,0.627,-0.373,-85.944,0.963,1.183,0.065,-0.791,-0.600,0.095,0.072,-89.954,1.051,1.157,0.043,-0.791,-0.600,0.095,0.072,0.000,1.030,1.078,0.049,-0.984,0.136,0.118,-0.017,True,False
24.629,0.275,0.958,0.120,0.000,-0.794,0.000,-0.608,-15.181,0.311,0.958,0.251,-0.229,-0.736,0.300,-0.563,-45.656,0.566,1.262,0.058,-0.471,-0.502,0.616,-0.384,57.303,0.937,1.183,-0.043,-0.484,-0.480,0.633,-0.367,-85.944,0.961,1.183,0.047,-0.790,-0.599,0.106,0.080,-89.954,1.049,1.157,0.023,-0.790,-0.599,0.106,0.080,0.000,1.028,1.078,0.029,-0.982,0.135,0.131,-0.018,True,False
24.731,0.275,0.958,0.120,0.000,-0.802,0.000,-0.597,-16.681,0.314,0.958,0.250,-0.225,-0.743,0.303,-0.553,-45.656,0.564,1.262,0.050,-0.463,-0.507,0.622,-0.377,57.303,0.932,1.183,-0.060,-0.476,-0.484,0.639,-0.361,-85.944,0.959,1.183,0.029,-0.789,-0.598,0.116,0.087,-89.954,1.046,1.157,0.003,-0.789,-0.598,0.116,0.087,0.000,1.025,1.078,0.009,-0.980,0.135,0.144,-0.020,True,False
24.838,0.275,0.958,0.120,0.000,-0.810,0.000,-0.587,-18.181,0.317,0.958,0.249,-0.221,-0.750,0.306,-0.543,-45.656,0.562,1.262,0.043,-0.455,-0.512,0.628,-0.371,57.303,0.927,1.183,-0.077,-0.467,-0.489,0.646,-0.354,-85.944,0.956,1.183,0.011,-0.787,-0.596,0.126,0.095,-89.954,1.043,1.157,-0.017,-0.787,-0.596,0.126,0.095,0.000,1.022,1.078,-0.010,-0.978,0.135,0.157,-0.022,True,False
24.942,0.275,0.958,0.120,0.000,-0.819,0.000,-0.574,-19.981,0.321,0.958,0.248,-0.217,-0.758,0.309,-0.531,-45.656,0.560,1.262,0.034,-0.445,-0.517,0.635,-0.362,57.303,0.921,1.183,-0.098,-0.457,-0.495,0.653,-0.346,-85.944,0.953,1.183,-0.010,-0.785,-0.595,0.139,0.105,-89.954,1.038,1.157,-0.041,-0.785,-0.595,0.139,0.105,0.000,1.017,1.078,-0.034,-0.976,0.134,0.172,-0.024,True,False
25.051,0.275,0.958,0.120,0.000,-0.826,0.000,-0.563,-21.481,0.325,0.958,0.246,-0.212,-0.765,0.312,-0.521,-45.656,0.557,1.262,0.026,-0.436,-0.522,0.641,-0.356,57.303,0.915,1.183,-0.114,-0.449,-0.499,0.659,-0.340,-85.944,0.949,1.183,-0.028,-0.783,-0.593,0.149,0.112,-89.954,1.034,1.157,-0.061,-0.783,-0.593,0.149,0.112,0.000,1.013,1.078,-0.053,-0.973,0.134,0.185,-0.026,True,False
25.156,0.275,0.958,0.120,0.000,-0.834,0.000,-0.552,-22.981,0.328,0.958,0.245,-0.208,-0.772,0.315,-0.511,-45.656,0.555,1.262,0.019,-0.428,-0.527,0.646,-0.349,57.303,0.908,1.183,-0.131,-0.440,-0.504,0.665,-0.333,-85.944,0.945,1.183,-0.045,-0.781,-0.592,0.159,0.120,-89.954,1.029,1.157,-0.081,-0.781,-0.592,0.159,0.120,0.000,1.008,1.078,-0.072,-0.971,0.134,0.197,-0.028,True,False
25.262,0.275,0.958,0.120,0.000,-0.842,0.000,-0.539,-24.781,0.332,0.958,0.243,-0.203,-0.780,0.318,-0.499,-45.656,0.551,1.262,0.010,-0.418,-0.532,0.653,-0.340,57.303,0.900,1.183,-0.151,-0.430,-0.509,0.671,-0.325,-85.944,0.939,1.183,-0.066,-0.778,-0.590,0.171,0.129,-89.954,1.022,1.157,-0.105,-0.778,-0.590,0.171,0.129,0.000,1.002,1.078,-0.095,-0.968,0.133,0.213,-0.030,True,False
25.365,0.275,0.958,0.120,0.000,-0.849,0.000,-0.528,-26.281,0.335,0.958,0.242,-0.199,-0.787,0.321,-0.489,-45.656,0.549,1.262,0.003,-0.409,-0.537,0.658,-0.333,57.303,0.893,1.183,-0.167,-0.421,-0.513,0.677,-0.319,-85.944,0.934,1.183,-0.084,-0.776,-0.588,0.182,0.137,-89.954,1.016,1.157,-0.124,-0.776,-0.588,0.182,0.137,0.000,0.996,1.078,-0.114,-0.965,0.133,0.225,-0.031,True,False
25.468,0.275,0.958,0.120,0.000,-0.856,0.000,-0.517,-27.781,0.338,0.958,0.240,-0.195,-0.793,0.323,-0.478,-45.656,0.545,1.262,-0.004,-0.401,-0.541,0.664,-0.326,57.303,0.885,1.183,-0.183,-0.412,-0.517,0.682,-0.312,-85.944,0.929,1.183,-0.101,-0.774,-0.586,0.192,0.145,-89.954,1.009,1.157,-0.143,-0.774,-0.586,0.192,0.145,0.000,0.990,1.078,-0.133,-0.962,0.133,0.238,-0.033,True,False
25.572,0.275,0.958,0.120,0.000,-0.863,0.000,-0.505,-29.281,0.341,0.958,0.238,-0.191,-0.799,0.326,-0.468,-45.656,0.542,1.262,-0.011,-0.392,-0.545,0.669,-0.319,57.303,0.877,1.183,-0.199,-0.403,-0.521,0.688,-0.305,-85.944,0.923,1.183,-0.118,-0.771,-0.584,0.202,0.152,-89.954,1.002,1.157,-0.163,-0.771,-0.584,0.202,0.152,0.000,0.983,1.078,-0.152,-0.958,0.132,0.250,-0.035,True,False
25.681,0.275,0.958,0.120,0.000,-0.871,0.000,-0.492,-31.081,0.345,0.958,0.236,-0.186,-0.806,0.329,-0.455,-45.656,0.538,1.262,-0.020,-0.381,-0.550,0.675,-0.311,57.303,0.867,1.183,-0.218,-0.392,-0.526,0.694,-0.297,-85.944,0.915,1.183,-0.138,-0.768,-0.582,0.214,0.162,-89.954,0.993,1.157,-0.185,-0.768,-0.582,0.214,0.162,0.000,0.974,1.078,-0.174,-0.954,0.132,0.265,-0.037,True,False
25.796,0.275,0.958,0.120,0.000,-0.877,0.000,-0.480,-32.581,0.348,0.958,0.234,-0.181,-0.812,0.331,-0.445,-45.656,0.534,1.262,-0.026,-0.372,-0.554,0.680,-0.303,57.303,0.858,1.183,-0.233,-0.383,-0.530,0.699,-0.290,-85.944,0.908,1.183,-0.155,-0.765,-0.580,0.224,0.169,-89.954,0.985,1.157,-0.204,-0.765,-0.580,0.224,0.169,0.000,0.966,1.078,-0.192,-0.951,0.131,0.278,-0.039,True,False
25.899,0.275,0.958,0.120,0.000,-0.883,0.000,-0.469,-34.081,0.351,0.958,0.233,-0.177,-0.818,0.333,-0.434,-45.656,0.530,1.262,-0.033,-0.363,-0.558,0.685,-0.296,57.303,0.848,1.183,-0.248,-0.374,-0.533,0.704,-0.283,-85.944,0.900,1.183,-0.171,-0.762,-0.577,0.234,0.177,-89.954,0.976,1.157,-0.222,-0.762,-0.577,0.234,0.177,0.000,0.957,1.078,-0.210,-0.947,0.131,0.290,-0.040,True,False
26.001,0.275,0.958,0.120,0.000,-0.891,0.000,-0.455,-35.881,0.355,0.958,0.230,-0.172,-0.825,0.336,-0.421,-45.656,0.525,1.262,-0.041,-0.353,-0.563,0.690,-0.287,57.303,0.836,1.183,-0.266,-0.363,-0.538,0.710,-0.275,-85.944,0.891,1.183,-0.191,-0.758,-0.575,0.246,0.186,-89.954,0.965,1.157,-0.244,-0.758,-0.575,0.246,0.186,0.000,0.947,1.078,-0.231,-0.942,0.130,0.305,-0.042,True,False
26.102,0.275,0.958,0.120,0.000,-0.896,0.000,-0.443,-37.381,0.357,0.958,0.228,-0.167,-0.830,0.338,-0.410,-45.656,0.521,1.262,-0.048,-0.344,-0.566,0.695,-0.280,57.303,0.826,1.183,-0.281,-0.353,-0.541,0.715,-0.268,-85.944,0.883,1.183,-0.207,-0.755,-0.572,0.256,0.193,-89.954,0.955,1.157,-0.262,-0.755,-0.572,0.256,0.193,0.000,0.937,1.078,-0.249,-0.938,0.129,0.317,-0.044,True,False
26.203,0.275,0.958,0.120,0.000,-0.902,0.000,-0.431,-38.880,0.360,0.958,0.226,-0.163,-0.835,0.340,-0.400,-45.656,0.516,1.262,-0.054,-0.334,-0.570,0.699,-0.273,57.303,0.815,1.183,-0.295,-0.344,-0.545,0.719,-0.261,-85.944,0.874,1.183,-0.223,-0.752,-0.570,0.266,0.201,-89.954,0.945,1.157,-0.280,-0.752,-0.570,0.266,0.201,0.000,0.927,1.078,-0.266,-0.934,0.129,0.330,-0.046,True,False
26.307,0.275,0.958,0.120,0.000,-0.908,0.000,-0.420,-40.380,0.363,0.958,0.223,-0.158,-0.841,0.343,-0.389,-45.656,0.512,1.262,-0.060,-0.325,-0.573,0.704,-0.265,57.303,0.804,1.183,-0.309,-0.334,-0.548,0.724,-0.253,-85.944,0.865,1.183,-0.238,-0.748,-0.567,0.275,0.208,-89.954,0.934,1.157,-0.297,-0.748,-0.567,0.275,0.208,0.000,0.917,1.078,-0.283,-0.930,0.128,0.342,-0.048,True,False
26.417,0.275,0.958,0.120,0.000,-0.913,0.000,-0.408,-41.880,0.366,0.958,0.221,-0.154,-0.846,0.345,-0.378,-45.656,0.507,1.262,-0.066,-0.316,-0.577,0.708,-0.258,57.303,0.793,1.183,-0.323,-0.325,-0.551,0.728,-0.246,-85.944,0.855,1.183,-0.254,-0.744,-0.564,0.285,0.216,-89.954,0.923,1.157,-0.314,-0.744,-0.564,0.285,0.216,0.000,0.906,1.078,-0.299,-0.925,0.127,0.354,-0.049,True,False
26.523,0.275,0.958,0.120,0.000,-0.919,0.000,-0.393,-43.680,0.369,0.958,0.218,-0.148,-0.851,0.347,-0.364,-45.656,0.501,1.262,-0.073,-0.305,-0.581,0.713,-0.248,57.303,0.779,1.183,-0.339,-0.313,-0.555,0.733,-0.238,-85.944,0.843,1.183,-0.272,-0.740,-0.561,0.297,0.224,-89.954,0.909,1.157,-0.334,-0.740,-0.561,0.297,0.224,0.000,0.893,1.078,-0.319,-0.920,0.127,0.369,-0.051,True,False
26.626,0.275,0.958,0.120,0.000,-0.924,0.000,-0.381,-45.180,0.371,0.958,0.216,-0.144,-0.856,0.349,-0.353,-45.656,0.496,1.262,-0.079,-0.296,-0.584,0.717,-0.241,57.303,0.767,1.183,-0.352,-0.304,-0.558,0.737,-0.230,-85.944,0.833,1.183,-0.286,-0.736,-0.558,0.306,0.232,-89.954,0.897,1.157,-0.351,-0.736,-0.558,0.306,0.232,0.000,0.881,1.078,-0.335,-0.915,0.126,0.381,-0.053,True,False
26.731,0.275,0.958,0.120,0.000,-0.929,0.000,-0.369,-46.680,0.374,0.958,0.213,-0.139,-0.861,0.351,-0.342,-45.656,0.491,1.262,-0.085,-0.286,-0.587,0.720,-0.233,57.303,0.754,1.183,-0.365,-0.294,-0.561,0.741,-0.223,-85.944,0.822,1.183,-0.301,-0.732,-0.555,0.316,0.239,-89.954,0.884,1.157,-0.367,-0.732,-0.555,0.316,0.239,0.000,0.869,1.078,-0.351,-0.910,0.125,0.393,-0.054,True,False
26.835,0.275,0.958,0.120,0.000,-0.934,0.000,-0.357,-48.180,0.376,0.958,0.211,-0.135,-0.865,0.353,-0.331,-45.656,0.485,1.262,-0.091,-0.277,-0.590,0.724,-0.225,57.303,0.741,1.183,-0.377,-0.284,-0.564,0.745,-0.216,-85.944,0.811,1.183,-0.315,-0.728,-0.551,0.326,0.246,-89.954,0.871,1.157,-0.383,-0.728,-0.551,0.326,0.246,0.000,0.857,1.078,-0.366,-0.904,0.125,0.404,-0.056,True,False
26.936,0.275,0.958,0.120,0.000,-0.939,0.000,-0.345,-49.680,0.379,0.958,0.208,-0.130,-0.869,0.354,-0.319,-45.656,0.480,1.262,-0.096,-0.267,-0.593,0.728,-0.218,57.303,0.728,1.183,-0.389,-0.275,-0.567,0.748,-0.208,-85.944,0.799,1.183,-0.329,-0.723,-0.548,0.335,0.253,-89.954,0.858,1.157,-0.398,-0.723,-0.548,0.335,0.253,0.000,0.844,1.078,-0.381,-0.899,0.124,0.416,-0.058,True,False
27.041,0.275,0.958,0.120,0.000,-0.944,0.000,-0.330,-51.480,0.381,0.958,0.205,-0.124,-0.874,0.356,-0.305,-45.656,0.473,1.262,-0.102,-0.256,-0.596,0.732,-0.208,57.303,0.712,1.183,-0.403,-0.263,-0.570,0.752,-0.199,-85.944,0.785,1.183,-0.345,-0.718,-0.544,0.346,0.262,-89.954,0.841,1.157,-0.416,-0.718,-0.544,0.346,0.262,0.000,0.828,1.078,-0.399,-0.892,0.123,0.430,-0.060,True,False
27.142,0.275,0.958,0.120,0.000,-0.948,0.000,-0.317,-52.980,0.383,0.958,0.202,-0.120,-0.878,0.358,-0.294,-45.656,0.467,1.262,-0.107,-0.246,-0.599,0.735,-0.201,57.303,0.698,1.183,-0.414,-0.253,-0.573,0.756,-0.192,-85.944,0.772,1.183,-0.358,-0.713,-0.541,0.356,0.269,-89.954,0.827,1.157,-0.431,-0.713,-0.541,0.356,0.269,0.000,0.814,1.078,-0.413,-0.887,0.122,0.442,-0.061,True,False
27.245,0.275,0.958,0.120,0.000,-0.952,0.000,-0.305,-54.480,0.386,0.958,0.199,-0.115,-0.882,0.359,-0.282,-45.656,0.461,1.262,-0.112,-0.236,-0.602,0.738,-0.193,57.303,0.684,1.183,-0.425,-0.243,-0.575,0.759,-0.184,-85.944,0.760,1.183,-0.371,-0.709,-0.537,0.365,0.276,-89.954,0.813,1.157,-0.445,-0.709,-0.537,0.365,0.276,0.000,0.800,1.078,-0.427,-0.881,0.121,0.453,-0.063,True,False
27.348,0.275,0.958,0.120,0.000,-0.956,0.000,-0.293,-55.980,0.388,0.958,0.196,-0.110,-0.886,0.361,-0.271,-45.656,0.455,1.262,-0.117,-0.227,-0.604,0.741,-0.185,57.303,0.670,1.183,-0.436,-0.233,-0.577,0.762,-0.177,-85.944,0.747,1.183,-0.384,-0.704,-0.533,0.374,0.283,-89.954,0.798,1.157,-0.459,-0.704,-0.533,0.374,0.283,0.000,0.785,1.078,-0.441,-0.875,0.120,0.465,-0.064,True,False
27.453,0.275,0.958,0.120,0.000,-0.960,0.000,-0.280,-57.480,0.390,0.958,0.193,-0.106,-0.889,0.362,-0.259,-45.656,0.448,1.262,-0.122,-0.217,-0.606,0.744,-0.177,57.303,0.655,1.183,-0.446,-0.223,-0.580,0.765,-0.169,-85.944,0.733,1.183,-0.396,-0.699,-0.530,0.384,0.290,-89.954,0.782,1.157,-0.473,-0.699,-0.530,0.384,0.290,0.000,0.770,1.078,-0.454,-0.869,0.120,0.476,-0.066,True,False
27.556,0.275,0.958,0.120,0.000,-0.964,0.000,-0.267,-58.980,0.391,0.958,0.190,-0.101,-0.892,0.364,-0.248,-45.656,0.442,1.262,-0.126,-0.207,-0.609,0.747,-0.169,57.303,0.640,1.183,-0.455,-0.213,-0.582,0.768,-0.161,-85.944,0.720,1.183,-0.408,-0.694,-0.526,0.393,0.297,-89.954,0.767,1.157,-0.486,-0.694,-0.526,0.393,0.297,0.000,0.755,1.078,-0.467,-0.862,0.119,0.488,-0.068,True,False
