kendriklim/UROP-VLM-Robotics/ur5_simulation/AgenticAIPaths/old/ur5_right.csv
Timestamp,base_PosX,base_PosY,base_PosZ,base_RotX,base_RotY,base_RotZ,base_RotW,base_jointAngle,shoulder_PosX,shoulder_PosY,shoulder_PosZ,shoulder_RotX,shoulder_RotY,shoulder_RotZ,shoulder_RotW,shoulder_jointAngle,elbow_PosX,elbow_PosY,elbow_PosZ,elbow_RotX,elbow_RotY,elbow_RotZ,elbow_RotW,elbow_jointAngle,wrist1_PosX,wrist1_PosY,wrist1_PosZ,wrist1_RotX,wrist1_RotY,wrist1_RotZ,wrist1_RotW,wrist1_jointAngle,wrist2_PosX,wrist2_PosY,wrist2_PosZ,wrist2_RotX,wrist2_RotY,wrist2_RotZ,wrist2_RotW,wrist2_jointAngle,wrist3_PosX,wrist3_PosY,wrist3_PosZ,wrist3_RotX,wrist3_RotY,wrist3_RotZ,wrist3_RotW,wrist3_jointAngle,ee_PosX,ee_PosY,ee_PosZ,ee_RotX,ee_RotY,ee_RotZ,ee_RotW,suctionOn,blockAttracted
0.000,1.454,0.953,-0.014,0.000,-0.695,0.000,0.719,-1.916,1.449,0.953,-0.150,0.415,-0.568,0.401,0.587,-19.499,1.053,1.095,-0.017,0.621,-0.350,0.600,0.362,48.950,0.712,0.902,-0.005,0.673,-0.244,0.651,0.253,-70.596,0.709,0.902,-0.098,0.143,-0.042,0.925,0.349,-74.374,0.646,0.831,-0.096,0.143,-0.042,0.925,0.349,0.002,0.705,0.779,-0.120,0.071,-0.131,0.901,-0.408,False,False
0.106,1.454,0.953,-0.014,0.000,-0.702,0.000,0.712,-0.789,1.452,0.953,-0.150,0.281,-0.645,0.277,0.654,-43.462,1.145,1.246,-0.026,0.560,-0.434,0.552,0.440,57.129,0.764,1.153,-0.021,0.575,-0.414,0.567,0.420,-85.908,0.763,1.153,-0.114,0.006,0.003,0.808,0.589,-89.888,0.673,1.124,-0.112,0.006,0.003,0.808,0.589,0.000,0.698,1.046,-0.113,0.007,-0.002,0.988,-0.154,False,False
0.226,1.454,0.953,-0.014,0.000,-0.706,0.000,0.709,-0.249,1.453,0.953,-0.150,0.269,-0.653,0.268,0.656,-45.429,1.156,1.256,-0.029,0.550,-0.445,0.548,0.447,57.300,0.772,1.175,-0.027,0.566,-0.425,0.563,0.427,-85.944,0.771,1.175,-0.120,0.002,0.001,0.798,0.602,-89.954,0.680,1.149,-0.120,0.002,0.001,0.798,0.602,0.000,0.703,1.070,-0.120,0.002,-0.001,0.990,-0.139,False,False
0.346,1.454,0.953,-0.014,0.000,-0.707,0.000,0.708,-0.090,1.454,0.953,-0.150,0.267,-0.654,0.267,0.655,-45.630,1.157,1.257,-0.030,0.549,-0.446,0.548,0.447,57.303,0.773,1.178,-0.029,0.564,-0.427,0.563,0.427,-85.944,0.772,1.178,-0.122,0.001,0.000,0.797,0.604,-89.954,0.681,1.152,-0.122,0.001,0.000,0.797,0.604,0.000,0.704,1.073,-0.122,0.001,-0.001,0.991,-0.137,False,False
0.451,1.454,0.953,-0.014,0.000,-0.707,0.000,0.707,-0.048,1.454,0.953,-0.150,0.267,-0.655,0.267,0.655,-45.652,1.157,1.257,-0.030,0.548,-0.446,0.548,0.447,57.303,0.773,1.178,-0.030,0.564,-0.427,0.563,0.427,-85.944,0.773,1.178,-0.123,0.001,0.000,0.797,0.604,-89.954,0.682,1.152,-0.123,0.001,0.000,0.797,0.604,0.000,0.704,1.073,-0.123,0.000,0.000,0.991,-0.137,False,False
0.551,1.454,0.953,-0.014,0.000,-0.707,0.000,0.707,-0.032,1.454,0.953,-0.150,0.267,-0.655,0.267,0.655,-45.655,1.157,1.257,-0.030,0.548,-0.447,0.548,0.447,57.303,0.773,1.178,-0.030,0.564,-0.427,0.563,0.427,-85.944,0.773,1.178,-0.123,0.001,0.000,0.797,0.604,-89.954,0.682,1.152,-0.123,0.001,0.000,0.797,0.604,0.000,0.704,1.073,-0.123,0.000,0.000,0.991,-0.137,False,False
0.663,1.454,0.953,-0.014,0.000,-0.707,0.000,0.707,-0.026,1.454,0.953,-0.150,0.267,-0.655,0.267,0.655,-45.656,1.157,1.257,-0.030,0.548,-0.447,0.548,0.447,57.303,0.773,1.178,-0.030,0.564,-0.427,0.563,0.427,-85.944,0.773,1.178,-0.123,0.000,0.000,0.797,0.604,-89.954,0.682,1.152,-0.123,0.000,0.000,0.797,0.604,0.000,0.704,1.073,-0.123,0.000,0.000,0.991,-0.137,False,False
0.767,1.454,0.953,-0.014,0.000,-0.707,0.000,0.707,-0.024,1.454,0.953,-0.150,0.267,-0.655,0.267,0.655,-45.656,1.157,1.257,-0.030,0.548,-0.447,0.548,0.447,57.303,0.773,1.178,-0.030,0.564,-0.427,0.564,0.427,-85.944,0.773,1.178,-0.123,0.000,0.000,0.797,0.604,-89.954,0.682,1.152,-0.123,0.000,0.000,0.797,0.604,0.000,0.704,1.073,-0.123,0.000,0.000,0.991,-0.137,False,False
0.876,1.454,0.953,-0.014,0.000,-0.707,0.000,0.707,-0.024,1.454,0.953,-0.150,0.267,-0.655,0.267,0.655,-45.656,1.157,1.257,-0.030,0.548,-0.447,0.548,0.447,57.303,0.773,1.178,-0.030,0.564,-0.427,0.564,0.427,-85.944,0.773,1.178,-0.123,0.000,0.000,0.797,0.604,-89.954,0.682,1.152,-0.123,0.000,0.000,0.797,0.604,0.000,0.704,1.073,-0.123,0.000,0.000,0.991,-0.137,False,False
1.002,1.454,0.953,-0.014,0.000,-0.707,0.000,0.707,-0.023,1.454,0.953,-0.150,0.267,-0.655,0.267,0.655,-45.656,1.157,1.257,-0.030,0.548,-0.447,0.548,0.447,57.303,0.773,1.178,-0.030,0.564,-0.427,0.564,0.427,-85.944,0.773,1.178,-0.123,0.000,0.000,0.797,0.604,-89.954,0.682,1.152,-0.123,0.000,0.000,0.797,0.604,0.000,0.704,1.073,-0.123,0.000,0.000,0.991,-0.137,False,False
1.108,1.454,0.953,-0.014,0.000,-0.707,0.000,0.707,-0.023,1.454,0.953,-0.150,0.267,-0.655,0.267,0.655,-45.656,1.157,1.257,-0.030,0.548,-0.447,0.548,0.447,57.303,0.773,1.178,-0.030,0.564,-0.427,0.564,0.427,-85.944,0.773,1.178,-0.123,0.000,0.000,0.797,0.604,-89.954,0.682,1.152,-0.123,0.000,0.000,0.797,0.604,0.000,0.704,1.073,-0.123,0.000,0.000,0.991,-0.137,False,False
1.216,1.454,0.953,-0.014,0.000,-0.707,0.000,0.707,-0.023,1.454,0.953,-0.150,0.267,-0.655,0.267,0.655,-45.656,1.157,1.257,-0.030,0.548,-0.447,0.548,0.447,57.303,0.773,1.178,-0.030,0.564,-0.427,0.564,0.427,-85.944,0.773,1.178,-0.123,0.000,0.000,0.797,0.604,-89.954,0.682,1.152,-0.123,0.000,0.000,0.797,0.604,0.000,0.704,1.073,-0.123,0.000,0.000,0.991,-0.137,False,False
1.321,1.454,0.953,-0.014,0.000,-0.707,0.000,0.707,-0.023,1.454,0.953,-0.150,0.267,-0.655,0.267,0.655,-45.656,1.157,1.257,-0.030,0.548,-0.447,0.548,0.447,57.303,0.773,1.178,-0.030,0.564,-0.427,0.564,0.427,-85.944,0.773,1.178,-0.123,0.000,0.000,0.797,0.604,-89.954,0.682,1.152,-0.123,0.000,0.000,0.797,0.604,0.000,0.704,1.073,-0.123,0.000,0.000,0.991,-0.137,False,False
1.423,1.454,0.953,-0.014,0.000,-0.707,0.000,0.707,-0.023,1.454,0.953,-0.150,0.267,-0.655,0.267,0.655,-45.656,1.157,1.257,-0.030,0.548,-0.447,0.548,0.447,57.303,0.773,1.178,-0.030,0.564,-0.427,0.564,0.427,-85.944,0.773,1.178,-0.123,0.000,0.000,0.797,0.604,-89.954,0.682,1.152,-0.123,0.000,0.000,0.797,0.604,0.000,0.704,1.073,-0.123,0.000,0.000,0.991,-0.137,False,False
1.528,1.454,0.953,-0.014,0.000,-0.707,0.000,0.707,-0.023,1.454,0.953,-0.150,0.267,-0.655,0.267,0.655,-45.656,1.157,1.257,-0.030,0.548,-0.447,0.548,0.447,57.303,0.773,1.178,-0.030,0.564,-0.427,0.564,0.427,-85.944,0.773,1.178,-0.123,0.000,0.000,0.797,0.604,-89.954,0.682,1.152,-0.123,0.000,0.000,0.797,0.604,0.000,0.704,1.073,-0.123,0.000,0.000,0.991,-0.137,False,False
1.630,1.454,0.953,-0.014,0.000,-0.707,0.000,0.707,-0.023,1.454,0.953,-0.150,0.267,-0.655,0.267,0.655,-45.656,1.157,1.257,-0.030,0.548,-0.447,0.548,0.447,57.303,0.773,1.178,-0.030,0.564,-0.427,0.564,0.427,-85.944,0.773,1.178,-0.123,0.000,0.000,0.797,0.604,-89.954,0.682,1.152,-0.123,0.000,0.000,0.797,0.604,0.000,0.704,1.073,-0.123,0.000,0.000,0.991,-0.137,False,False
1.733,1.454,0.953,-0.014,0.000,-0.707,0.000,0.707,-0.023,1.454,0.953,-0.150,0.267,-0.655,0.267,0.655,-45.656,1.157,1.257,-0.030,0.548,-0.447,0.548,0.447,57.303,0.773,1.178,-0.030,0.564,-0.427,0.564,0.427,-85.944,0.773,1.178,-0.123,0.000,0.000,0.797,0.604,-89.954,0.682,1.152,-0.123,0.000,0.000,0.797,0.604,0.000,0.704,1.073,-0.123,0.000,0.000,0.991,-0.137,False,False
1.843,1.454,0.953,-0.014,0.000,-0.707,0.000,0.707,-0.023,1.454,0.953,-0.150,0.267,-0.655,0.267,0.655,-45.656,1.157,1.257,-0.030,0.548,-0.447,0.548,0.447,57.303,0.773,1.178,-0.030,0.564,-0.427,0.564,0.427,-85.944,0.773,1.178,-0.123,0.000,0.000,0.797,0.604,-89.954,0.682,1.152,-0.123,0.000,0.000,0.797,0.604,0.000,0.704,1.073,-0.123,0.000,0.000,0.991,-0.137,False,False
1.948,1.454,0.953,-0.014,0.000,-0.707,0.000,0.707,-0.023,1.454,0.953,-0.150,0.267,-0.655,0.267,0.655,-45.656,1.157,1.257,-0.030,0.548,-0.447,0.548,0.447,57.303,0.773,1.178,-0.030,0.564,-0.427,0.564,0.427,-85.944,0.773,1.178,-0.123,0.000,0.000,0.797,0.604,-89.954,0.682,1.152,-0.123,0.000,0.000,0.797,0.604,0.000,0.704,1.073,-0.123,0.000,0.000,0.991,-0.137,False,False
2.049,1.454,0.953,-0.014,0.000,-0.707,0.000,0.707,-0.023,1.454,0.953,-0.150,0.267,-0.655,0.267,0.655,-45.656,1.157,1.257,-0.030,0.548,-0.447,0.548,0.447,57.303,0.773,1.178,-0.030,0.564,-0.427,0.564,0.427,-85.944,0.773,1.178,-0.123,0.000,0.000,0.797,0.604,-89.954,0.682,1.152,-0.123,0.000,0.000,0.797,0.604,0.000,0.704,1.073,-0.123,0.000,0.000,0.991,-0.137,False,False
2.151,1.454,0.953,-0.014,0.000,-0.707,0.000,0.707,-0.023,1.454,0.953,-0.150,0.267,-0.655,0.267,0.655,-45.656,1.157,1.257,-0.030,0.548,-0.447,0.548,0.447,57.303,0.773,1.178,-0.030,0.564,-0.427,0.564,0.427,-85.944,0.773,1.178,-0.123,0.000,0.000,0.797,0.604,-89.954,0.682,1.152,-0.123,0.000,0.000,0.797,0.604,0.000,0.704,1.073,-0.123,0.000,0.000,0.991,-0.137,False,False
2.255,1.454,0.953,-0.014,0.000,-0.707,0.000,0.707,-0.023,1.454,0.953,-0.150,0.267,-0.655,0.267,0.655,-45.656,1.157,1.257,-0.030,0.548,-0.447,0.548,0.447,57.303,0.773,1.178,-0.030,0.564,-0.427,0.564,0.427,-85.944,0.773,1.178,-0.123,0.000,0.000,0.797,0.604,-89.954,0.682,1.152,-0.123,0.000,0.000,0.797,0.604,0.000,0.704,1.073,-0.123,0.000,0.000,0.991,-0.137,False,False
2.358,1.454,0.953,-0.014,0.000,-0.707,0.000,0.707,-0.023,1.454,0.953,-0.150,0.267,-0.655,0.267,0.655,-45.656,1.157,1.257,-0.030,0.548,-0.447,0.548,0.447,57.303,0.773,1.178,-0.030,0.564,-0.427,0.564,0.427,-85.944,0.773,1.178,-0.123,0.000,0.000,0.797,0.604,-89.954,0.682,1.152,-0.123,0.000,0.000,0.797,0.604,0.000,0.704,1.073,-0.123,0.000,0.000,0.991,-0.137,False,False
2.458,1.454,0.953,-0.014,0.000,-0.707,0.000,0.707,-0.023,1.454,0.953,-0.150,0.267,-0.655,0.267,0.655,-45.656,1.157,1.257,-0.030,0.548,-0.447,0.548,0.447,57.303,0.773,1.178,-0.030,0.564,-0.427,0.564,0.427,-85.944,0.773,1.178,-0.123,0.000,0.000,0.797,0.604,-89.954,0.682,1.152,-0.123,0.000,0.000,0.797,0.604,0.000,0.704,1.073,-0.123,0.000,0.000,0.991,-0.137,False,False
2.559,1.454,0.953,-0.014,0.000,-0.707,0.000,0.707,-0.023,1.454,0.953,-0.150,0.267,-0.655,0.267,0.655,-45.656,1.157,1.257,-0.030,0.548,-0.447,0.548,0.447,57.303,0.773,1.178,-0.030,0.564,-0.427,0.564,0.427,-85.944,0.773,1.178,-0.123,0.000,0.000,0.797,0.604,-89.954,0.682,1.152,-0.123,0.000,0.000,0.797,0.604,0.000,0.704,1.073,-0.123,0.000,0.000,0.991,-0.137,False,False
2.661,1.454,0.953,-0.014,0.000,-0.707,0.000,0.707,-0.023,1.454,0.953,-0.150,0.267,-0.655,0.267,0.655,-45.656,1.157,1.257,-0.030,0.548,-0.447,0.548,0.447,57.303,0.773,1.178,-0.030,0.564,-0.427,0.564,0.427,-85.944,0.773,1.178,-0.123,0.000,0.000,0.797,0.604,-89.954,0.682,1.152,-0.123,0.000,0.000,0.797,0.604,0.000,0.704,1.073,-0.123,0.000,0.000,0.991,-0.137,False,False
2.761,1.454,0.953,-0.014,0.000,-0.707,0.000,0.707,-0.023,1.454,0.953,-0.150,0.267,-0.655,0.267,0.655,-45.656,1.157,1.257,-0.030,0.548,-0.447,0.548,0.447,57.303,0.773,1.178,-0.030,0.564,-0.427,0.564,0.427,-85.944,0.773,1.178,-0.123,0.000,0.000,0.797,0.604,-89.954,0.682,1.152,-0.123,0.000,0.000,0.797,0.604,0.000,0.704,1.073,-0.123,0.000,0.000,0.991,-0.137,False,False
2.864,1.454,0.953,-0.014,0.000,-0.707,0.000,0.707,-0.023,1.454,0.953,-0.150,0.267,-0.655,0.267,0.655,-45.656,1.157,1.257,-0.030,0.548,-0.447,0.548,0.447,57.303,0.773,1.178,-0.030,0.564,-0.427,0.564,0.427,-85.944,0.773,1.178,-0.123,0.000,0.000,0.797,0.604,-89.954,0.682,1.152,-0.123,0.000,0.000,0.797,0.604,0.000,0.704,1.073,-0.123,0.000,0.000,0.991,-0.137,False,False
2.967,1.454,0.953,-0.014,0.000,-0.707,0.000,0.707,-0.023,1.454,0.953,-0.150,0.267,-0.655,0.267,0.655,-45.656,1.157,1.257,-0.030,0.548,-0.447,0.548,0.447,57.303,0.773,1.178,-0.030,0.564,-0.427,0.564,0.427,-85.944,0.773,1.178,-0.123,0.000,0.000,0.797,0.604,-89.954,0.682,1.152,-0.123,0.000,0.000,0.797,0.604,0.000,0.704,1.073,-0.123,0.000,0.000,0.991,-0.137,False,False
3.069,1.454,0.953,-0.014,0.000,-0.707,0.000,0.707,-0.023,1.454,0.953,-0.150,0.267,-0.655,0.267,0.655,-45.656,1.157,1.257,-0.030,0.548,-0.447,0.548,0.447,57.303,0.773,1.178,-0.030,0.564,-0.427,0.564,0.427,-85.944,0.773,1.178,-0.123,0.000,0.000,0.797,0.604,-89.954,0.682,1.152,-0.123,0.000,0.000,0.797,0.604,0.000,0.704,1.073,-0.123,0.000,0.000,0.991,-0.137,False,False
3.174,1.454,0.953,-0.014,0.000,-0.707,0.000,0.707,-0.023,1.454,0.953,-0.150,0.267,-0.655,0.267,0.655,-45.656,1.157,1.257,-0.030,0.548,-0.447,0.548,0.447,57.303,0.773,1.178,-0.030,0.564,-0.427,0.564,0.427,-85.944,0.773,1.178,-0.123,0.000,0.000,0.797,0.604,-89.954,0.682,1.152,-0.123,0.000,0.000,0.797,0.604,0.000,0.704,1.073,-0.123,0.000,0.000,0.991,-0.137,False,False
3.278,1.454,0.953,-0.014,0.000,-0.707,0.000,0.707,-0.023,1.454,0.953,-0.150,0.267,-0.655,0.267,0.655,-45.656,1.157,1.257,-0.030,0.548,-0.447,0.548,0.447,57.303,0.773,1.178,-0.030,0.564,-0.427,0.564,0.427,-85.944,0.773,1.178,-0.123,0.000,0.000,0.797,0.604,-89.954,0.682,1.152,-0.123,0.000,0.000,0.797,0.604,0.000,0.704,1.073,-0.123,0.000,0.000,0.991,-0.137,False,False
3.382,1.454,0.953,-0.014,0.000,-0.707,0.000,0.707,-0.023,1.454,0.953,-0.150,0.267,-0.655,0.267,0.655,-45.656,1.157,1.257,-0.030,0.548,-0.447,0.548,0.447,57.303,0.773,1.178,-0.030,0.564,-0.427,0.564,0.427,-85.944,0.773,1.178,-0.123,0.000,0.000,0.797,0.604,-89.954,0.682,1.152,-0.123,0.000,0.000,0.797,0.604,0.000,0.704,1.073,-0.123,0.000,0.000,0.991,-0.137,False,False
3.486,1.454,0.953,-0.014,0.000,-0.707,0.000,0.707,-0.023,1.454,0.953,-0.150,0.267,-0.655,0.267,0.655,-45.656,1.157,1.257,-0.030,0.548,-0.447,0.548,0.447,57.303,0.773,1.178,-0.030,0.564,-0.427,0.564,0.427,-85.944,0.773,1.178,-0.123,0.000,0.000,0.797,0.604,-89.954,0.682,1.152,-0.123,0.000,0.000,0.797,0.604,0.000,0.704,1.073,-0.123,0.000,0.000,0.991,-0.137,False,False
3.592,1.454,0.953,-0.014,0.000,-0.707,0.000,0.707,-0.023,1.454,0.953,-0.150,0.267,-0.655,0.267,0.655,-45.656,1.157,1.257,-0.030,0.548,-0.447,0.548,0.447,57.303,0.773,1.178,-0.030,0.564,-0.427,0.564,0.427,-85.944,0.773,1.178,-0.123,0.000,0.000,0.797,0.604,-89.954,0.682,1.152,-0.123,0.000,0.000,0.797,0.604,0.000,0.704,1.073,-0.123,0.000,0.000,0.991,-0.137,False,False
3.697,1.454,0.953,-0.014,0.000,-0.707,0.000,0.707,-0.023,1.454,0.953,-0.150,0.267,-0.655,0.267,0.655,-45.656,1.157,1.257,-0.030,0.548,-0.447,0.548,0.447,57.303,0.773,1.178,-0.030,0.564,-0.427,0.564,0.427,-85.944,0.773,1.178,-0.123,0.000,0.000,0.797,0.604,-89.954,0.682,1.152,-0.123,0.000,0.000,0.797,0.604,0.000,0.704,1.073,-0.123,0.000,0.000,0.991,-0.137,False,False
3.802,1.454,0.953,-0.014,0.000,-0.707,0.000,0.707,-0.023,1.454,0.953,-0.150,0.267,-0.655,0.267,0.655,-45.656,1.157,1.257,-0.030,0.548,-0.447,0.548,0.447,57.303,0.773,1.178,-0.030,0.564,-0.427,0.564,0.427,-85.944,0.773,1.178,-0.123,0.000,0.000,0.797,0.604,-89.954,0.682,1.152,-0.123,0.000,0.000,0.797,0.604,0.000,0.704,1.073,-0.123,0.000,0.000,0.991,-0.137,False,False
3.905,1.454,0.953,-0.014,0.000,-0.707,0.000,0.707,-0.023,1.454,0.953,-0.150,0.267,-0.655,0.267,0.655,-45.656,1.157,1.257,-0.030,0.548,-0.447,0.548,0.447,57.303,0.773,1.178,-0.030,0.564,-0.427,0.564,0.427,-85.944,0.773,1.178,-0.123,0.000,0.000,0.797,0.604,-89.954,0.682,1.152,-0.123,0.000,0.000,0.797,0.604,0.000,0.704,1.073,-0.123,0.000,0.000,0.991,-0.137,False,False
4.010,1.454,0.953,-0.014,0.000,-0.707,0.000,0.707,-0.023,1.454,0.953,-0.150,0.267,-0.655,0.267,0.655,-45.656,1.157,1.257,-0.030,0.548,-0.447,0.548,0.447,57.303,0.773,1.178,-0.030,0.564,-0.427,0.564,0.427,-85.944,0.773,1.178,-0.123,0.000,0.000,0.797,0.604,-89.954,0.682,1.152,-0.123,0.000,0.000,0.797,0.604,0.000,0.704,1.073,-0.123,0.000,0.000,0.991,-0.137,False,False
4.113,1.454,0.953,-0.014,0.000,-0.707,0.000,0.707,-0.023,1.454,0.953,-0.150,0.267,-0.655,0.267,0.655,-45.656,1.157,1.257,-0.030,0.548,-0.447,0.548,0.447,57.303,0.773,1.178,-0.030,0.564,-0.427,0.564,0.427,-85.944,0.773,1.178,-0.123,0.000,0.000,0.797,0.604,-89.954,0.682,1.152,-0.123,0.000,0.000,0.797,0.604,0.000,0.704,1.073,-0.123,0.000,0.000,0.991,-0.137,False,False
4.218,1.454,0.953,-0.014,0.000,-0.707,0.000,0.707,-0.023,1.454,0.953,-0.150,0.267,-0.655,0.267,0.655,-45.656,1.157,1.257,-0.030,0.548,-0.447,0.548,0.447,57.303,0.773,1.178,-0.030,0.564,-0.427,0.564,0.427,-85.944,0.773,1.178,-0.123,0.000,0.000,0.797,0.604,-89.954,0.682,1.152,-0.123,0.000,0.000,0.797,0.604,0.000,0.704,1.073,-0.123,0.000,0.000,0.991,-0.137,False,False
4.322,1.454,0.953,-0.014,0.000,-0.707,0.000,0.707,-0.023,1.454,0.953,-0.150,0.267,-0.655,0.267,0.655,-45.656,1.157,1.257,-0.030,0.548,-0.447,0.548,0.447,57.303,0.773,1.178,-0.030,0.564,-0.427,0.564,0.427,-85.944,0.773,1.178,-0.123,0.000,0.000,0.797,0.604,-89.954,0.682,1.152,-0.123,0.000,0.000,0.797,0.604,0.000,0.704,1.073,-0.123,0.000,0.000,0.991,-0.137,False,False
4.425,1.454,0.953,-0.014,0.000,-0.707,0.000,0.707,-0.023,1.454,0.953,-0.150,0.267,-0.655,0.267,0.655,-45.656,1.157,1.257,-0.030,0.548,-0.447,0.548,0.447,57.303,0.773,1.178,-0.030,0.564,-0.427,0.564,0.427,-85.944,0.773,1.178,-0.123,0.000,0.000,0.797,0.604,-89.954,0.682,1.152,-0.123,0.000,0.000,0.797,0.604,0.000,0.704,1.073,-0.123,0.000,0.000,0.991,-0.137,False,False
4.528,1.454,0.953,-0.014,0.000,-0.707,0.000,0.707,-0.023,1.454,0.953,-0.150,0.267,-0.655,0.267,0.655,-45.656,1.157,1.257,-0.030,0.548,-0.447,0.548,0.447,57.303,0.773,1.178,-0.030,0.564,-0.427,0.564,0.427,-85.944,0.773,1.178,-0.123,0.000,0.000,0.797,0.604,-89.954,0.682,1.152,-0.123,0.000,0.000,0.797,0.604,0.000,0.704,1.073,-0.123,0.000,0.000,0.991,-0.137,False,False
4.631,1.454,0.953,-0.014,0.000,-0.707,0.000,0.707,-0.023,1.454,0.953,-0.150,0.267,-0.655,0.267,0.655,-45.656,1.157,1.257,-0.030,0.548,-0.447,0.548,0.447,57.303,0.773,1.178,-0.030,0.564,-0.427,0.564,0.427,-85.944,0.773,1.178,-0.123,0.000,0.000,0.797,0.604,-89.954,0.682,1.152,-0.123,0.000,0.000,0.797,0.604,0.000,0.704,1.073,-0.123,0.000,0.000,0.991,-0.137,False,False
4.735,1.454,0.953,-0.014,0.000,-0.707,0.000,0.707,-0.023,1.454,0.953,-0.150,0.267,-0.655,0.267,0.655,-45.656,1.157,1.257,-0.030,0.548,-0.447,0.548,0.447,57.303,0.773,1.178,-0.030,0.564,-0.427,0.564,0.427,-85.944,0.773,1.178,-0.123,0.000,0.000,0.797,0.604,-89.954,0.682,1.152,-0.123,0.000,0.000,0.797,0.604,0.000,0.704,1.073,-0.123,0.000,0.000,0.991,-0.137,False,False
4.837,1.454,0.953,-0.014,0.000,-0.707,0.000,0.707,-0.023,1.454,0.953,-0.150,0.267,-0.655,0.267,0.655,-45.656,1.157,1.257,-0.030,0.548,-0.447,0.548,0.447,57.303,0.773,1.178,-0.030,0.564,-0.427,0.564,0.427,-85.944,0.773,1.178,-0.123,0.000,0.000,0.797,0.604,-89.954,0.682,1.152,-0.123,0.000,0.000,0.797,0.604,0.000,0.704,1.073,-0.123,0.000,0.000,0.991,-0.137,False,False
4.938,1.454,0.953,-0.014,0.000,-0.707,0.000,0.707,-0.023,1.454,0.953,-0.150,0.267,-0.655,0.267,0.655,-45.656,1.157,1.257,-0.030,0.548,-0.447,0.548,0.447,57.303,0.773,1.178,-0.030,0.564,-0.427,0.564,0.427,-85.944,0.773,1.178,-0.123,0.000,0.000,0.797,0.604,-89.954,0.682,1.152,-0.123,0.000,0.000,0.797,0.604,0.000,0.704,1.073,-0.123,0.000,0.000,0.991,-0.137,False,False
5.039,1.454,0.953,-0.014,0.000,-0.707,0.000,0.707,-0.023,1.454,0.953,-0.150,0.267,-0.655,0.267,0.655,-45.656,1.157,1.257,-0.030,0.548,-0.447,0.548,0.447,57.303,0.773,1.178,-0.030,0.564,-0.427,0.564,0.427,-85.944,0.773,1.178,-0.123,0.000,0.000,0.797,0.604,-89.954,0.682,1.152,-0.123,0.000,0.000,0.797,0.604,0.000,0.704,1.073,-0.123,0.000,0.000,0.991,-0.137,False,False
5.140,1.454,0.953,-0.014,0.000,-0.707,0.000,0.707,-0.023,1.454,0.953,-0.150,0.267,-0.655,0.267,0.655,-45.656,1.157,1.257,-0.030,0.548,-0.447,0.548,0.447,57.303,0.773,1.178,-0.030,0.564,-0.427,0.564,0.427,-85.944,0.773,1.178,-0.123,0.000,0.000,0.797,0.604,-89.954,0.682,1.152,-0.123,0.000,0.000,0.797,0.604,0.000,0.704,1.073,-0.123,0.000,0.000,0.991,-0.137,False,False
5.245,1.454,0.953,-0.014,0.000,-0.707,0.000,0.707,-0.023,1.454,0.953,-0.150,0.267,-0.655,0.267,0.655,-45.656,1.157,1.257,-0.030,0.548,-0.447,0.548,0.447,57.303,0.773,1.178,-0.030,0.564,-0.427,0.564,0.427,-85.944,0.773,1.178,-0.123,0.000,0.000,0.797,0.604,-89.954,0.682,1.152,-0.123,0.000,0.000,0.797,0.604,0.000,0.704,1.073,-0.123,0.000,0.000,0.991,-0.137,False,False
5.348,1.454,0.953,-0.014,0.000,-0.707,0.000,0.707,-0.023,1.454,0.953,-0.150,0.267,-0.655,0.267,0.655,-45.656,1.157,1.257,-0.030,0.548,-0.447,0.548,0.447,57.303,0.773,1.178,-0.030,0.564,-0.427,0.564,0.427,-85.944,0.773,1.178,-0.123,0.000,0.000,0.797,0.604,-89.954,0.682,1.152,-0.123,0.000,0.000,0.797,0.604,0.000,0.704,1.073,-0.123,0.000,0.000,0.991,-0.137,False,False
5.450,1.454,0.953,-0.014,0.000,-0.707,0.000,0.707,-0.023,1.454,0.953,-0.150,0.267,-0.655,0.267,0.655,-45.656,1.157,1.257,-0.030,0.548,-0.447,0.548,0.447,57.303,0.773,1.178,-0.030,0.564,-0.427,0.564,0.427,-85.944,0.773,1.178,-0.123,0.000,0.000,0.797,0.604,-89.954,0.682,1.152,-0.123,0.000,0.000,0.797,0.604,0.000,0.704,1.073,-0.123,0.000,0.000,0.991,-0.137,False,False
5.554,1.454,0.953,-0.014,0.000,-0.705,0.000,0.709,-0.313,1.453,0.953,-0.150,0.268,-0.653,0.266,0.657,-45.655,1.157,1.257,-0.029,0.550,-0.445,0.547,0.448,57.303,0.773,1.178,-0.026,0.565,-0.426,0.562,0.428,-85.944,0.772,1.178,-0.119,0.002,0.001,0.797,0.604,-89.954,0.681,1.152,-0.119,0.002,0.001,0.797,0.604,0.000,0.703,1.073,-0.119,0.003,-0.001,0.991,-0.137,False,False
5.655,1.454,0.953,-0.014,0.000,-0.699,0.000,0.715,-1.348,1.451,0.953,-0.150,0.270,-0.647,0.264,0.662,-45.655,1.157,1.257,-0.023,0.555,-0.441,0.542,0.452,57.303,0.773,1.178,-0.014,0.570,-0.422,0.557,0.432,-85.944,0.770,1.178,-0.107,0.010,0.007,0.797,0.604,-89.954,0.679,1.152,-0.105,0.010,0.007,0.797,0.604,0.000,0.702,1.073,-0.106,0.012,-0.002,0.991,-0.137,False,False
5.756,1.454,0.953,-0.014,0.000,-0.690,0.000,0.723,-2.678,1.448,0.953,-0.150,0.273,-0.639,0.261,0.670,-45.656,1.157,1.257,-0.016,0.561,-0.436,0.535,0.457,57.303,0.773,1.178,0.002,0.577,-0.417,0.550,0.437,-85.944,0.768,1.178,-0.091,0.019,0.014,0.797,0.604,-89.954,0.677,1.152,-0.087,0.019,0.014,0.797,0.604,0.000,0.700,1.073,-0.088,0.023,-0.004,0.990,-0.137,False,False
5.857,1.454,0.953,-0.014,0.000,-0.681,0.000,0.732,-4.116,1.444,0.953,-0.149,0.276,-0.631,0.257,0.678,-45.656,1.157,1.257,-0.009,0.567,-0.430,0.528,0.462,57.303,0.773,1.178,0.019,0.583,-0.411,0.543,0.442,-85.944,0.767,1.178,-0.074,0.029,0.021,0.797,0.603,-89.954,0.676,1.152,-0.067,0.029,0.021,0.797,0.603,0.000,0.698,1.073,-0.069,0.036,-0.005,0.990,-0.137,False,False
5.959,1.454,0.953,-0.014,0.000,-0.672,0.000,0.741,-5.593,1.441,0.953,-0.149,0.280,-0.622,0.254,0.686,-45.656,1.157,1.257,-0.001,0.574,-0.424,0.521,0.468,57.303,0.774,1.178,0.036,0.590,-0.406,0.535,0.447,-85.944,0.765,1.178,-0.056,0.039,0.029,0.796,0.603,-89.954,0.675,1.152,-0.047,0.039,0.029,0.796,0.603,0.000,0.697,1.073,-0.050,0.048,-0.007,0.989,-0.136,False,False
6.061,1.454,0.953,-0.014,0.000,-0.660,0.000,0.751,-7.384,1.437,0.953,-0.149,0.283,-0.611,0.249,0.696,-45.656,1.157,1.257,0.008,0.582,-0.417,0.512,0.475,57.303,0.776,1.178,0.058,0.599,-0.399,0.526,0.454,-85.944,0.764,1.178,-0.035,0.052,0.039,0.795,0.603,-89.954,0.674,1.152,-0.023,0.052,0.039,0.795,0.603,0.000,0.696,1.073,-0.026,0.064,-0.009,0.989,-0.136,False,False
6.163,1.454,0.953,-0.014,0.000,-0.650,0.000,0.760,-8.882,1.433,0.953,-0.148,0.287,-0.602,0.245,0.704,-45.656,1.158,1.257,0.016,0.589,-0.411,0.504,0.480,57.303,0.778,1.178,0.075,0.606,-0.393,0.518,0.459,-85.944,0.764,1.178,-0.017,0.062,0.047,0.795,0.602,-89.954,0.674,1.152,-0.003,0.062,0.047,0.795,0.602,0.000,0.696,1.073,-0.006,0.077,-0.011,0.988,-0.136,False,False
6.266,1.454,0.953,-0.014,0.000,-0.640,0.000,0.768,-10.381,1.430,0.953,-0.148,0.290,-0.593,0.242,0.711,-45.656,1.159,1.257,0.024,0.595,-0.404,0.496,0.485,57.303,0.781,1.178,0.093,0.612,-0.387,0.510,0.464,-85.944,0.764,1.178,0.001,0.072,0.054,0.794,0.601,-89.954,0.675,1.152,0.018,0.072,0.054,0.794,0.601,0.000,0.697,1.073,0.014,0.090,-0.013,0.987,-0.136,False,False
6.367,1.454,0.953,-0.014,0.000,-0.630,0.000,0.776,-11.881,1.426,0.953,-0.147,0.293,-0.584,0.238,0.719,-45.656,1.160,1.257,0.031,0.602,-0.398,0.488,0.491,57.303,0.784,1.178,0.110,0.619,-0.381,0.502,0.469,-85.944,0.765,1.178,0.019,0.083,0.062,0.793,0.601,-89.954,0.676,1.152,0.038,0.083,0.062,0.793,0.601,0.000,0.698,1.073,0.034,0.103,-0.015,0.985,-0.136,False,False
6.468,1.454,0.953,-0.014,0.000,-0.620,0.000,0.785,-13.381,1.423,0.953,-0.146,0.296,-0.574,0.234,0.727,-45.656,1.161,1.257,0.039,0.608,-0.392,0.481,0.496,57.303,0.788,1.178,0.128,0.625,-0.374,0.494,0.474,-85.944,0.766,1.178,0.037,0.093,0.070,0.792,0.600,-89.954,0.677,1.152,0.059,0.093,0.070,0.792,0.600,0.000,0.699,1.073,0.053,0.115,-0.016,0.984,-0.136,False,False
6.569,1.454,0.953,-0.014,0.000,-0.610,0.000,0.793,-14.881,1.419,0.953,-0.145,0.299,-0.565,0.230,0.734,-45.656,1.163,1.257,0.047,0.615,-0.385,0.473,0.501,57.303,0.791,1.178,0.145,0.632,-0.368,0.486,0.479,-85.944,0.768,1.178,0.055,0.104,0.078,0.790,0.599,-89.954,0.680,1.152,0.079,0.104,0.078,0.790,0.599,0.000,0.701,1.073,0.073,0.128,-0.018,0.982,-0.135,False,False
6.669,1.454,0.953,-0.014,0.000,-0.599,0.000,0.801,-16.381,1.416,0.953,-0.144,0.302,-0.555,0.226,0.741,-45.656,1.164,1.257,0.054,0.621,-0.378,0.464,0.506,57.303,0.796,1.178,0.163,0.638,-0.362,0.478,0.483,-85.944,0.770,1.178,0.073,0.114,0.086,0.789,0.598,-89.954,0.682,1.152,0.099,0.114,0.086,0.789,0.598,0.000,0.704,1.073,0.093,0.141,-0.020,0.981,-0.135,False,False
6.770,1.454,0.953,-0.014,0.000,-0.589,0.000,0.808,-17.881,1.412,0.953,-0.143,0.305,-0.545,0.222,0.749,-45.656,1.166,1.257,0.062,0.627,-0.372,0.456,0.511,57.303,0.801,1.178,0.180,0.644,-0.355,0.469,0.488,-85.944,0.772,1.178,0.091,0.124,0.094,0.787,0.597,-89.954,0.685,1.152,0.119,0.124,0.094,0.787,0.597,0.000,0.707,1.073,0.112,0.154,-0.022,0.979,-0.135,False,False
6.874,1.454,0.953,-0.014,0.000,-0.578,0.000,0.816,-19.381,1.409,0.953,-0.142,0.308,-0.535,0.218,0.756,-45.656,1.168,1.257,0.069,0.633,-0.365,0.448,0.515,57.303,0.806,1.178,0.197,0.650,-0.349,0.461,0.493,-85.944,0.775,1.178,0.109,0.134,0.101,0.786,0.595,-89.954,0.689,1.152,0.139,0.134,0.101,0.786,0.595,0.000,0.710,1.073,0.132,0.167,-0.023,0.976,-0.135,False,False
6.974,1.454,0.953,-0.014,0.000,-0.567,0.000,0.824,-20.881,1.406,0.953,-0.141,0.311,-0.525,0.214,0.763,-45.656,1.171,1.257,0.077,0.638,-0.358,0.440,0.520,57.303,0.812,1.178,0.214,0.656,-0.343,0.452,0.497,-85.944,0.779,1.178,0.127,0.145,0.109,0.784,0.594,-89.954,0.693,1.152,0.159,0.145,0.109,0.784,0.594,0.000,0.714,1.073,0.151,0.180,-0.025,0.974,-0.134,False,False
7.075,1.454,0.953,-0.014,0.000,-0.556,0.000,0.831,-22.381,1.402,0.953,-0.140,0.314,-0.515,0.210,0.769,-45.656,1.173,1.257,0.084,0.644,-0.352,0.431,0.525,57.303,0.818,1.178,0.230,0.662,-0.336,0.444,0.502,-85.944,0.783,1.178,0.144,0.155,0.117,0.782,0.592,-89.954,0.698,1.152,0.179,0.155,0.117,0.782,0.592,0.000,0.719,1.073,0.171,0.192,-0.027,0.972,-0.134,False,False
7.179,1.454,0.953,-0.014,0.000,-0.546,0.000,0.838,-23.881,1.399,0.953,-0.138,0.316,-0.505,0.206,0.776,-45.656,1.176,1.257,0.091,0.650,-0.345,0.423,0.529,57.303,0.825,1.178,0.247,0.668,-0.329,0.435,0.506,-85.944,0.787,1.178,0.162,0.165,0.125,0.780,0.591,-89.954,0.704,1.152,0.199,0.165,0.125,0.780,0.591,0.000,0.724,1.073,0.190,0.205,-0.029,0.969,-0.134,False,False
7.281,1.454,0.953,-0.014,0.000,-0.532,0.000,0.847,-25.681,1.395,0.953,-0.136,0.319,-0.493,0.201,0.784,-45.656,1.179,1.257,0.100,0.656,-0.336,0.413,0.535,57.303,0.833,1.178,0.267,0.675,-0.321,0.424,0.511,-85.944,0.793,1.178,0.183,0.177,0.134,0.777,0.589,-89.954,0.711,1.152,0.222,0.177,0.134,0.777,0.589,0.000,0.731,1.073,0.213,0.220,-0.031,0.966,-0.133,False,False
7.381,1.454,0.953,-0.014,0.000,-0.521,0.000,0.853,-27.181,1.392,0.953,-0.135,0.322,-0.483,0.197,0.790,-45.656,1.182,1.257,0.107,0.662,-0.329,0.404,0.539,57.303,0.841,1.178,0.283,0.680,-0.315,0.415,0.515,-85.944,0.798,1.178,0.200,0.188,0.142,0.775,0.587,-89.954,0.717,1.152,0.242,0.188,0.142,0.775,0.587,0.000,0.737,1.073,0.231,0.233,-0.032,0.963,-0.133,False,False
7.483,1.454,0.953,-0.014,0.000,-0.510,0.000,0.860,-28.681,1.389,0.953,-0.133,0.325,-0.472,0.192,0.797,-45.656,1.186,1.257,0.114,0.667,-0.322,0.395,0.543,57.303,0.849,1.178,0.299,0.686,-0.308,0.406,0.519,-85.944,0.804,1.178,0.217,0.198,0.149,0.772,0.585,-89.954,0.724,1.152,0.261,0.198,0.149,0.772,0.585,0.000,0.744,1.073,0.250,0.245,-0.034,0.960,-0.132,False,False
7.584,1.454,0.953,-0.014,0.000,-0.499,0.000,0.867,-30.181,1.386,0.953,-0.131,0.327,-0.462,0.188,0.803,-45.656,1.189,1.257,0.121,0.672,-0.315,0.387,0.548,57.303,0.857,1.178,0.315,0.691,-0.301,0.397,0.523,-85.944,0.810,1.178,0.234,0.208,0.157,0.770,0.583,-89.954,0.731,1.152,0.280,0.208,0.157,0.770,0.583,0.000,0.751,1.073,0.269,0.258,-0.036,0.956,-0.132,False,False
7.684,1.454,0.953,-0.014,0.000,-0.487,0.000,0.873,-31.681,1.383,0.953,-0.130,0.330,-0.451,0.184,0.809,-45.656,1.193,1.257,0.128,0.677,-0.308,0.378,0.552,57.303,0.866,1.178,0.330,0.696,-0.294,0.388,0.527,-85.944,0.817,1.178,0.251,0.218,0.165,0.767,0.581,-89.954,0.739,1.152,0.299,0.218,0.165,0.767,0.581,0.000,0.758,1.073,0.287,0.270,-0.038,0.953,-0.131,False,False
7.784,1.454,0.953,-0.014,0.000,-0.476,0.000,0.880,-33.181,1.380,0.953,-0.128,0.332,-0.441,0.180,0.815,-45.656,1.197,1.257,0.135,0.682,-0.301,0.369,0.556,57.303,0.875,1.178,0.345,0.701,-0.287,0.379,0.531,-85.944,0.824,1.178,0.267,0.228,0.172,0.764,0.579,-89.954,0.748,1.152,0.317,0.228,0.172,0.764,0.579,0.000,0.766,1.073,0.305,0.283,-0.039,0.949,-0.131,False,False
7.887,1.454,0.953,-0.014,0.000,-0.464,0.000,0.886,-34.681,1.377,0.953,-0.126,0.334,-0.430,0.175,0.820,-45.656,1.201,1.257,0.142,0.687,-0.293,0.360,0.560,57.303,0.885,1.178,0.360,0.706,-0.280,0.370,0.535,-85.944,0.832,1.178,0.284,0.238,0.180,0.761,0.577,-89.954,0.757,1.152,0.336,0.238,0.180,0.761,0.577,0.000,0.775,1.073,0.323,0.295,-0.041,0.946,-0.130,False,False
7.990,1.454,0.953,-0.014,0.000,-0.453,0.000,0.892,-36.181,1.374,0.953,-0.124,0.337,-0.419,0.171,0.826,-45.656,1.205,1.257,0.148,0.691,-0.286,0.351,0.563,57.303,0.895,1.178,0.375,0.711,-0.273,0.361,0.538,-85.944,0.840,1.178,0.300,0.248,0.187,0.758,0.574,-89.954,0.766,1.152,0.354,0.248,0.187,0.758,0.574,0.000,0.784,1.073,0.341,0.308,-0.043,0.942,-0.130,False,False
8.092,1.454,0.953,-0.014,0.000,-0.441,0.000,0.898,-37.680,1.371,0.953,-0.122,0.339,-0.408,0.166,0.831,-45.656,1.209,1.257,0.155,0.696,-0.279,0.342,0.567,57.303,0.905,1.178,0.390,0.715,-0.266,0.351,0.542,-85.944,0.848,1.178,0.316,0.258,0.195,0.754,0.572,-89.954,0.776,1.152,0.372,0.258,0.195,0.754,0.572,0.000,0.794,1.073,0.358,0.320,-0.044,0.938,-0.129,False,False
8.195,1.454,0.953,-0.014,0.000,-0.429,0.000,0.903,-39.180,1.368,0.953,-0.119,0.341,-0.397,0.162,0.836,-45.656,1.214,1.257,0.161,0.700,-0.271,0.333,0.571,57.303,0.916,1.178,0.404,0.720,-0.259,0.342,0.545,-85.944,0.857,1.178,0.332,0.268,0.202,0.751,0.569,-89.954,0.786,1.152,0.389,0.268,0.202,0.751,0.569,0.000,0.804,1.073,0.375,0.332,-0.046,0.933,-0.129,False,False
8.300,1.454,0.953,-0.014,0.000,-0.417,0.000,0.909,-40.680,1.365,0.953,-0.117,0.343,-0.386,0.157,0.842,-45.656,1.218,1.257,0.167,0.705,-0.264,0.323,0.574,57.303,0.927,1.178,0.418,0.724,-0.252,0.333,0.549,-85.944,0.866,1.178,0.347,0.277,0.210,0.747,0.566,-89.954,0.797,1.152,0.407,0.277,0.210,0.747,0.566,0.000,0.814,1.073,0.392,0.344,-0.048,0.929,-0.128,False,False
8.400,1.454,0.953,-0.014,0.000,-0.403,0.000,0.915,-42.480,1.362,0.953,-0.114,0.345,-0.373,0.152,0.848,-45.656,1.224,1.257,0.175,0.710,-0.255,0.312,0.578,57.303,0.941,1.178,0.434,0.730,-0.243,0.321,0.553,-85.944,0.878,1.178,0.366,0.289,0.219,0.743,0.563,-89.954,0.811,1.152,0.427,0.289,0.219,0.743,0.563,0.000,0.827,1.073,0.412,0.359,-0.050,0.923,-0.127,False,False
8.502,1.454,0.953,-0.014,0.000,-0.391,0.000,0.920,-43.980,1.360,0.953,-0.112,0.347,-0.362,0.148,0.852,-45.656,1.229,1.257,0.181,0.714,-0.247,0.303,0.581,57.303,0.953,1.178,0.447,0.734,-0.236,0.312,0.556,-85.944,0.888,1.178,0.381,0.299,0.226,0.739,0.560,-89.954,0.822,1.152,0.444,0.299,0.226,0.739,0.560,0.000,0.838,1.073,0.428,0.371,-0.052,0.919,-0.127,False,False
8.604,1.454,0.953,-0.014,0.000,-0.379,0.000,0.925,-45.480,1.357,0.953,-0.109,0.349,-0.351,0.143,0.857,-45.656,1.234,1.257,0.186,0.717,-0.239,0.294,0.585,57.303,0.965,1.178,0.460,0.738,-0.229,0.302,0.559,-85.944,0.899,1.178,0.395,0.308,0.233,0.735,0.557,-89.954,0.835,1.152,0.460,0.308,0.233,0.735,0.557,0.000,0.850,1.073,0.444,0.383,-0.053,0.914,-0.126,False,False
8.707,1.454,0.953,-0.014,0.000,-0.367,0.000,0.930,-46.980,1.355,0.953,-0.107,0.351,-0.340,0.138,0.862,-45.656,1.240,1.257,0.192,0.721,-0.232,0.284,0.588,57.303,0.977,1.178,0.473,0.742,-0.221,0.292,0.562,-85.944,0.909,1.178,0.410,0.318,0.240,0.731,0.554,-89.954,0.847,1.152,0.476,0.318,0.240,0.731,0.554,0.000,0.862,1.073,0.460,0.395,-0.055,0.909,-0.125,False,False
8.812,1.454,0.953,-0.014,0.000,-0.354,0.000,0.935,-48.480,1.352,0.953,-0.104,0.353,-0.328,0.134,0.866,-45.656,1.245,1.257,0.198,0.725,-0.224,0.275,0.591,57.303,0.990,1.178,0.485,0.745,-0.214,0.283,0.565,-85.944,0.921,1.178,0.424,0.328,0.248,0.727,0.551,-89.954,0.860,1.152,0.492,0.328,0.248,0.727,0.551,0.000,0.875,1.073,0.475,0.407,-0.056,0.903,-0.124,False,False
8.913,1.454,0.953,-0.014,0.000,-0.342,0.000,0.940,-49.980,1.350,0.953,-0.101,0.355,-0.317,0.129,0.870,-45.656,1.251,1.257,0.203,0.728,-0.216,0.265,0.594,57.303,1.004,1.178,0.497,0.749,-0.207,0.273,0.567,-85.944,0.932,1.178,0.438,0.337,0.255,0.722,0.547,-89.954,0.874,1.152,0.507,0.337,0.255,0.722,0.547,0.000,0.888,1.073,0.490,0.419,-0.058,0.898,-0.124,False,False
9.013,1.454,0.953,-0.014,0.000,-0.330,0.000,0.944,-51.480,1.348,0.953,-0.099,0.356,-0.305,0.124,0.874,-45.656,1.256,1.257,0.208,0.732,-0.208,0.256,0.596,57.303,1.017,1.178,0.509,0.752,-0.199,0.263,0.570,-85.944,0.944,1.178,0.451,0.346,0.262,0.718,0.544,-89.954,0.888,1.152,0.522,0.346,0.262,0.718,0.544,0.000,0.901,1.073,0.505,0.430,-0.060,0.892,-0.123,False,False
9.116,1.454,0.953,-0.014,0.000,-0.317,0.000,0.948,-52.980,1.346,0.953,-0.096,0.358,-0.294,0.120,0.878,-45.656,1.262,1.257,0.213,0.735,-0.201,0.246,0.599,57.303,1.031,1.178,0.520,0.756,-0.192,0.253,0.573,-85.944,0.957,1.178,0.464,0.356,0.269,0.713,0.541,-89.954,0.902,1.152,0.537,0.356,0.269,0.713,0.541,0.000,0.915,1.073,0.519,0.442,-0.061,0.887,-0.122,False,False
9.219,1.454,0.953,-0.014,0.000,-0.305,0.000,0.952,-54.480,1.343,0.953,-0.093,0.359,-0.282,0.115,0.882,-45.656,1.268,1.257,0.218,0.738,-0.193,0.236,0.602,57.303,1.045,1.178,0.531,0.759,-0.184,0.243,0.575,-85.944,0.969,1.178,0.477,0.365,0.276,0.709,0.537,-89.954,0.916,1.152,0.551,0.365,0.276,0.709,0.537,0.000,0.929,1.073,0.533,0.453,-0.063,0.881,-0.121,False,False
9.321,1.454,0.953,-0.014,0.000,-0.290,0.000,0.957,-56.280,1.341,0.953,-0.089,0.361,-0.269,0.109,0.886,-45.656,1.276,1.257,0.224,0.742,-0.183,0.225,0.605,57.303,1.062,1.178,0.544,0.763,-0.175,0.231,0.578,-85.944,0.985,1.178,0.492,0.376,0.285,0.703,0.533,-89.954,0.934,1.152,0.568,0.376,0.285,0.703,0.533,0.000,0.947,1.073,0.549,0.467,-0.065,0.874,-0.120,False,False
9.421,1.454,0.953,-0.014,0.000,-0.277,0.000,0.961,-57.780,1.339,0.953,-0.086,0.363,-0.257,0.105,0.890,-45.656,1.282,1.257,0.229,0.745,-0.175,0.215,0.607,57.303,1.077,1.178,0.554,0.766,-0.168,0.221,0.580,-85.944,0.998,1.178,0.504,0.385,0.292,0.698,0.529,-89.954,0.950,1.152,0.581,0.385,0.292,0.698,0.529,0.000,0.962,1.073,0.562,0.479,-0.066,0.867,-0.119,False,False
9.524,1.454,0.953,-0.014,0.000,-0.265,0.000,0.964,-59.280,1.337,0.953,-0.083,0.364,-0.245,0.100,0.893,-45.656,1.288,1.257,0.233,0.748,-0.167,0.205,0.609,57.303,1.092,1.178,0.563,0.769,-0.160,0.211,0.582,-85.944,1.012,1.178,0.516,0.394,0.298,0.693,0.525,-89.954,0.966,1.152,0.594,0.394,0.298,0.693,0.525,0.000,0.977,1.073,0.575,0.490,-0.068,0.861,-0.119,False,False
9.629,1.454,0.953,-0.014,0.000,-0.252,0.000,0.968,-60.780,1.335,0.953,-0.080,0.365,-0.234,0.095,0.896,-45.656,1.295,1.257,0.237,0.750,-0.159,0.196,0.611,57.303,1.107,1.178,0.573,0.771,-0.152,0.201,0.584,-85.944,1.026,1.178,0.527,0.404,0.305,0.687,0.521,-89.954,0.982,1.152,0.607,0.404,0.305,0.687,0.521,0.000,0.993,1.073,0.587,0.501,-0.069,0.854,-0.118,False,False
9.731,1.454,0.953,-0.014,0.000,-0.240,0.000,0.971,-62.280,1.334,0.953,-0.077,0.366,-0.222,0.090,0.899,-45.656,1.302,1.257,0.241,0.753,-0.151,0.186,0.613,57.303,1.123,1.178,0.582,0.774,-0.145,0.191,0.586,-85.944,1.041,1.178,0.538,0.412,0.312,0.682,0.517,-89.954,0.998,1.152,0.619,0.412,0.312,0.682,0.517,0.000,1.008,1.073,0.599,0.512,-0.071,0.848,-0.117,False,False
9.833,1.454,0.953,-0.014,0.000,-0.227,0.000,0.974,-63.780,1.332,0.953,-0.074,0.368,-0.210,0.086,0.902,-45.656,1.308,1.257,0.245,0.755,-0.143,0.176,0.615,57.303,1.139,1.178,0.590,0.776,-0.137,0.181,0.588,-85.944,1.055,1.178,0.549,0.421,0.319,0.677,0.513,-89.954,1.015,1.152,0.631,0.421,0.319,0.677,0.513,0.000,1.025,1.073,0.611,0.523,-0.073,0.841,-0.116,False,False
9.936,1.454,0.953,-0.014,0.000,-0.214,0.000,0.977,-65.280,1.331,0.953,-0.071,0.369,-0.198,0.081,0.905,-45.656,1.315,1.257,0.249,0.757,-0.135,0.166,0.617,57.303,1.154,1.178,0.598,0.779,-0.129,0.171,0.590,-85.944,1.070,1.178,0.559,0.430,0.326,0.671,0.509,-89.954,1.032,1.152,0.642,0.430,0.326,0.671,0.509,0.000,1.041,1.073,0.622,0.534,-0.074,0.834,-0.115,False,False
10.039,1.454,0.953,-0.014,0.000,-0.201,0.000,0.980,-66.780,1.329,0.953,-0.068,0.370,-0.186,0.076,0.907,-45.656,1.322,1.257,0.253,0.759,-0.127,0.156,0.619,57.303,1.171,1.178,0.606,0.781,-0.122,0.160,0.592,-85.944,1.085,1.178,0.569,0.439,0.332,0.665,0.504,-89.954,1.049,1.152,0.653,0.439,0.332,0.665,0.504,0.000,1.058,1.073,0.632,0.545,-0.076,0.827,-0.114,False,False
10.140,1.454,0.953,-0.014,0.000,-0.186,0.000,0.983,-68.580,1.328,0.953,-0.064,0.371,-0.172,0.070,0.910,-45.656,1.330,1.257,0.257,0.762,-0.117,0.144,0.621,57.303,1.190,1.178,0.614,0.783,-0.112,0.148,0.593,-85.944,1.104,1.178,0.580,0.449,0.340,0.658,0.499,-89.954,1.070,1.152,0.665,0.449,0.340,0.658,0.499,0.000,1.078,1.073,0.644,0.558,-0.077,0.818,-0.113,False,False
10.244,1.454,0.953,-0.014,0.000,-0.173,0.000,0.985,-70.081,1.326,0.953,-0.060,0.372,-0.160,0.065,0.912,-45.656,1.338,1.257,0.260,0.764,-0.109,0.134,0.622,57.303,1.207,1.178,0.621,0.785,-0.104,0.138,0.595,-85.944,1.119,1.178,0.589,0.458,0.347,0.652,0.495,-89.954,1.088,1.152,0.675,0.458,0.347,0.652,0.495,0.000,1.096,1.073,0.654,0.569,-0.079,0.811,-0.112,False,False
10.349,1.454,0.953,-0.014,0.000,-0.160,0.000,0.987,-71.581,1.325,0.953,-0.057,0.373,-0.148,0.060,0.914,-45.656,1.345,1.257,0.263,0.765,-0.101,0.124,0.624,57.303,1.223,1.178,0.627,0.787,-0.097,0.128,0.596,-85.944,1.135,1.178,0.598,0.466,0.353,0.646,0.490,-89.954,1.106,1.152,0.684,0.466,0.353,0.646,0.490,0.000,1.113,1.073,0.663,0.579,-0.080,0.804,-0.111,False,False
10.453,1.454,0.953,-0.014,0.000,-0.147,0.000,0.989,-73.081,1.324,0.953,-0.054,0.373,-0.136,0.056,0.916,-45.656,1.352,1.257,0.266,0.767,-0.093,0.114,0.625,57.303,1.240,1.178,0.633,0.788,-0.089,0.117,0.597,-85.944,1.151,1.178,0.606,0.475,0.359,0.640,0.485,-89.954,1.125,1.152,0.693,0.475,0.359,0.640,0.485,0.000,1.131,1.073,0.672,0.590,-0.082,0.796,-0.110,False,False
10.555,1.454,0.953,-0.014,0.000,-0.134,0.000,0.991,-74.581,1.323,0.953,-0.050,0.374,-0.124,0.051,0.918,-45.656,1.359,1.257,0.268,0.768,-0.085,0.104,0.626,57.303,1.257,1.178,0.638,0.790,-0.081,0.107,0.598,-85.944,1.168,1.178,0.614,0.483,0.366,0.634,0.481,-89.954,1.143,1.152,0.702,0.483,0.366,0.634,0.481,0.000,1.149,1.073,0.680,0.600,-0.083,0.788,-0.108,False,False
10.659,1.454,0.953,-0.014,0.000,-0.121,0.000,0.993,-76.081,1.322,0.953,-0.047,0.375,-0.112,0.046,0.919,-45.656,1.367,1.257,0.270,0.769,-0.077,0.094,0.627,57.303,1.274,1.178,0.643,0.791,-0.073,0.097,0.599,-85.944,1.184,1.178,0.621,0.491,0.372,0.628,0.476,-89.954,1.162,1.152,0.709,0.491,0.372,0.628,0.476,0.000,1.168,1.073,0.688,0.610,-0.084,0.780,-0.107,False,False
10.763,1.454,0.953,-0.014,0.000,-0.106,0.000,0.994,-77.881,1.321,0.953,-0.043,0.375,-0.098,0.040,0.921,-45.656,1.376,1.257,0.273,0.771,-0.067,0.082,0.628,57.303,1.295,1.178,0.649,0.793,-0.064,0.084,0.601,-85.944,1.204,1.178,0.629,0.501,0.379,0.620,0.470,-89.954,1.185,1.152,0.718,0.501,0.379,0.620,0.470,0.000,1.190,1.073,0.696,0.623,-0.086,0.770,-0.106,False,False
10.868,1.454,0.953,-0.014,0.000,-0.093,0.000,0.996,-79.381,1.320,0.953,-0.039,0.376,-0.086,0.035,0.922,-45.656,1.383,1.257,0.275,0.772,-0.058,0.072,0.629,57.303,1.313,1.178,0.653,0.794,-0.056,0.074,0.601,-85.944,1.221,1.178,0.635,0.509,0.385,0.613,0.465,-89.954,1.204,1.152,0.725,0.509,0.385,0.613,0.465,0.000,1.208,1.073,0.703,0.633,-0.088,0.762,-0.105,False,False
10.971,1.454,0.953,-0.014,0.000,-0.079,0.000,0.997,-80.881,1.320,0.953,-0.036,0.376,-0.074,0.030,0.923,-45.656,1.391,1.257,0.277,0.773,-0.050,0.062,0.630,57.303,1.330,1.178,0.656,0.795,-0.048,0.063,0.602,-85.944,1.238,1.178,0.641,0.517,0.392,0.606,0.460,-89.954,1.224,1.152,0.731,0.517,0.392,0.606,0.460,0.000,1.227,1.073,0.709,0.643,-0.089,0.754,-0.104,False,False
11.075,1.454,0.953,-0.014,0.000,-0.066,0.000,0.998,-82.381,1.319,0.953,-0.032,0.377,-0.062,0.025,0.924,-45.656,1.399,1.257,0.278,0.773,-0.042,0.052,0.630,57.303,1.348,1.178,0.659,0.795,-0.040,0.053,0.603,-85.944,1.255,1.178,0.647,0.525,0.398,0.600,0.455,-89.954,1.243,1.152,0.737,0.525,0.398,0.600,0.455,0.000,1.246,1.073,0.715,0.652,-0.090,0.745,-0.103,False,False
11.177,1.454,0.953,-0.014,0.000,-0.053,0.000,0.999,-83.881,1.319,0.953,-0.028,0.377,-0.049,0.020,0.925,-45.656,1.406,1.257,0.280,0.774,-0.034,0.041,0.631,57.303,1.365,1.178,0.662,0.796,-0.032,0.043,0.603,-85.944,1.273,1.178,0.652,0.533,0.403,0.593,0.449,-89.954,1.263,1.152,0.742,0.533,0.403,0.593,0.449,0.000,1.265,1.073,0.720,0.662,-0.092,0.737,-0.101,False,False
11.279,1.454,0.953,-0.014,0.000,-0.040,0.000,0.999,-85.381,1.319,0.953,-0.025,0.377,-0.037,0.015,0.925,-45.656,1.414,1.257,0.281,0.775,-0.025,0.031,0.631,57.303,1.383,1.178,0.664,0.796,-0.024,0.032,0.603,-85.944,1.290,1.178,0.656,0.541,0.409,0.586,0.444,-89.954,1.283,1.152,0.747,0.541,0.409,0.586,0.444,0.000,1.285,1.073,0.725,0.672,-0.093,0.728,-0.100,False,False
11.380,1.454,0.953,-0.014,0.000,-0.027,0.000,1.000,-86.881,1.318,0.953,-0.021,0.377,-0.025,0.010,0.926,-45.656,1.422,1.257,0.282,0.775,-0.017,0.021,0.631,57.303,1.401,1.178,0.665,0.797,-0.016,0.022,0.604,-85.944,1.308,1.178,0.660,0.548,0.415,0.579,0.439,-89.954,1.303,1.152,0.751,0.548,0.415,0.579,0.439,0.000,1.304,1.073,0.729,0.681,-0.094,0.719,-0.099,False,False
11.485,1.454,0.953,-0.014,0.000,-0.012,0.000,1.000,-88.681,1.318,0.953,-0.017,0.377,-0.011,0.004,0.926,-45.656,1.431,1.257,0.283,0.775,-0.007,0.009,0.632,57.303,1.422,1.178,0.667,0.797,-0.007,0.009,0.604,-85.944,1.329,1.178,0.665,0.557,0.422,0.570,0.432,-89.954,1.327,1.152,0.756,0.557,0.422,0.570,0.432,0.000,1.328,1.073,0.733,0.692,-0.096,0.708,-0.097,False,False
11.588,1.454,0.953,-0.014,0.000,0.002,0.000,1.000,-90.181,1.318,0.953,-0.014,0.377,0.001,-0.001,0.926,-45.656,1.439,1.257,0.283,0.775,0.001,-0.001,0.632,57.303,1.440,1.178,0.667,0.797,0.001,-0.001,0.604,-85.944,1.347,1.178,0.668,0.565,0.428,0.563,0.427,-89.954,1.347,1.152,0.759,0.565,0.428,0.563,0.427,0.000,1.347,1.073,0.736,0.702,-0.097,0.699,-0.096,False,False
11.690,1.454,0.953,-0.014,0.000,0.015,0.000,1.000,-91.681,1.318,0.953,-0.010,0.377,0.014,-0.006,0.926,-45.656,1.447,1.257,0.283,0.775,0.009,-0.011,0.632,57.303,1.458,1.178,0.667,0.797,0.009,-0.012,0.604,-85.944,1.365,1.178,0.670,0.572,0.433,0.555,0.421,-89.954,1.368,1.152,0.761,0.572,0.433,0.555,0.421,0.000,1.367,1.073,0.739,0.711,-0.098,0.690,-0.095,False,False
11.791,1.454,0.953,-0.014,0.000,0.028,0.000,1.000,-93.181,1.318,0.953,-0.006,0.377,0.026,-0.010,0.926,-45.656,1.454,1.257,0.284,0.775,0.018,-0.022,0.631,57.303,1.476,1.178,0.667,0.797,0.017,-0.022,0.604,-85.944,1.383,1.178,0.672,0.579,0.439,0.548,0.415,-89.954,1.388,1.152,0.763,0.579,0.439,0.548,0.415,0.000,1.387,1.073,0.741,0.720,-0.100,0.681,-0.094,False,False
11.893,1.454,0.953,-0.014,0.000,0.041,0.000,0.999,-94.681,1.319,0.953,-0.003,0.377,0.038,-0.015,0.925,-45.656,1.462,1.257,0.283,0.775,0.026,-0.032,0.631,57.303,1.493,1.178,0.666,0.796,0.025,-0.033,0.603,-85.944,1.401,1.178,0.674,0.586,0.444,0.540,0.409,-89.954,1.408,1.152,0.765,0.586,0.444,0.540,0.409,0.000,1.406,1.073,0.742,0.729,-0.101,0.671,-0.092,False,False
11.993,1.454,0.953,-0.014,0.000,0.054,0.000,0.999,-96.181,1.319,0.953,0.001,0.377,0.050,-0.020,0.925,-45.656,1.470,1.257,0.283,0.774,0.034,-0.042,0.631,57.303,1.511,1.178,0.665,0.796,0.033,-0.043,0.603,-85.944,1.419,1.178,0.675,0.593,0.449,0.532,0.404,-89.954,1.429,1.152,0.766,0.593,0.449,0.532,0.404,0.000,1.426,1.073,0.743,0.737,-0.102,0.662,-0.091,False,False
12.093,1.454,0.953,-0.014,0.000,0.067,0.000,0.998,-97.681,1.319,0.953,0.004,0.377,0.062,-0.025,0.924,-45.656,1.478,1.257,0.283,0.773,0.042,-0.052,0.630,57.303,1.529,1.178,0.663,0.795,0.040,-0.053,0.603,-85.944,1.437,1.178,0.676,0.600,0.454,0.524,0.398,-89.954,1.449,1.152,0.766,0.600,0.454,0.524,0.398,0.000,1.446,1.073,0.744,0.746,-0.103,0.652,-0.090,False,False
12.193,1.454,0.953,-0.014,0.000,0.080,0.000,0.997,-99.181,1.320,0.953,0.008,0.376,0.074,-0.030,0.923,-45.656,1.485,1.257,0.282,0.773,0.051,-0.062,0.630,57.303,1.547,1.178,0.661,0.795,0.048,-0.064,0.602,-85.944,1.455,1.178,0.676,0.607,0.460,0.516,0.392,-89.954,1.469,1.152,0.766,0.607,0.460,0.516,0.392,0.000,1.466,1.073,0.744,0.754,-0.104,0.642,-0.088,False,False
12.296,1.454,0.953,-0.014,0.000,0.093,0.000,0.996,-100.681,1.321,0.953,0.011,0.376,0.086,-0.035,0.922,-45.656,1.493,1.257,0.281,0.772,0.059,-0.072,0.629,57.303,1.564,1.178,0.658,0.794,0.056,-0.074,0.601,-85.944,1.473,1.178,0.676,0.614,0.465,0.508,0.386,-89.954,1.490,1.152,0.765,0.614,0.465,0.508,0.386,0.000,1.486,1.073,0.743,0.763,-0.105,0.632,-0.087,False,False
12.399,1.454,0.953,-0.014,0.000,0.106,0.000,0.994,-102.181,1.321,0.953,0.015,0.375,0.098,-0.040,0.921,-45.656,1.501,1.257,0.280,0.771,0.067,-0.082,0.628,57.303,1.582,1.178,0.655,0.793,0.064,-0.085,0.600,-85.944,1.491,1.178,0.675,0.620,0.470,0.500,0.379,-89.954,1.510,1.152,0.764,0.620,0.470,0.500,0.379,0.000,1.506,1.073,0.742,0.771,-0.107,0.622,-0.086,False,False
12.500,1.454,0.953,-0.014,0.000,0.122,0.000,0.993,-103.981,1.322,0.953,0.019,0.375,0.113,-0.046,0.919,-45.656,1.510,1.257,0.278,0.769,0.077,-0.094,0.627,57.303,1.603,1.178,0.651,0.791,0.073,-0.097,0.599,-85.944,1.513,1.178,0.673,0.628,0.476,0.491,0.372,-89.954,1.535,1.152,0.762,0.628,0.476,0.491,0.372,0.000,1.529,1.073,0.740,0.781,-0.108,0.610,-0.084,False,False
12.603,1.454,0.953,-0.014,0.000,0.135,0.000,0.991,-105.481,1.323,0.953,0.022,0.374,0.125,-0.051,0.918,-45.656,1.518,1.257,0.277,0.768,0.085,-0.104,0.626,57.303,1.620,1.178,0.647,0.790,0.081,-0.107,0.598,-85.944,1.531,1.178,0.672,0.635,0.480,0.482,0.366,-89.954,1.555,1.152,0.759,0.635,0.480,0.482,0.366,0.000,1.549,1.073,0.738,0.788,-0.109,0.600,-0.082,False,False
12.707,1.454,0.953,-0.014,0.000,0.148,0.000,0.989,-106.981,1.324,0.953,0.026,0.373,0.137,-0.056,0.916,-45.656,1.525,1.257,0.275,0.767,0.093,-0.114,0.625,57.303,1.638,1.178,0.642,0.788,0.089,-0.118,0.597,-85.944,1.549,1.178,0.669,0.641,0.485,0.474,0.359,-89.954,1.575,1.152,0.757,0.641,0.485,0.474,0.359,0.000,1.569,1.073,0.735,0.796,-0.110,0.589,-0.081,False,False
12.808,1.454,0.953,-0.014,0.000,0.161,0.000,0.987,-108.481,1.325,0.953,0.029,0.372,0.149,-0.061,0.914,-45.656,1.533,1.257,0.273,0.765,0.101,-0.124,0.624,57.303,1.655,1.178,0.637,0.787,0.097,-0.128,0.596,-85.944,1.566,1.178,0.667,0.647,0.490,0.466,0.353,-89.954,1.595,1.152,0.753,0.647,0.490,0.466,0.353,0.000,1.588,1.073,0.732,0.804,-0.111,0.579,-0.080,False,False
12.908,1.454,0.953,-0.014,0.000,0.173,0.000,0.985,-109.981,1.326,0.953,0.032,0.372,0.161,-0.065,0.912,-45.656,1.540,1.257,0.271,0.763,0.110,-0.134,0.622,57.303,1.672,1.178,0.632,0.785,0.105,-0.138,0.595,-85.944,1.584,1.178,0.664,0.653,0.494,0.457,0.347,-89.954,1.615,1.152,0.749,0.653,0.494,0.457,0.347,0.000,1.608,1.073,0.728,0.811,-0.112,0.568,-0.078,False,False
13.010,1.454,0.953,-0.014,0.000,0.186,0.000,0.982,-111.481,1.328,0.953,0.036,0.371,0.173,-0.070,0.910,-45.656,1.548,1.257,0.268,0.762,0.118,-0.144,0.621,57.303,1.688,1.178,0.626,0.783,0.113,-0.149,0.593,-85.944,1.602,1.178,0.660,0.659,0.499,0.448,0.340,-89.954,1.635,1.152,0.745,0.659,0.499,0.448,0.340,0.000,1.627,1.073,0.724,0.819,-0.113,0.558,-0.077,False,False
13.112,1.454,0.953,-0.014,0.000,0.199,0.000,0.980,-112.981,1.329,0.953,0.039,0.370,0.184,-0.075,0.907,-45.656,1.555,1.257,0.266,0.760,0.126,-0.154,0.619,57.303,1.705,1.178,0.619,0.781,0.120,-0.159,0.592,-85.944,1.619,1.178,0.656,0.665,0.503,0.440,0.334,-89.954,1.655,1.152,0.740,0.665,0.503,0.440,0.334,0.000,1.646,1.073,0.719,0.826,-0.114,0.547,-0.075,False,False
13.214,1.454,0.953,-0.014,0.000,0.212,0.000,0.977,-114.481,1.330,0.953,0.042,0.369,0.196,-0.080,0.905,-45.656,1.562,1.257,0.263,0.758,0.134,-0.164,0.617,57.303,1.722,1.178,0.613,0.779,0.128,-0.169,0.590,-85.944,1.637,1.178,0.651,0.670,0.508,0.431,0.327,-89.954,1.675,1.152,0.734,0.670,0.508,0.431,0.327,0.000,1.665,1.073,0.714,0.833,-0.115,0.536,-0.074,False,False
13.316,1.454,0.953,-0.014,0.000,0.225,0.000,0.974,-115.981,1.332,0.953,0.046,0.368,0.208,-0.085,0.902,-45.656,1.570,1.257,0.260,0.755,0.142,-0.174,0.616,57.303,1.738,1.178,0.605,0.777,0.136,-0.179,0.588,-85.944,1.654,1.178,0.646,0.676,0.512,0.422,0.320,-89.954,1.694,1.152,0.728,0.676,0.512,0.422,0.320,0.000,1.684,1.073,0.708,0.840,-0.116,0.525,-0.072,False,False
13.419,1.454,0.953,-0.014,0.000,0.238,0.000,0.971,-117.481,1.333,0.953,0.049,0.367,0.220,-0.090,0.900,-45.656,1.577,1.257,0.257,0.753,0.150,-0.184,0.614,57.303,1.754,1.178,0.598,0.774,0.143,-0.189,0.587,-85.944,1.672,1.178,0.641,0.682,0.516,0.413,0.314,-89.954,1.714,1.152,0.722,0.682,0.516,0.413,0.314,0.000,1.703,1.073,0.702,0.847,-0.117,0.514,-0.071,False,False
13.522,1.454,0.953,-0.014,0.000,0.253,0.000,0.968,-119.281,1.336,0.953,0.052,0.365,0.234,-0.095,0.896,-45.656,1.585,1.257,0.253,0.750,0.160,-0.196,0.611,57.303,1.773,1.178,0.588,0.771,0.153,-0.201,0.584,-85.944,1.692,1.178,0.634,0.688,0.521,0.403,0.305,-89.954,1.737,1.152,0.713,0.688,0.521,0.403,0.305,0.000,1.726,1.073,0.694,0.855,-0.118,0.501,-0.069,False,False
13.624,1.454,0.953,-0.014,0.000,0.265,0.000,0.964,-120.781,1.337,0.953,0.056,0.364,0.246,-0.100,0.893,-45.656,1.592,1.257,0.249,0.747,0.168,-0.206,0.609,57.303,1.789,1.178,0.580,0.768,0.160,-0.212,0.582,-85.944,1.709,1.178,0.627,0.693,0.525,0.394,0.299,-89.954,1.755,1.152,0.705,0.693,0.525,0.394,0.299,0.000,1.744,1.073,0.686,0.861,-0.119,0.489,-0.067,False,False
13.727,1.454,0.953,-0.014,0.000,0.278,0.000,0.961,-122.281,1.339,0.953,0.059,0.363,0.257,-0.105,0.890,-45.656,1.599,1.257,0.246,0.745,0.176,-0.216,0.607,57.303,1.804,1.178,0.571,0.766,0.168,-0.222,0.580,-85.944,1.726,1.178,0.620,0.698,0.529,0.384,0.292,-89.954,1.774,1.152,0.697,0.698,0.529,0.384,0.292,0.000,1.762,1.073,0.678,0.868,-0.120,0.478,-0.066,False,False
13.829,1.454,0.953,-0.014,0.000,0.291,0.000,0.957,-123.781,1.341,0.953,0.062,0.361,0.269,-0.110,0.886,-45.656,1.606,1.257,0.242,0.742,0.184,-0.225,0.604,57.303,1.819,1.178,0.561,0.763,0.175,-0.232,0.578,-85.944,1.742,1.178,0.613,0.703,0.533,0.375,0.285,-89.954,1.793,1.152,0.689,0.703,0.533,0.375,0.285,0.000,1.780,1.073,0.670,0.874,-0.121,0.467,-0.064,False,False
13.934,1.454,0.953,-0.014,0.000,0.303,0.000,0.953,-125.281,1.343,0.953,0.064,0.360,0.281,-0.114,0.883,-45.656,1.612,1.257,0.238,0.739,0.191,-0.235,0.602,57.303,1.834,1.178,0.551,0.760,0.183,-0.242,0.575,-85.944,1.758,1.178,0.605,0.708,0.536,0.366,0.278,-89.954,1.811,1.152,0.680,0.708,0.536,0.366,0.278,0.000,1.798,1.073,0.661,0.880,-0.122,0.455,-0.062,False,False
14.035,1.454,0.953,-0.014,0.000,0.315,0.000,0.949,-126.781,1.345,0.953,0.067,0.358,0.292,-0.119,0.879,-45.656,1.619,1.257,0.234,0.736,0.199,-0.245,0.599,57.303,1.849,1.178,0.541,0.756,0.191,-0.251,0.573,-85.944,1.774,1.178,0.597,0.713,0.540,0.357,0.271,-89.954,1.829,1.152,0.670,0.713,0.540,0.357,0.271,0.000,1.816,1.073,0.652,0.886,-0.122,0.444,-0.061,False,False
14.139,1.454,0.953,-0.014,0.000,0.325,0.000,0.946,-127.991,1.347,0.953,0.070,0.357,0.301,-0.123,0.876,-45.656,1.624,1.257,0.230,0.733,0.206,-0.252,0.597,57.303,1.861,1.178,0.533,0.754,0.197,-0.259,0.571,-85.944,1.787,1.178,0.590,0.717,0.543,0.349,0.265,-89.954,1.843,1.152,0.662,0.717,0.543,0.349,0.265,0.000,1.830,1.073,0.644,0.890,-0.123,0.434,-0.060,False,False
14.243,1.454,0.953,-0.014,0.000,0.330,0.000,0.944,-128.506,1.348,0.953,0.071,0.356,0.305,-0.124,0.874,-45.656,1.626,1.257,0.229,0.732,0.208,-0.256,0.596,57.303,1.865,1.178,0.529,0.753,0.199,-0.263,0.570,-85.944,1.793,1.178,0.587,0.718,0.544,0.346,0.263,-89.954,1.849,1.152,0.658,0.718,0.544,0.346,0.263,0.000,1.836,1.073,0.641,0.892,-0.123,0.430,-0.059,False,False
14.346,1.454,0.953,-0.014,0.000,0.331,0.000,0.944,-128.644,1.348,0.953,0.071,0.356,0.306,-0.125,0.874,-45.656,1.627,1.257,0.228,0.732,0.209,-0.256,0.596,57.303,1.867,1.178,0.528,0.752,0.200,-0.264,0.570,-85.944,1.794,1.178,0.586,0.718,0.544,0.345,0.262,-89.954,1.851,1.152,0.657,0.718,0.544,0.345,0.262,0.000,1.837,1.073,0.640,0.893,-0.123,0.429,-0.059,False,False
14.447,1.454,0.953,-0.014,0.000,0.331,0.000,0.944,-128.695,1.348,0.953,0.071,0.356,0.307,-0.125,0.874,-45.656,1.627,1.257,0.228,0.731,0.209,-0.257,0.596,57.303,1.867,1.178,0.528,0.752,0.200,-0.264,0.570,-85.944,1.795,1.178,0.586,0.719,0.544,0.345,0.262,-89.954,1.852,1.152,0.657,0.719,0.544,0.345,0.262,0.000,1.838,1.073,0.640,0.893,-0.123,0.429,-0.059,False,False
14.548,1.454,0.953,-0.014,0.000,0.331,0.000,0.943,-128.713,1.348,0.953,0.071,0.356,0.307,-0.125,0.874,-45.656,1.627,1.257,0.228,0.731,0.209,-0.257,0.596,57.303,1.867,1.178,0.528,0.752,0.200,-0.264,0.570,-85.944,1.795,1.178,0.586,0.719,0.544,0.345,0.262,-89.954,1.852,1.152,0.657,0.719,0.544,0.345,0.262,0.000,1.838,1.073,0.640,0.893,-0.123,0.429,-0.059,False,False
14.651,1.454,0.953,-0.014,0.000,0.332,0.000,0.943,-128.720,1.348,0.953,0.071,0.356,0.307,-0.125,0.874,-45.656,1.627,1.257,0.228,0.731,0.209,-0.257,0.596,57.303,1.868,1.178,0.528,0.752,0.200,-0.264,0.570,-85.944,1.795,1.178,0.586,0.719,0.544,0.345,0.262,-89.954,1.852,1.152,0.657,0.719,0.544,0.345,0.262,0.000,1.838,1.073,0.640,0.893,-0.123,0.429,-0.059,False,False
14.752,1.454,0.953,-0.014,0.000,0.332,0.000,0.943,-128.722,1.348,0.953,0.071,0.356,0.307,-0.125,0.874,-45.656,1.627,1.257,0.228,0.731,0.209,-0.257,0.596,57.303,1.868,1.178,0.528,0.752,0.200,-0.264,0.570,-85.944,1.795,1.178,0.586,0.719,0.544,0.345,0.262,-89.954,1.852,1.152,0.657,0.719,0.544,0.345,0.262,0.000,1.838,1.073,0.640,0.893,-0.123,0.429,-0.059,False,False
14.856,1.454,0.953,-0.014,0.000,0.332,0.000,0.943,-128.723,1.348,0.953,0.071,0.356,0.307,-0.125,0.874,-45.656,1.627,1.257,0.228,0.731,0.209,-0.257,0.596,57.303,1.868,1.178,0.528,0.752,0.200,-0.264,0.570,-85.944,1.795,1.178,0.586,0.719,0.544,0.345,0.262,-89.954,1.852,1.152,0.657,0.719,0.544,0.345,0.262,0.000,1.838,1.073,0.640,0.893,-0.123,0.429,-0.059,False,False
14.956,1.454,0.953,-0.014,0.000,0.332,0.000,0.943,-128.724,1.348,0.953,0.071,0.356,0.307,-0.125,0.874,-45.656,1.627,1.257,0.228,0.731,0.209,-0.257,0.596,57.303,1.868,1.178,0.528,0.752,0.200,-0.264,0.570,-85.944,1.795,1.178,0.586,0.719,0.544,0.345,0.262,-89.954,1.852,1.152,0.657,0.719,0.544,0.345,0.262,0.000,1.838,1.073,0.640,0.893,-0.123,0.429,-0.059,False,False
15.057,1.454,0.953,-0.014,0.000,0.332,0.000,0.943,-128.724,1.348,0.953,0.071,0.356,0.307,-0.125,0.874,-45.656,1.627,1.257,0.228,0.731,0.209,-0.257,0.596,57.303,1.868,1.178,0.528,0.752,0.200,-0.264,0.570,-85.944,1.795,1.178,0.586,0.719,0.544,0.345,0.262,-89.954,1.852,1.152,0.657,0.719,0.544,0.345,0.262,0.000,1.838,1.073,0.640,0.893,-0.123,0.429,-0.059,False,False
15.159,1.454,0.953,-0.014,0.000,0.332,0.000,0.943,-128.724,1.348,0.953,0.071,0.356,0.307,-0.125,0.874,-45.656,1.627,1.257,0.228,0.731,0.209,-0.257,0.596,57.303,1.868,1.178,0.528,0.752,0.200,-0.264,0.570,-85.944,1.795,1.178,0.586,0.719,0.544,0.345,0.262,-89.954,1.852,1.152,0.657,0.719,0.544,0.345,0.262,0.000,1.838,1.073,0.640,0.893,-0.123,0.429,-0.059,False,False
15.263,1.454,0.953,-0.014,0.000,0.332,0.000,0.943,-128.722,1.348,0.953,0.071,0.365,0.306,-0.128,0.870,-44.514,1.631,1.251,0.233,0.737,0.207,-0.259,0.589,57.299,1.870,1.164,0.531,0.758,0.198,-0.266,0.562,-85.944,1.798,1.164,0.589,0.724,0.537,0.347,0.258,-89.954,1.854,1.137,0.660,0.724,0.537,0.347,0.258,0.000,1.839,1.058,0.641,0.892,-0.132,0.428,-0.063,False,False
15.367,1.454,0.953,-0.014,0.000,0.332,0.000,0.943,-128.722,1.348,0.953,0.071,0.376,0.304,-0.132,0.865,-43.084,1.636,1.243,0.238,0.745,0.204,-0.262,0.579,57.299,1.873,1.147,0.535,0.765,0.194,-0.269,0.553,-85.944,1.801,1.147,0.593,0.731,0.528,0.350,0.254,-89.954,1.857,1.117,0.663,0.731,0.528,0.350,0.254,0.000,1.841,1.039,0.643,0.890,-0.143,0.427,-0.068,False,False
15.471,1.454,0.953,-0.014,0.000,0.332,0.000,0.943,-128.723,1.348,0.953,0.071,0.387,0.302,-0.136,0.861,-41.597,1.640,1.235,0.244,0.752,0.200,-0.264,0.570,57.299,1.876,1.129,0.539,0.772,0.191,-0.271,0.543,-85.944,1.804,1.129,0.597,0.738,0.519,0.354,0.249,-89.954,1.860,1.097,0.666,0.738,0.519,0.354,0.249,0.000,1.842,1.020,0.645,0.888,-0.155,0.426,-0.074,False,False
15.572,1.454,0.953,-0.014,0.000,0.332,0.000,0.943,-128.723,1.348,0.953,0.071,0.398,0.301,-0.140,0.855,-40.101,1.645,1.227,0.250,0.759,0.197,-0.267,0.560,57.299,1.879,1.111,0.542,0.779,0.187,-0.274,0.533,-85.944,1.807,1.111,0.600,0.744,0.509,0.357,0.244,-89.954,1.862,1.077,0.669,0.744,0.509,0.357,0.244,0.000,1.843,1.000,0.646,0.886,-0.166,0.425,-0.079,False,False
15.675,1.454,0.953,-0.014,0.000,0.332,0.000,0.943,-128.723,1.348,0.953,0.071,0.409,0.299,-0.144,0.850,-38.604,1.649,1.218,0.255,0.767,0.193,-0.269,0.550,57.299,1.882,1.093,0.545,0.786,0.184,-0.276,0.522,-85.944,1.809,1.093,0.603,0.751,0.499,0.360,0.240,-89.954,1.864,1.056,0.671,0.751,0.499,0.360,0.240,0.000,1.844,0.980,0.647,0.884,-0.178,0.424,-0.085,False,False
15.779,1.454,0.953,-0.014,0.000,0.332,0.000,0.943,-128.723,1.348,0.953,0.071,0.420,0.297,-0.148,0.845,-37.106,1.653,1.210,0.261,0.774,0.190,-0.272,0.540,57.299,1.884,1.074,0.548,0.792,0.180,-0.278,0.512,-85.944,1.811,1.074,0.606,0.757,0.489,0.363,0.235,-89.954,1.865,1.035,0.673,0.757,0.489,0.363,0.235,0.000,1.844,0.960,0.647,0.881,-0.190,0.423,-0.091,False,False
15.883,1.454,0.953,-0.014,0.000,0.332,0.000,0.943,-128.723,1.348,0.953,0.071,0.433,0.294,-0.152,0.838,-35.309,1.658,1.199,0.267,0.782,0.185,-0.275,0.528,57.299,1.886,1.052,0.550,0.800,0.176,-0.281,0.500,-85.944,1.813,1.052,0.609,0.765,0.477,0.367,0.229,-89.954,1.867,1.010,0.675,0.765,0.477,0.367,0.229,0.000,1.844,0.936,0.647,0.878,-0.203,0.421,-0.097,False,False
15.987,1.454,0.953,-0.014,0.000,0.332,0.000,0.943,-128.722,1.348,0.953,0.071,0.444,0.292,-0.156,0.832,-33.811,1.662,1.190,0.272,0.789,0.182,-0.277,0.517,57.299,1.887,1.033,0.552,0.807,0.172,-0.283,0.489,-85.944,1.815,1.033,0.610,0.771,0.467,0.370,0.225,-89.954,1.867,0.990,0.676,0.771,0.467,0.370,0.225,0.000,1.843,0.917,0.646,0.876,-0.215,0.420,-0.103,False,False
16.091,1.454,0.953,-0.014,0.000,0.332,0.000,0.943,-128.722,1.348,0.953,0.071,0.455,0.290,-0.160,0.826,-32.314,1.666,1.180,0.276,0.796,0.178,-0.280,0.507,57.298,1.888,1.015,0.554,0.813,0.168,-0.286,0.479,-85.944,1.816,1.015,0.612,0.777,0.457,0.373,0.220,-89.954,1.868,0.969,0.676,0.777,0.457,0.373,0.220,0.000,1.843,0.897,0.645,0.873,-0.226,0.419,-0.108,False,False
16.211,1.454,0.953,-0.014,0.000,0.332,0.000,0.943,-128.723,1.348,0.953,0.071,0.468,0.288,-0.164,0.819,-30.551,1.670,1.169,0.282,0.803,0.174,-0.282,0.495,57.208,1.890,0.993,0.555,0.820,0.164,-0.288,0.466,-85.916,1.817,0.993,0.613,0.784,0.446,0.376,0.214,-89.951,1.868,0.945,0.677,0.784,0.446,0.376,0.214,0.004,1.842,0.874,0.644,0.869,-0.239,0.417,-0.114,False,False
16.317,1.454,0.953,-0.014,0.000,0.332,0.000,0.943,-128.726,1.348,0.953,0.071,0.468,0.288,-0.165,0.819,-30.456,1.671,1.169,0.282,0.802,0.174,-0.282,0.496,57.000,1.890,0.993,0.556,0.821,0.163,-0.289,0.465,-85.564,1.818,0.993,0.614,0.785,0.444,0.376,0.213,-89.973,1.868,0.945,0.677,0.784,0.444,0.377,0.214,-0.161,1.842,0.874,0.644,0.868,-0.241,0.418,-0.115,False,False
16.445,1.454,0.953,-0.014,0.000,0.332,0.000,0.943,-128.732,1.348,0.953,0.071,0.469,0.288,-0.165,0.818,-30.330,1.671,1.168,0.282,0.802,0.175,-0.282,0.497,56.733,1.891,0.993,0.556,0.822,0.163,-0.289,0.463,-85.136,1.818,0.993,0.615,0.786,0.442,0.377,0.212,-89.997,1.869,0.944,0.678,0.785,0.441,0.379,0.215,-0.425,1.842,0.874,0.644,0.867,-0.243,0.420,-0.116,False,False
16.551,1.454,0.953,-0.014,0.000,0.332,0.000,0.943,-128.732,1.348,0.953,0.071,0.470,0.287,-0.165,0.818,-30.218,1.671,1.167,0.283,0.801,0.175,-0.282,0.498,56.502,1.891,0.993,0.557,0.823,0.162,-0.289,0.461,-84.802,1.819,0.993,0.615,0.786,0.441,0.378,0.211,-90.022,1.869,0.944,0.678,0.785,0.439,0.380,0.216,-0.642,1.842,0.874,0.645,0.865,-0.245,0.421,-0.116,False,False
16.654,1.454,0.953,-0.014,0.000,0.332,0.000,0.943,-128.728,1.348,0.953,0.071,0.470,0.287,-0.165,0.818,-30.207,1.671,1.167,0.283,0.801,0.175,-0.282,0.498,56.474,1.891,0.993,0.557,0.823,0.162,-0.289,0.461,-84.761,1.819,0.993,0.615,0.787,0.441,0.378,0.211,-90.024,1.869,0.944,0.678,0.785,0.438,0.380,0.216,-0.656,1.842,0.874,0.645,0.865,-0.245,0.421,-0.116,False,False
16.758,1.454,0.953,-0.014,0.000,0.332,0.000,0.943,-128.728,1.348,0.953,0.071,0.470,0.287,-0.165,0.818,-30.207,1.671,1.167,0.283,0.801,0.175,-0.282,0.498,56.474,1.891,0.993,0.557,0.823,0.162,-0.289,0.461,-84.761,1.819,0.993,0.615,0.787,0.441,0.378,0.211,-90.025,1.869,0.944,0.678,0.785,0.438,0.380,0.216,-0.656,1.842,0.874,0.645,0.865,-0.245,0.421,-0.116,False,False
16.861,1.454,0.953,-0.014,0.000,0.332,0.000,0.943,-128.728,1.348,0.953,0.071,0.470,0.287,-0.165,0.818,-30.207,1.671,1.167,0.283,0.801,0.175,-0.282,0.498,56.474,1.891,0.993,0.557,0.823,0.162,-0.289,0.461,-84.761,1.819,0.993,0.615,0.787,0.441,0.378,0.211,-90.025,1.869,0.944,0.678,0.785,0.438,0.380,0.216,-0.656,1.842,0.874,0.645,0.865,-0.245,0.421,-0.116,False,False
16.961,1.454,0.953,-0.014,0.000,0.332,0.000,0.943,-128.728,1.348,0.953,0.071,0.470,0.287,-0.165,0.818,-30.207,1.671,1.167,0.283,0.801,0.175,-0.282,0.498,56.474,1.891,0.993,0.557,0.823,0.162,-0.289,0.461,-84.761,1.819,0.993,0.615,0.787,0.441,0.378,0.211,-90.025,1.869,0.944,0.678,0.785,0.438,0.380,0.216,-0.656,1.842,0.874,0.645,0.865,-0.245,0.421,-0.116,False,False
17.064,1.454,0.953,-0.014,0.000,0.332,0.000,0.943,-128.728,1.348,0.953,0.071,0.470,0.287,-0.165,0.818,-30.207,1.671,1.167,0.283,0.801,0.175,-0.282,0.498,56.474,1.891,0.993,0.557,0.823,0.162,-0.289,0.461,-84.761,1.819,0.993,0.615,0.787,0.441,0.378,0.211,-90.025,1.869,0.944,0.678,0.785,0.438,0.380,0.216,-0.656,1.842,0.874,0.645,0.865,-0.245,0.421,-0.116,False,False
17.168,1.454,0.953,-0.014,0.000,0.332,0.000,0.943,-128.737,1.348,0.953,0.071,0.470,0.288,-0.165,0.818,-30.279,1.671,1.167,0.282,0.801,0.175,-0.282,0.498,56.590,1.891,0.994,0.557,0.823,0.162,-0.289,0.461,-84.860,1.819,0.994,0.615,0.786,0.441,0.377,0.212,-89.987,1.869,0.944,0.678,0.785,0.439,0.379,0.216,-0.582,1.842,0.874,0.644,0.866,-0.245,0.421,-0.116,False,False
17.271,1.454,0.953,-0.014,0.000,0.332,0.000,0.943,-128.747,1.348,0.953,0.071,0.469,0.288,-0.165,0.819,-30.421,1.671,1.168,0.282,0.802,0.175,-0.282,0.497,56.856,1.891,0.994,0.556,0.822,0.163,-0.289,0.463,-85.220,1.818,0.994,0.614,0.786,0.442,0.376,0.213,-89.899,1.869,0.945,0.677,0.785,0.441,0.378,0.216,-0.479,1.842,0.874,0.644,0.867,-0.243,0.420,-0.115,False,False
17.374,1.454,0.953,-0.014,0.000,0.332,0.000,0.943,-128.753,1.348,0.953,0.071,0.468,0.288,-0.164,0.819,-30.558,1.670,1.169,0.282,0.802,0.174,-0.282,0.496,57.113,1.890,0.994,0.555,0.821,0.163,-0.289,0.465,-85.594,1.818,0.994,0.613,0.785,0.444,0.375,0.214,-89.812,1.868,0.945,0.677,0.785,0.443,0.376,0.216,-0.373,1.842,0.875,0.644,0.868,-0.242,0.419,-0.113,False,False
17.476,1.454,0.953,-0.014,0.000,0.332,0.000,0.943,-128.760,1.348,0.953,0.071,0.467,0.288,-0.164,0.820,-30.693,1.670,1.170,0.281,0.803,0.174,-0.282,0.495,57.367,1.890,0.994,0.554,0.820,0.164,-0.288,0.467,-85.964,1.817,0.994,0.613,0.785,0.445,0.374,0.215,-89.725,1.868,0.946,0.676,0.784,0.445,0.375,0.217,-0.274,1.841,0.875,0.644,0.869,-0.240,0.418,-0.112,False,False
17.579,1.454,0.953,-0.014,0.000,0.332,0.000,0.943,-128.804,1.348,0.953,0.071,0.464,0.289,-0.163,0.821,-31.104,1.669,1.173,0.280,0.804,0.174,-0.283,0.493,58.127,1.888,0.994,0.552,0.821,0.164,-0.289,0.465,-86.030,1.816,0.994,0.610,0.786,0.444,0.374,0.214,-89.711,1.867,0.946,0.674,0.785,0.443,0.375,0.215,-0.214,1.840,0.875,0.641,0.869,-0.242,0.417,-0.113,False,False
17.680,1.454,0.953,-0.014,0.000,0.332,0.000,0.943,-128.832,1.348,0.953,0.071,0.460,0.290,-0.162,0.823,-31.562,1.668,1.176,0.278,0.806,0.173,-0.284,0.490,58.985,1.887,0.995,0.549,0.822,0.163,-0.290,0.462,-86.097,1.814,0.995,0.608,0.787,0.441,0.374,0.213,-89.658,1.865,0.946,0.671,0.787,0.440,0.375,0.215,-0.301,1.838,0.875,0.638,0.868,-0.245,0.417,-0.113,False,False
17.783,1.454,0.953,-0.014,0.000,0.332,0.000,0.943,-128.827,1.348,0.953,0.071,0.455,0.291,-0.160,0.826,-32.268,1.667,1.180,0.276,0.809,0.171,-0.285,0.486,60.285,1.884,0.996,0.546,0.825,0.161,-0.291,0.457,-85.925,1.811,0.996,0.604,0.790,0.436,0.375,0.210,-89.649,1.862,0.946,0.667,0.790,0.435,0.377,0.213,-0.342,1.834,0.876,0.633,0.866,-0.251,0.417,-0.116,False,False
17.887,1.454,0.953,-0.014,0.000,0.333,0.000,0.943,-128.843,1.348,0.953,0.071,0.449,0.292,-0.158,0.829,-33.082,1.665,1.185,0.273,0.811,0.169,-0.286,0.481,61.788,1.881,0.997,0.541,0.828,0.159,-0.292,0.452,-85.947,1.808,0.997,0.600,0.793,0.431,0.376,0.208,-89.636,1.858,0.946,0.662,0.792,0.430,0.378,0.211,-0.348,1.830,0.876,0.627,0.865,-0.256,0.416,-0.118,False,False
17.991,1.454,0.953,-0.014,0.000,0.333,0.000,0.943,-128.888,1.348,0.953,0.071,0.445,0.294,-0.157,0.832,-33.749,1.663,1.189,0.271,0.814,0.168,-0.287,0.477,62.997,1.878,0.998,0.538,0.830,0.158,-0.293,0.448,-85.965,1.806,0.998,0.596,0.795,0.428,0.377,0.206,-89.649,1.855,0.946,0.658,0.795,0.427,0.378,0.208,-0.259,1.827,0.877,0.623,0.864,-0.260,0.414,-0.120,False,False
18.092,1.454,0.953,-0.014,0.000,0.333,0.000,0.943,-128.927,1.348,0.953,0.071,0.441,0.294,-0.156,0.833,-34.176,1.662,1.192,0.270,0.815,0.168,-0.288,0.474,63.806,1.877,0.998,0.535,0.831,0.157,-0.294,0.445,-85.950,1.804,0.998,0.593,0.797,0.425,0.378,0.205,-89.682,1.854,0.945,0.655,0.796,0.424,0.379,0.207,-0.282,1.825,0.877,0.619,0.863,-0.263,0.414,-0.122,False,False
18.197,1.454,0.953,-0.014,0.000,0.333,0.000,0.943,-128.958,1.348,0.953,0.071,0.437,0.295,-0.155,0.835,-34.740,1.661,1.195,0.268,0.817,0.166,-0.289,0.471,64.864,1.874,0.998,0.532,0.832,0.157,-0.294,0.442,-86.107,1.802,0.998,0.590,0.798,0.423,0.378,0.203,-89.672,1.851,0.946,0.651,0.798,0.422,0.379,0.205,-0.228,1.822,0.877,0.616,0.862,-0.265,0.413,-0.123,False,False
18.301,1.454,0.953,-0.014,0.000,0.334,0.000,0.943,-129.002,1.348,0.953,0.071,0.431,0.297,-0.153,0.838,-35.577,1.659,1.200,0.265,0.820,0.165,-0.290,0.465,66.424,1.871,0.999,0.526,0.835,0.155,-0.296,0.438,-86.167,1.799,0.999,0.585,0.801,0.418,0.379,0.201,-89.669,1.848,0.945,0.646,0.800,0.418,0.380,0.202,-0.146,1.818,0.878,0.609,0.861,-0.270,0.411,-0.125,False,False
18.406,1.454,0.953,-0.014,0.000,0.334,0.000,0.942,-129.050,1.348,0.953,0.072,0.426,0.298,-0.151,0.841,-36.262,1.657,1.205,0.262,0.822,0.163,-0.292,0.461,67.710,1.868,1.000,0.522,0.837,0.154,-0.297,0.433,-86.201,1.796,1.000,0.581,0.803,0.415,0.380,0.199,-89.674,1.845,0.945,0.641,0.803,0.414,0.380,0.199,-0.070,1.814,0.878,0.604,0.861,-0.275,0.410,-0.128,False,False
18.507,1.454,0.953,-0.014,0.000,0.335,0.000,0.942,-129.086,1.349,0.953,0.072,0.420,0.299,-0.149,0.844,-37.046,1.655,1.209,0.259,0.825,0.162,-0.293,0.456,69.197,1.865,1.000,0.517,0.839,0.152,-0.298,0.428,-86.200,1.793,1.000,0.576,0.805,0.410,0.381,0.196,-89.672,1.841,0.945,0.635,0.805,0.409,0.381,0.197,-0.079,1.810,0.878,0.598,0.859,-0.280,0.409,-0.130,False,False
18.609,1.454,0.953,-0.014,0.000,0.335,0.000,0.942,-129.118,1.349,0.953,0.072,0.414,0.301,-0.147,0.846,-37.844,1.653,1.214,0.257,0.828,0.160,-0.294,0.451,70.703,1.861,1.001,0.512,0.842,0.150,-0.299,0.423,-86.226,1.789,1.001,0.571,0.808,0.405,0.382,0.194,-89.680,1.837,0.945,0.630,0.808,0.405,0.382,0.194,-0.052,1.806,0.879,0.592,0.857,-0.285,0.407,-0.132,False,False
18.709,1.454,0.953,-0.014,0.000,0.335,0.000,0.942,-129.150,1.349,0.953,0.072,0.408,0.302,-0.145,0.849,-38.639,1.651,1.219,0.254,0.830,0.158,-0.295,0.445,72.204,1.857,1.002,0.507,0.844,0.149,-0.300,0.418,-86.253,1.785,1.002,0.566,0.810,0.400,0.383,0.192,-89.689,1.833,0.944,0.624,0.810,0.400,0.383,0.192,-0.024,1.801,0.879,0.586,0.856,-0.290,0.406,-0.135,False,False
18.811,1.454,0.953,-0.014,0.000,0.335,0.000,0.942,-129.187,1.349,0.953,0.072,0.403,0.303,-0.143,0.852,-39.402,1.649,1.223,0.251,0.833,0.157,-0.296,0.441,73.640,1.854,1.002,0.502,0.847,0.147,-0.301,0.413,-86.274,1.782,1.002,0.561,0.813,0.396,0.383,0.189,-89.703,1.829,0.944,0.619,0.813,0.396,0.383,0.189,0.016,1.797,0.879,0.580,0.855,-0.295,0.405,-0.137,False,False
18.914,1.454,0.953,-0.014,0.000,0.336,0.000,0.942,-129.222,1.349,0.953,0.072,0.397,0.304,-0.141,0.854,-40.176,1.647,1.227,0.248,0.835,0.155,-0.298,0.436,75.102,1.850,1.003,0.497,0.849,0.145,-0.302,0.408,-86.284,1.778,1.003,0.556,0.815,0.391,0.384,0.187,-89.710,1.825,0.944,0.613,0.815,0.391,0.384,0.187,0.022,1.792,0.879,0.573,0.853,-0.300,0.404,-0.140,False,False
19.015,1.454,0.953,-0.014,0.000,0.336,0.000,0.942,-129.253,1.349,0.953,0.072,0.391,0.306,-0.139,0.857,-40.957,1.645,1.232,0.245,0.838,0.153,-0.299,0.430,76.577,1.846,1.003,0.492,0.851,0.144,-0.304,0.403,-86.294,1.774,1.003,0.551,0.818,0.386,0.385,0.184,-89.717,1.821,0.943,0.607,0.818,0.386,0.385,0.184,0.030,1.787,0.880,0.567,0.851,-0.305,0.403,-0.142,False,False
19.117,1.454,0.953,-0.014,0.000,0.336,0.000,0.942,-129.282,1.349,0.953,0.072,0.385,0.307,-0.137,0.860,-41.737,1.642,1.236,0.242,0.840,0.152,-0.300,0.425,78.049,1.842,1.004,0.486,0.854,0.142,-0.305,0.398,-86.304,1.770,1.004,0.545,0.820,0.381,0.386,0.182,-89.724,1.816,0.943,0.601,0.820,0.382,0.386,0.182,0.037,1.783,0.880,0.561,0.850,-0.310,0.401,-0.145,False,False
19.221,1.454,0.953,-0.014,0.000,0.336,0.000,0.942,-129.324,1.349,0.953,0.072,0.378,0.308,-0.135,0.862,-42.640,1.640,1.241,0.238,0.843,0.150,-0.301,0.419,79.735,1.838,1.004,0.480,0.856,0.140,-0.306,0.393,-86.404,1.766,1.004,0.539,0.822,0.377,0.387,0.179,-89.743,1.811,0.943,0.595,0.822,0.376,0.387,0.180,-0.036,1.777,0.880,0.553,0.848,-0.315,0.401,-0.147,False,False
19.324,1.454,0.953,-0.014,0.000,0.336,0.000,0.942,-129.260,1.349,0.953,0.072,0.375,0.308,-0.134,0.864,-43.026,1.638,1.243,0.237,0.844,0.149,-0.301,0.418,80.399,1.835,1.005,0.478,0.856,0.140,-0.305,0.394,-86.763,1.763,1.005,0.537,0.822,0.377,0.388,0.180,-89.775,1.809,0.943,0.593,0.820,0.375,0.390,0.185,-0.750,1.775,0.881,0.551,0.845,-0.315,0.407,-0.145,False,False
19.425,1.454,0.953,-0.014,0.000,0.335,0.000,0.942,-129.149,1.349,0.953,0.072,0.371,0.308,-0.132,0.866,-43.643,1.636,1.246,0.235,0.845,0.148,-0.300,0.417,81.044,1.832,1.008,0.476,0.857,0.139,-0.305,0.391,-86.387,1.760,1.008,0.535,0.821,0.375,0.392,0.177,-90.205,1.805,0.946,0.590,0.816,0.365,0.402,0.198,-2.919,1.771,0.884,0.548,0.835,-0.319,0.424,-0.144,False,False
19.535,1.454,0.953,-0.014,0.000,0.335,0.000,0.942,-129.086,1.349,0.953,0.072,0.368,0.308,-0.131,0.868,-44.037,1.634,1.249,0.233,0.846,0.148,-0.300,0.416,81.658,1.830,1.009,0.474,0.858,0.138,-0.305,0.389,-86.417,1.758,1.009,0.533,0.820,0.374,0.396,0.176,-90.609,1.803,0.947,0.588,0.816,0.365,0.404,0.193,-2.497,1.769,0.885,0.546,0.835,-0.319,0.422,-0.149,True,False
19.638,1.454,0.953,-0.014,0.000,0.334,0.000,0.943,-129.004,1.348,0.953,0.072,0.367,0.308,-0.130,0.868,-44.181,1.633,1.249,0.233,0.846,0.147,-0.300,0.416,81.781,1.829,1.010,0.475,0.858,0.138,-0.304,0.390,-86.427,1.757,1.010,0.533,0.819,0.374,0.397,0.176,-90.730,1.801,0.948,0.588,0.814,0.363,0.408,0.199,-3.229,1.768,0.886,0.546,0.832,-0.319,0.429,-0.148,True,False
19.744,1.454,0.953,-0.014,0.000,0.334,0.000,0.943,-129.032,1.348,0.953,0.072,0.367,0.308,-0.130,0.868,-44.190,1.633,1.249,0.233,0.846,0.147,-0.300,0.416,81.835,1.829,1.010,0.474,0.858,0.138,-0.304,0.390,-86.476,1.757,1.010,0.533,0.819,0.374,0.397,0.175,-90.782,1.802,0.948,0.588,0.814,0.364,0.407,0.197,-3.085,1.768,0.886,0.545,0.833,-0.319,0.428,-0.149,True,False
19.849,1.454,0.953,-0.014,0.000,0.334,0.000,0.943,-128.976,1.348,0.953,0.071,0.364,0.308,-0.129,0.869,-44.511,1.632,1.251,0.232,0.847,0.147,-0.300,0.415,82.294,1.827,1.011,0.473,0.859,0.137,-0.304,0.388,-86.376,1.755,1.011,0.531,0.820,0.373,0.398,0.175,-90.780,1.799,0.948,0.586,0.816,0.363,0.406,0.193,-2.583,1.766,0.886,0.543,0.834,-0.320,0.424,-0.151,True,False
19.953,1.454,0.953,-0.014,0.000,0.333,0.000,0.943,-128.929,1.348,0.953,0.071,0.360,0.308,-0.127,0.871,-45.088,1.630,1.254,0.230,0.847,0.146,-0.299,0.414,83.000,1.824,1.013,0.470,0.860,0.137,-0.304,0.388,-86.450,1.752,1.013,0.529,0.821,0.372,0.397,0.175,-90.555,1.797,0.950,0.584,0.816,0.361,0.407,0.198,-3.155,1.763,0.889,0.541,0.832,-0.322,0.428,-0.148,True,False
20.058,1.454,0.953,-0.014,0.000,0.333,0.000,0.943,-128.887,1.348,0.953,0.071,0.357,0.308,-0.126,0.873,-45.561,1.628,1.257,0.228,0.848,0.146,-0.299,0.413,83.654,1.822,1.015,0.468,0.860,0.136,-0.304,0.386,-86.391,1.750,1.015,0.526,0.822,0.370,0.397,0.175,-90.412,1.794,0.952,0.581,0.818,0.361,0.405,0.193,-2.477,1.760,0.890,0.538,0.834,-0.323,0.422,-0.150,True,False
20.162,1.454,0.953,-0.014,0.000,0.332,0.000,0.943,-128.814,1.348,0.953,0.071,0.352,0.308,-0.124,0.875,-46.143,1.626,1.260,0.226,0.849,0.145,-0.299,0.412,84.382,1.819,1.017,0.466,0.862,0.135,-0.304,0.382,-86.066,1.747,1.017,0.524,0.823,0.366,0.398,0.174,-90.380,1.791,0.953,0.579,0.821,0.361,0.403,0.185,-1.543,1.756,0.892,0.535,0.835,-0.325,0.415,-0.154,True,False
20.269,1.454,0.953,-0.014,0.000,0.332,0.000,0.943,-128.735,1.348,0.953,0.071,0.348,0.308,-0.122,0.877,-46.678,1.624,1.262,0.224,0.849,0.144,-0.299,0.410,85.109,1.816,1.019,0.463,0.863,0.134,-0.303,0.381,-86.061,1.744,1.019,0.521,0.824,0.364,0.398,0.174,-90.267,1.787,0.955,0.576,0.822,0.361,0.401,0.181,-1.035,1.753,0.894,0.532,0.837,-0.326,0.412,-0.155,True,False
20.376,1.454,0.953,-0.014,0.000,0.331,0.000,0.944,-128.654,1.348,0.953,0.071,0.344,0.308,-0.121,0.879,-47.188,1.622,1.265,0.222,0.850,0.143,-0.298,0.409,85.837,1.813,1.020,0.461,0.864,0.133,-0.303,0.379,-85.960,1.741,1.020,0.519,0.825,0.362,0.398,0.173,-90.225,1.784,0.956,0.573,0.824,0.359,0.401,0.179,-0.782,1.749,0.895,0.530,0.836,-0.328,0.410,-0.157,True,False
20.478,1.454,0.953,-0.014,0.000,0.331,0.000,0.944,-128.605,1.348,0.953,0.071,0.342,0.308,-0.120,0.880,-47.491,1.621,1.266,0.220,0.851,0.143,-0.298,0.408,86.276,1.811,1.021,0.459,0.865,0.132,-0.303,0.377,-85.837,1.739,1.021,0.517,0.826,0.360,0.399,0.173,-90.130,1.782,0.956,0.572,0.824,0.356,0.402,0.180,-1.049,1.747,0.896,0.528,0.835,-0.331,0.412,-0.157,True,False
20.583,1.454,0.953,-0.014,0.000,0.331,0.000,0.944,-128.623,1.348,0.953,0.071,0.338,0.309,-0.118,0.881,-48.073,1.619,1.269,0.218,0.852,0.142,-0.299,0.405,87.186,1.809,1.022,0.456,0.866,0.132,-0.303,0.376,-86.058,1.736,1.022,0.514,0.826,0.359,0.398,0.172,-90.071,1.779,0.957,0.568,0.823,0.351,0.405,0.189,-2.306,1.744,0.897,0.524,0.830,-0.334,0.420,-0.153,True,False
20.692,1.454,0.953,-0.014,0.000,0.332,0.000,0.943,-128.722,1.348,0.953,0.071,0.331,0.310,-0.116,0.884,-48.941,1.616,1.274,0.214,0.854,0.141,-0.300,0.401,88.665,1.805,1.023,0.449,0.867,0.131,-0.305,0.372,-86.117,1.732,1.023,0.507,0.829,0.355,0.397,0.171,-89.932,1.775,0.958,0.561,0.828,0.353,0.399,0.176,-0.683,1.739,0.898,0.517,0.835,-0.336,0.407,-0.158,True,False
20.792,1.454,0.953,-0.014,0.000,0.332,0.000,0.943,-128.831,1.348,0.953,0.071,0.326,0.312,-0.115,0.885,-49.534,1.614,1.276,0.211,0.856,0.140,-0.302,0.397,89.747,1.802,1.023,0.444,0.868,0.130,-0.306,0.370,-86.347,1.730,1.023,0.503,0.831,0.353,0.394,0.171,-89.564,1.773,0.958,0.556,0.831,0.351,0.396,0.174,-0.464,1.736,0.898,0.512,0.836,-0.339,0.403,-0.157,True,False
20.893,1.454,0.953,-0.014,0.000,0.333,0.000,0.943,-128.940,1.348,0.953,0.071,0.321,0.313,-0.114,0.886,-50.177,1.613,1.280,0.208,0.857,0.139,-0.303,0.393,90.918,1.799,1.024,0.439,0.869,0.129,-0.307,0.366,-86.451,1.727,1.024,0.497,0.833,0.350,0.394,0.169,-89.522,1.770,0.957,0.550,0.832,0.348,0.395,0.172,-0.452,1.733,0.899,0.506,0.835,-0.342,0.401,-0.158,True,False
20.995,1.454,0.953,-0.014,0.000,0.334,0.000,0.942,-129.068,1.349,0.953,0.072,0.316,0.315,-0.112,0.888,-50.835,1.611,1.283,0.205,0.859,0.138,-0.305,0.389,92.126,1.796,1.024,0.433,0.871,0.128,-0.309,0.361,-86.311,1.724,1.024,0.492,0.836,0.345,0.394,0.166,-89.537,1.766,0.957,0.544,0.835,0.344,0.395,0.169,-0.373,1.729,0.899,0.499,0.834,-0.347,0.399,-0.160,True,False
21.098,1.454,0.953,-0.014,0.000,0.335,0.000,0.942,-129.153,1.349,0.953,0.072,0.311,0.316,-0.111,0.889,-51.451,1.609,1.286,0.202,0.860,0.137,-0.306,0.385,93.216,1.793,1.024,0.428,0.871,0.128,-0.310,0.359,-86.584,1.721,1.024,0.487,0.837,0.344,0.393,0.165,-89.513,1.763,0.957,0.539,0.836,0.342,0.394,0.167,-0.322,1.726,0.899,0.494,0.833,-0.349,0.397,-0.160,True,False
21.200,1.454,0.953,-0.014,0.000,0.336,0.000,0.942,-129.293,1.349,0.953,0.072,0.304,0.318,-0.108,0.891,-52.354,1.606,1.290,0.197,0.862,0.135,-0.308,0.379,94.865,1.789,1.025,0.421,0.874,0.126,-0.312,0.352,-86.415,1.717,1.025,0.480,0.840,0.337,0.394,0.161,-89.553,1.759,0.956,0.531,0.839,0.336,0.395,0.164,-0.326,1.721,0.899,0.485,0.831,-0.356,0.395,-0.163,True,False
21.303,1.454,0.953,-0.014,0.000,0.337,0.000,0.941,-129.425,1.349,0.953,0.072,0.299,0.320,-0.107,0.893,-53.012,1.604,1.293,0.194,0.864,0.134,-0.310,0.374,96.169,1.786,1.024,0.415,0.875,0.124,-0.314,0.347,-86.377,1.714,1.024,0.474,0.842,0.333,0.395,0.158,-89.663,1.755,0.955,0.524,0.842,0.332,0.395,0.159,-0.140,1.716,0.899,0.478,0.830,-0.360,0.392,-0.167,True,False
21.405,1.454,0.953,-0.014,0.000,0.338,0.000,0.941,-129.459,1.349,0.953,0.072,0.294,0.321,-0.105,0.894,-53.651,1.602,1.295,0.191,0.865,0.133,-0.310,0.370,97.294,1.782,1.025,0.410,0.876,0.123,-0.314,0.344,-86.528,1.710,1.025,0.469,0.843,0.330,0.395,0.157,-89.644,1.751,0.955,0.519,0.843,0.330,0.395,0.158,-0.094,1.712,0.899,0.473,0.829,-0.363,0.391,-0.168,True,False
21.510,1.454,0.953,-0.014,0.000,0.338,0.000,0.941,-129.514,1.349,0.953,0.072,0.290,0.322,-0.104,0.895,-54.149,1.600,1.298,0.188,0.866,0.132,-0.311,0.368,98.130,1.780,1.025,0.406,0.878,0.122,-0.315,0.340,-86.332,1.708,1.025,0.465,0.845,0.326,0.395,0.155,-89.684,1.748,0.955,0.514,0.844,0.326,0.396,0.156,-0.147,1.709,0.900,0.468,0.827,-0.367,0.390,-0.170,True,False
21.611,1.454,0.953,-0.014,0.000,0.338,0.000,0.941,-129.541,1.349,0.953,0.072,0.288,0.322,-0.104,0.896,-54.298,1.599,1.298,0.188,0.867,0.132,-0.311,0.367,98.389,1.779,1.025,0.405,0.878,0.122,-0.315,0.339,-86.374,1.707,1.025,0.464,0.845,0.326,0.395,0.155,-89.655,1.748,0.955,0.513,0.845,0.325,0.396,0.156,-0.182,1.708,0.900,0.466,0.827,-0.367,0.390,-0.169,True,False
21.716,1.454,0.953,-0.014,0.000,0.338,0.000,0.941,-129.541,1.349,0.953,0.072,0.288,0.322,-0.104,0.896,-54.297,1.599,1.298,0.188,0.867,0.132,-0.311,0.367,98.389,1.779,1.025,0.405,0.878,0.122,-0.315,0.339,-86.375,1.707,1.025,0.464,0.845,0.326,0.395,0.155,-89.653,1.748,0.955,0.513,0.845,0.325,0.396,0.156,-0.185,1.708,0.900,0.466,0.827,-0.367,0.390,-0.169,True,False
21.820,1.454,0.953,-0.014,0.000,0.338,0.000,0.941,-129.541,1.349,0.953,0.072,0.288,0.322,-0.104,0.896,-54.298,1.599,1.298,0.188,0.867,0.132,-0.311,0.367,98.389,1.779,1.025,0.405,0.878,0.122,-0.315,0.339,-86.373,1.707,1.025,0.464,0.845,0.326,0.395,0.155,-89.654,1.748,0.955,0.513,0.845,0.325,0.396,0.156,-0.184,1.708,0.900,0.466,0.827,-0.367,0.390,-0.169,True,False
21.921,1.454,0.953,-0.014,0.000,0.338,0.000,0.941,-129.541,1.349,0.953,0.072,0.288,0.322,-0.104,0.896,-54.298,1.599,1.298,0.188,0.867,0.132,-0.311,0.367,98.389,1.779,1.025,0.405,0.878,0.122,-0.315,0.339,-86.374,1.707,1.025,0.464,0.845,0.326,0.395,0.155,-89.654,1.748,0.955,0.513,0.845,0.325,0.396,0.156,-0.183,1.708,0.900,0.466,0.827,-0.367,0.390,-0.169,True,False
22.024,1.454,0.953,-0.014,0.000,0.338,0.000,0.941,-129.541,1.349,0.953,0.072,0.288,0.322,-0.104,0.896,-54.298,1.599,1.298,0.188,0.867,0.132,-0.311,0.367,98.389,1.779,1.025,0.405,0.878,0.122,-0.315,0.339,-86.376,1.707,1.025,0.464,0.845,0.326,0.395,0.155,-89.654,1.748,0.955,0.513,0.845,0.325,0.396,0.156,-0.184,1.708,0.900,0.466,0.827,-0.367,0.390,-0.169,True,False
22.130,1.454,0.953,-0.014,0.000,0.338,0.000,0.941,-129.549,1.349,0.953,0.073,0.289,0.322,-0.104,0.896,-54.264,1.600,1.298,0.188,0.867,0.132,-0.312,0.367,98.376,1.779,1.025,0.405,0.879,0.121,-0.316,0.336,-85.922,1.707,1.025,0.464,0.846,0.323,0.397,0.153,-89.842,1.747,0.955,0.513,0.846,0.322,0.397,0.153,-0.095,1.708,0.900,0.466,0.826,-0.370,0.389,-0.173,True,False
22.234,1.454,0.953,-0.014,0.000,0.338,0.000,0.941,-129.527,1.349,0.953,0.072,0.290,0.322,-0.104,0.895,-54.115,1.600,1.297,0.188,0.866,0.132,-0.311,0.368,98.141,1.780,1.025,0.406,0.880,0.120,-0.316,0.333,-85.472,1.708,1.025,0.465,0.846,0.320,0.399,0.151,-89.973,1.748,0.954,0.513,0.846,0.320,0.399,0.152,-0.122,1.708,0.899,0.466,0.824,-0.372,0.389,-0.175,True,False
22.334,1.454,0.953,-0.014,0.000,0.338,0.000,0.941,-129.503,1.349,0.953,0.072,0.291,0.321,-0.105,0.895,-53.973,1.601,1.297,0.189,0.866,0.132,-0.311,0.368,97.919,1.780,1.025,0.407,0.881,0.119,-0.316,0.330,-85.054,1.708,1.025,0.466,0.847,0.318,0.400,0.149,-90.108,1.748,0.953,0.514,0.846,0.317,0.401,0.150,-0.134,1.709,0.899,0.466,0.823,-0.374,0.390,-0.177,True,False
22.437,1.454,0.953,-0.014,0.000,0.338,0.000,0.941,-129.480,1.349,0.953,0.072,0.292,0.321,-0.105,0.895,-53.832,1.601,1.296,0.190,0.866,0.132,-0.311,0.369,97.701,1.781,1.024,0.408,0.882,0.118,-0.317,0.328,-84.646,1.709,1.024,0.467,0.847,0.315,0.402,0.148,-90.240,1.748,0.953,0.515,0.847,0.315,0.402,0.149,-0.146,1.709,0.899,0.467,0.821,-0.376,0.390,-0.179,True,False
22.538,1.454,0.953,-0.014,0.000,0.338,0.000,0.941,-129.458,1.349,0.953,0.072,0.293,0.321,-0.105,0.894,-53.688,1.601,1.296,0.191,0.866,0.132,-0.310,0.369,97.475,1.781,1.024,0.409,0.883,0.117,-0.317,0.325,-84.217,1.710,1.024,0.468,0.847,0.313,0.403,0.147,-90.371,1.749,0.952,0.516,0.847,0.312,0.404,0.148,-0.156,1.709,0.899,0.467,0.820,-0.378,0.390,-0.181,True,False
22.639,1.454,0.953,-0.014,0.000,0.337,0.000,0.941,-129.435,1.349,0.953,0.072,0.294,0.320,-0.106,0.894,-53.542,1.602,1.295,0.191,0.866,0.133,-0.310,0.370,97.245,1.782,1.024,0.410,0.884,0.116,-0.317,0.323,-83.781,1.710,1.024,0.469,0.848,0.310,0.405,0.145,-90.500,1.749,0.952,0.516,0.848,0.310,0.405,0.146,-0.165,1.710,0.899,0.467,0.818,-0.380,0.390,-0.183,True,False
22.743,1.454,0.953,-0.014,0.000,0.337,0.000,0.941,-129.409,1.349,0.953,0.072,0.296,0.320,-0.106,0.894,-53.363,1.603,1.294,0.192,0.865,0.133,-0.310,0.371,96.967,1.783,1.024,0.412,0.886,0.114,-0.317,0.319,-83.243,1.711,1.024,0.471,0.848,0.307,0.407,0.143,-90.655,1.749,0.951,0.517,0.848,0.307,0.407,0.144,-0.177,1.710,0.898,0.468,0.817,-0.383,0.390,-0.186,True,False
22.846,1.454,0.953,-0.014,0.000,0.337,0.000,0.942,-129.374,1.349,0.953,0.072,0.297,0.320,-0.106,0.893,-53.175,1.603,1.293,0.193,0.865,0.133,-0.310,0.372,96.657,1.784,1.023,0.413,0.886,0.114,-0.317,0.317,-82.868,1.712,1.023,0.472,0.848,0.306,0.408,0.142,-90.762,1.750,0.950,0.519,0.848,0.305,0.409,0.144,-0.209,1.710,0.898,0.469,0.815,-0.384,0.391,-0.187,True,False
22.955,1.454,0.953,-0.014,0.000,0.337,0.000,0.941,-129.441,1.349,0.953,0.072,0.303,0.319,-0.109,0.891,-52.410,1.606,1.290,0.196,0.863,0.135,-0.309,0.377,95.207,1.789,1.023,0.419,0.884,0.116,-0.317,0.325,-83.153,1.717,1.023,0.478,0.846,0.313,0.407,0.145,-90.847,1.756,0.951,0.525,0.846,0.313,0.407,0.144,0.139,1.717,0.898,0.476,0.820,-0.377,0.389,-0.186,True,False
23.062,1.454,0.953,-0.014,0.000,0.337,0.000,0.941,-129.413,1.349,0.953,0.072,0.308,0.319,-0.110,0.889,-51.754,1.609,1.287,0.200,0.861,0.136,-0.308,0.381,94.058,1.793,1.023,0.424,0.883,0.117,-0.316,0.327,-82.940,1.721,1.023,0.483,0.845,0.315,0.407,0.146,-90.801,1.760,0.951,0.530,0.845,0.314,0.407,0.148,-0.212,1.721,0.898,0.481,0.820,-0.375,0.392,-0.183,True,False
23.164,1.454,0.953,-0.014,0.000,0.338,0.000,0.941,-129.571,1.349,0.953,0.073,0.319,0.318,-0.115,0.885,-50.325,1.614,1.280,0.205,0.856,0.140,-0.308,0.390,91.336,1.803,1.023,0.434,0.877,0.123,-0.316,0.341,-83.488,1.731,1.023,0.493,0.841,0.329,0.403,0.152,-90.764,1.772,0.953,0.542,0.841,0.330,0.402,0.151,0.212,1.734,0.897,0.495,0.828,-0.362,0.391,-0.178,True,False
23.269,1.454,0.953,-0.014,0.000,0.338,0.000,0.941,-129.571,1.349,0.953,0.073,0.328,0.317,-0.118,0.882,-49.206,1.618,1.275,0.210,0.853,0.143,-0.307,0.397,89.241,1.810,1.023,0.442,0.873,0.126,-0.314,0.351,-83.797,1.738,1.023,0.501,0.837,0.338,0.400,0.157,-90.628,1.780,0.954,0.552,0.838,0.338,0.400,0.156,0.128,1.743,0.897,0.505,0.832,-0.353,0.393,-0.172,True,False
23.370,1.454,0.953,-0.014,0.000,0.337,0.000,0.941,-129.436,1.349,0.953,0.072,0.333,0.316,-0.119,0.881,-48.618,1.620,1.272,0.213,0.852,0.144,-0.305,0.401,88.244,1.812,1.022,0.447,0.873,0.126,-0.313,0.352,-83.554,1.740,1.022,0.506,0.837,0.339,0.400,0.158,-90.599,1.782,0.954,0.556,0.836,0.339,0.401,0.159,-0.143,1.745,0.897,0.510,0.831,-0.352,0.396,-0.171,True,False
23.471,1.454,0.953,-0.014,0.000,0.338,0.000,0.941,-129.526,1.349,0.953,0.072,0.339,0.315,-0.122,0.878,-47.785,1.623,1.268,0.217,0.849,0.146,-0.305,0.406,86.656,1.818,1.022,0.452,0.870,0.129,-0.313,0.359,-83.742,1.746,1.022,0.511,0.834,0.346,0.399,0.161,-90.675,1.788,0.955,0.563,0.834,0.347,0.398,0.159,0.197,1.752,0.897,0.517,0.835,-0.344,0.394,-0.169,True,False
23.575,1.454,0.953,-0.014,0.000,0.335,0.000,0.942,-129.155,1.349,0.953,0.072,0.348,0.311,-0.124,0.875,-46.624,1.626,1.262,0.223,0.847,0.147,-0.301,0.412,84.772,1.821,1.020,0.462,0.868,0.130,-0.309,0.366,-83.897,1.748,1.020,0.520,0.831,0.351,0.397,0.166,-90.223,1.791,0.954,0.573,0.835,0.361,0.389,0.146,2.765,1.755,0.895,0.528,0.846,-0.335,0.378,-0.171,True,False
23.680,1.454,0.953,-0.014,0.000,0.329,0.000,0.944,-128.385,1.348,0.953,0.070,0.374,0.302,-0.130,0.867,-43.369,1.633,1.245,0.238,0.847,0.145,-0.295,0.417,80.899,1.826,1.006,0.482,0.867,0.131,-0.302,0.376,-84.399,1.753,1.006,0.540,0.826,0.358,0.400,0.173,-90.077,1.796,0.941,0.594,0.829,0.366,0.393,0.156,2.333,1.761,0.881,0.550,0.845,-0.327,0.388,-0.167,True,False
23.784,1.454,0.953,-0.014,0.000,0.329,0.000,0.944,-128.412,1.348,0.953,0.070,0.375,0.302,-0.131,0.867,-43.217,1.634,1.244,0.239,0.847,0.146,-0.295,0.418,80.680,1.827,1.006,0.483,0.866,0.131,-0.302,0.376,-84.381,1.754,1.006,0.540,0.826,0.359,0.400,0.173,-90.117,1.797,0.941,0.595,0.827,0.363,0.396,0.163,1.304,1.763,0.881,0.550,0.842,-0.328,0.396,-0.164,True,False
23.889,1.454,0.953,-0.014,0.000,0.329,0.000,0.944,-128.426,1.348,0.953,0.070,0.376,0.302,-0.131,0.866,-43.091,1.634,1.244,0.239,0.847,0.146,-0.295,0.418,80.513,1.828,1.005,0.483,0.866,0.131,-0.302,0.376,-84.318,1.755,1.005,0.541,0.826,0.358,0.400,0.173,-90.106,1.798,0.940,0.595,0.827,0.361,0.397,0.167,0.825,1.763,0.880,0.551,0.840,-0.329,0.399,-0.163,True,False
23.993,1.454,0.953,-0.014,0.000,0.329,0.000,0.944,-128.469,1.348,0.953,0.071,0.378,0.302,-0.132,0.865,-42.802,1.635,1.242,0.240,0.846,0.146,-0.295,0.419,80.150,1.829,1.004,0.484,0.867,0.131,-0.302,0.375,-84.101,1.757,1.004,0.542,0.826,0.357,0.400,0.172,-90.105,1.799,0.939,0.596,0.825,0.356,0.401,0.176,-0.550,1.764,0.879,0.552,0.835,-0.332,0.408,-0.159,True,False
24.094,1.454,0.953,-0.014,0.000,0.330,0.000,0.944,-128.523,1.348,0.953,0.071,0.380,0.302,-0.133,0.864,-42.587,1.636,1.241,0.241,0.846,0.147,-0.295,0.420,79.773,1.831,1.004,0.485,0.867,0.131,-0.303,0.374,-83.866,1.758,1.004,0.543,0.826,0.357,0.400,0.172,-90.166,1.801,0.939,0.597,0.825,0.353,0.403,0.179,-1.039,1.766,0.879,0.553,0.833,-0.333,0.412,-0.158,True,False
24.195,1.454,0.953,-0.014,0.000,0.331,0.000,0.944,-128.673,1.348,0.953,0.071,0.384,0.302,-0.135,0.862,-42.006,1.639,1.238,0.243,0.843,0.149,-0.296,0.423,78.690,1.835,1.003,0.488,0.865,0.133,-0.303,0.378,-83.864,1.763,1.003,0.546,0.825,0.361,0.399,0.172,-90.262,1.806,0.939,0.601,0.824,0.358,0.402,0.179,-0.925,1.771,0.879,0.557,0.836,-0.329,0.411,-0.157,True,False
24.297,1.454,0.953,-0.014,0.000,0.332,0.000,0.943,-128.774,1.348,0.953,0.071,0.393,0.302,-0.138,0.857,-40.711,1.643,1.230,0.247,0.839,0.152,-0.295,0.432,76.200,1.843,1.003,0.496,0.859,0.137,-0.302,0.389,-84.196,1.771,1.003,0.555,0.821,0.372,0.395,0.178,-90.165,1.815,0.940,0.610,0.820,0.370,0.397,0.183,-0.751,1.781,0.878,0.567,0.841,-0.318,0.411,-0.152,True,False
24.401,1.454,0.953,-0.014,0.000,0.332,0.000,0.943,-128.773,1.348,0.953,0.071,0.395,0.302,-0.139,0.857,-40.556,1.644,1.229,0.248,0.838,0.152,-0.295,0.433,75.925,1.844,1.002,0.497,0.860,0.137,-0.302,0.389,-84.026,1.771,1.002,0.555,0.821,0.372,0.395,0.177,-90.210,1.816,0.940,0.611,0.820,0.369,0.398,0.184,-0.878,1.782,0.878,0.568,0.840,-0.319,0.412,-0.152,True,False
24.503,1.454,0.953,-0.014,0.000,0.333,0.000,0.943,-128.926,1.348,0.953,0.071,0.401,0.301,-0.142,0.853,-39.597,1.647,1.224,0.251,0.834,0.155,-0.295,0.439,74.064,1.850,1.002,0.503,0.855,0.140,-0.302,0.397,-84.279,1.778,1.002,0.561,0.817,0.380,0.393,0.181,-90.272,1.823,0.941,0.617,0.817,0.379,0.394,0.184,-0.418,1.790,0.878,0.576,0.846,-0.310,0.409,-0.149,True,False
24.604,1.454,0.953,-0.014,0.000,0.333,0.000,0.943,-128.900,1.348,0.953,0.071,0.407,0.300,-0.144,0.851,-38.884,1.649,1.220,0.254,0.832,0.157,-0.294,0.444,72.764,1.854,1.001,0.507,0.854,0.141,-0.301,0.400,-84.132,1.781,1.001,0.565,0.816,0.383,0.392,0.182,-90.227,1.827,0.941,0.622,0.815,0.381,0.395,0.187,-0.718,1.794,0.877,0.581,0.846,-0.307,0.412,-0.146,True,False
24.704,1.454,0.953,-0.014,0.000,0.334,0.000,0.943,-128.979,1.348,0.953,0.071,0.410,0.300,-0.145,0.849,-38.415,1.651,1.217,0.255,0.830,0.158,-0.294,0.446,71.900,1.857,1.001,0.509,0.852,0.143,-0.302,0.403,-84.082,1.784,1.001,0.568,0.815,0.386,0.392,0.183,-90.323,1.830,0.941,0.625,0.814,0.384,0.394,0.188,-0.646,1.798,0.877,0.584,0.847,-0.304,0.411,-0.146,True,False
24.810,1.454,0.953,-0.014,0.000,0.332,0.000,0.943,-128.753,1.348,0.953,0.071,0.421,0.297,-0.148,0.844,-37.054,1.654,1.209,0.261,0.826,0.160,-0.290,0.456,69.276,1.861,1.000,0.519,0.847,0.146,-0.298,0.415,-84.404,1.789,1.000,0.578,0.810,0.397,0.389,0.190,-90.072,1.836,0.942,0.636,0.808,0.394,0.392,0.196,-0.855,1.804,0.877,0.597,0.850,-0.293,0.416,-0.139,True,False
24.911,1.454,0.953,-0.014,0.000,0.332,0.000,0.943,-128.786,1.348,0.953,0.071,0.427,0.296,-0.150,0.841,-36.198,1.656,1.204,0.263,0.823,0.162,-0.290,0.461,67.662,1.866,0.999,0.524,0.844,0.148,-0.297,0.421,-84.413,1.793,0.999,0.583,0.807,0.402,0.388,0.192,-90.116,1.841,0.942,0.641,0.806,0.400,0.390,0.198,-0.750,1.810,0.877,0.603,0.852,-0.287,0.416,-0.136,True,False
25.014,1.454,0.953,-0.014,0.000,0.332,0.000,0.943,-128.768,1.348,0.953,0.071,0.431,0.295,-0.152,0.839,-35.660,1.658,1.201,0.265,0.821,0.163,-0.289,0.465,66.646,1.868,0.999,0.528,0.843,0.149,-0.297,0.423,-84.256,1.796,0.999,0.586,0.805,0.405,0.388,0.193,-90.168,1.843,0.942,0.645,0.804,0.402,0.390,0.199,-0.765,1.813,0.876,0.606,0.853,-0.284,0.416,-0.136,True,False
25.114,1.454,0.953,-0.014,0.000,0.332,0.000,0.943,-128.779,1.348,0.953,0.071,0.432,0.295,-0.152,0.839,-35.508,1.658,1.200,0.266,0.820,0.164,-0.289,0.465,66.375,1.869,0.999,0.528,0.843,0.149,-0.297,0.423,-84.137,1.796,0.999,0.587,0.806,0.405,0.387,0.193,-90.149,1.844,0.942,0.646,0.804,0.401,0.391,0.200,-0.955,1.813,0.876,0.607,0.852,-0.285,0.418,-0.135,True,False
25.215,1.454,0.953,-0.014,0.000,0.332,0.000,0.943,-128.779,1.348,0.953,0.071,0.432,0.295,-0.152,0.839,-35.507,1.658,1.200,0.266,0.820,0.164,-0.289,0.465,66.373,1.869,0.999,0.528,0.843,0.149,-0.297,0.423,-84.130,1.796,0.999,0.587,0.806,0.404,0.387,0.193,-90.149,1.844,0.942,0.646,0.804,0.401,0.391,0.200,-0.955,1.813,0.876,0.607,0.852,-0.285,0.418,-0.135,True,False
25.317,1.454,0.953,-0.014,0.000,0.332,0.000,0.943,-128.779,1.348,0.953,0.071,0.432,0.295,-0.152,0.839,-35.507,1.658,1.200,0.266,0.820,0.164,-0.289,0.465,66.372,1.869,0.999,0.528,0.843,0.149,-0.297,0.423,-84.130,1.796,0.999,0.587,0.806,0.404,0.387,0.193,-90.149,1.844,0.942,0.646,0.804,0.401,0.391,0.200,-0.955,1.813,0.876,0.607,0.852,-0.285,0.418,-0.135,True,False
25.422,1.454,0.953,-0.014,0.000,0.332,0.000,0.943,-128.779,1.348,0.953,0.071,0.432,0.295,-0.152,0.839,-35.507,1.658,1.200,0.266,0.820,0.164,-0.289,0.465,66.372,1.869,0.999,0.528,0.843,0.149,-0.297,0.423,-84.130,1.796,0.999,0.587,0.806,0.404,0.387,0.193,-90.149,1.844,0.942,0.646,0.804,0.401,0.391,0.200,-0.955,1.813,0.876,0.607,0.852,-0.285,0.418,-0.135,True,False
25.527,1.454,0.953,-0.014,0.000,0.332,0.000,0.943,-128.779,1.348,0.953,0.071,0.432,0.295,-0.152,0.839,-35.507,1.658,1.200,0.266,0.820,0.164,-0.289,0.465,66.372,1.869,0.999,0.528,0.843,0.149,-0.297,0.423,-84.130,1.796,0.999,0.587,0.806,0.404,0.387,0.193,-90.149,1.844,0.942,0.646,0.804,0.401,0.391,0.200,-0.955,1.813,0.876,0.607,0.852,-0.285,0.418,-0.135,True,False
25.631,1.454,0.953,-0.014,0.000,0.332,0.000,0.943,-128.779,1.348,0.953,0.071,0.432,0.295,-0.152,0.839,-35.507,1.658,1.200,0.266,0.820,0.164,-0.289,0.465,66.372,1.869,0.999,0.528,0.843,0.149,-0.297,0.423,-84.130,1.796,0.999,0.587,0.806,0.404,0.387,0.193,-90.149,1.844,0.942,0.646,0.804,0.401,0.391,0.200,-0.955,1.813,0.876,0.607,0.852,-0.285,0.418,-0.135,True,False
25.734,1.454,0.953,-0.014,0.000,0.332,0.000,0.943,-128.779,1.348,0.953,0.071,0.432,0.295,-0.152,0.839,-35.507,1.658,1.200,0.266,0.820,0.164,-0.289,0.465,66.372,1.869,0.999,0.528,0.843,0.149,-0.297,0.423,-84.130,1.796,0.999,0.587,0.806,0.404,0.387,0.193,-90.149,1.844,0.942,0.646,0.804,0.401,0.391,0.200,-0.955,1.813,0.876,0.607,0.852,-0.285,0.418,-0.135,True,False
25.836,1.454,0.953,-0.014,0.000,0.332,0.000,0.943,-128.779,1.348,0.953,0.071,0.432,0.295,-0.152,0.839,-35.507,1.658,1.200,0.266,0.820,0.164,-0.289,0.465,66.373,1.869,0.999,0.528,0.843,0.149,-0.297,0.423,-84.130,1.796,0.999,0.587,0.806,0.404,0.387,0.193,-90.149,1.844,0.942,0.646,0.804,0.401,0.391,0.200,-0.955,1.813,0.876,0.607,0.852,-0.285,0.418,-0.135,True,False
25.939,1.454,0.953,-0.014,0.000,0.332,0.000,0.943,-128.780,1.348,0.953,0.071,0.432,0.295,-0.152,0.839,-35.498,1.658,1.200,0.266,0.820,0.164,-0.289,0.465,66.358,1.869,0.999,0.528,0.843,0.149,-0.297,0.423,-84.111,1.797,0.999,0.587,0.806,0.404,0.387,0.193,-90.147,1.844,0.942,0.646,0.804,0.401,0.391,0.200,-0.977,1.813,0.876,0.607,0.852,-0.285,0.418,-0.135,True,False
26.043,1.454,0.953,-0.014,0.000,0.332,0.000,0.943,-128.782,1.348,0.953,0.071,0.433,0.295,-0.152,0.838,-35.384,1.658,1.199,0.266,0.820,0.164,-0.289,0.466,66.163,1.870,0.999,0.529,0.843,0.149,-0.297,0.423,-84.029,1.797,0.999,0.587,0.806,0.404,0.387,0.193,-90.145,1.845,0.942,0.646,0.804,0.401,0.391,0.201,-1.090,1.814,0.876,0.608,0.852,-0.285,0.419,-0.135,True,False
26.148,1.454,0.953,-0.014,0.000,0.332,0.000,0.943,-128.760,1.348,0.953,0.071,0.434,0.295,-0.153,0.838,-35.240,1.659,1.198,0.267,0.820,0.164,-0.288,0.467,65.931,1.870,0.998,0.530,0.842,0.149,-0.296,0.425,-84.188,1.797,0.998,0.588,0.805,0.406,0.387,0.194,-90.123,1.845,0.942,0.647,0.803,0.403,0.390,0.201,-0.991,1.814,0.876,0.609,0.853,-0.283,0.418,-0.134,True,False
26.251,1.454,0.953,-0.014,0.000,0.332,0.000,0.943,-128.723,1.348,0.953,0.071,0.434,0.294,-0.152,0.838,-35.260,1.658,1.199,0.267,0.820,0.164,-0.288,0.467,65.984,1.869,0.998,0.530,0.841,0.150,-0.296,0.427,-84.575,1.797,0.998,0.588,0.804,0.408,0.386,0.196,-90.062,1.845,0.942,0.648,0.802,0.406,0.389,0.201,-0.733,1.814,0.876,0.610,0.854,-0.280,0.417,-0.133,True,False
26.355,1.454,0.953,-0.014,0.000,0.332,0.000,0.943,-128.724,1.348,0.953,0.071,0.433,0.295,-0.152,0.838,-35.356,1.658,1.199,0.267,0.820,0.164,-0.288,0.466,66.187,1.869,0.998,0.529,0.840,0.151,-0.295,0.429,-84.961,1.796,0.998,0.587,0.803,0.410,0.386,0.197,-90.037,1.844,0.943,0.647,0.802,0.409,0.387,0.200,-0.508,1.814,0.876,0.610,0.856,-0.278,0.416,-0.132,True,False
26.459,1.454,0.953,-0.014,0.000,0.332,0.000,0.943,-128.726,1.348,0.953,0.071,0.432,0.295,-0.152,0.839,-35.448,1.658,1.200,0.266,0.821,0.163,-0.288,0.465,66.386,1.868,0.998,0.529,0.839,0.152,-0.295,0.431,-85.319,1.796,0.998,0.587,0.802,0.412,0.385,0.198,-90.015,1.844,0.943,0.647,0.801,0.411,0.386,0.200,-0.282,1.814,0.876,0.609,0.857,-0.276,0.414,-0.132,True,False
26.563,1.454,0.953,-0.014,0.000,0.331,0.000,0.943,-128.706,1.348,0.953,0.071,0.432,0.295,-0.152,0.839,-35.488,1.658,1.200,0.266,0.821,0.163,-0.288,0.465,66.486,1.868,0.998,0.529,0.838,0.152,-0.294,0.434,-85.752,1.795,0.998,0.587,0.801,0.414,0.384,0.199,-89.972,1.844,0.943,0.647,0.800,0.414,0.384,0.200,-0.072,1.814,0.876,0.610,0.859,-0.273,0.413,-0.131,True,False
26.666,1.454,0.953,-0.014,0.000,0.331,0.000,0.944,-128.704,1.348,0.953,0.071,0.429,0.295,-0.151,0.840,-35.870,1.657,1.202,0.265,0.819,0.165,-0.288,0.469,66.316,1.868,1.003,0.529,0.835,0.154,-0.293,0.439,-85.943,1.796,1.003,0.587,0.798,0.420,0.383,0.202,-89.954,1.844,0.950,0.648,0.798,0.420,0.383,0.202,-0.001,1.815,0.882,0.611,0.861,-0.268,0.413,-0.128,True,False
26.766,1.454,0.953,-0.014,0.000,0.331,0.000,0.943,-128.717,1.348,0.953,0.071,0.420,0.297,-0.148,0.845,-37.153,1.653,1.210,0.260,0.814,0.168,-0.286,0.478,66.305,1.868,1.019,0.528,0.830,0.158,-0.292,0.449,-85.944,1.795,1.019,0.586,0.793,0.429,0.380,0.206,-89.954,1.845,0.967,0.648,0.793,0.429,0.380,0.206,0.000,1.816,0.898,0.613,0.864,-0.258,0.415,-0.123,True,False
26.867,1.454,0.953,-0.014,0.000,0.332,0.000,0.943,-128.722,1.348,0.953,0.071,0.409,0.299,-0.144,0.850,-38.612,1.649,1.218,0.255,0.807,0.172,-0.284,0.488,66.304,1.866,1.036,0.526,0.824,0.161,-0.290,0.459,-85.944,1.794,1.036,0.584,0.788,0.439,0.378,0.211,-89.954,1.844,0.986,0.647,0.788,0.439,0.378,0.211,0.000,1.817,0.916,0.613,0.867,-0.247,0.416,-0.118,True,False
26.968,1.454,0.953,-0.014,0.000,0.332,0.000,0.943,-128.724,1.348,0.953,0.071,0.398,0.301,-0.140,0.855,-40.103,1.645,1.227,0.250,0.801,0.175,-0.281,0.499,66.305,1.865,1.054,0.524,0.818,0.165,-0.287,0.470,-85.944,1.792,1.054,0.582,0.782,0.449,0.375,0.216,-89.954,1.844,1.006,0.646,0.782,0.449,0.375,0.216,0.000,1.818,0.935,0.614,0.870,-0.235,0.418,-0.113,True,False
27.068,1.454,0.953,-0.014,0.000,0.332,0.000,0.943,-128.724,1.348,0.953,0.071,0.387,0.302,-0.136,0.861,-41.601,1.640,1.235,0.244,0.794,0.179,-0.279,0.509,66.305,1.863,1.071,0.522,0.812,0.169,-0.285,0.481,-85.944,1.791,1.071,0.580,0.776,0.459,0.372,0.221,-89.954,1.842,1.026,0.645,0.776,0.459,0.372,0.221,0.000,1.818,0.954,0.614,0.873,-0.224,0.419,-0.107,True,False
27.172,1.454,0.953,-0.014,0.000,0.332,0.000,0.943,-128.725,1.348,0.953,0.071,0.375,0.304,-0.132,0.866,-43.100,1.636,1.244,0.238,0.788,0.182,-0.277,0.519,66.305,1.861,1.089,0.519,0.806,0.173,-0.283,0.491,-85.944,1.789,1.089,0.578,0.770,0.469,0.369,0.225,-89.954,1.841,1.046,0.643,0.770,0.469,0.369,0.225,0.000,1.818,0.972,0.614,0.876,-0.213,0.420,-0.102,True,False
27.272,1.454,0.953,-0.014,0.000,0.332,0.000,0.943,-128.725,1.348,0.953,0.071,0.364,0.306,-0.128,0.870,-44.599,1.631,1.252,0.232,0.781,0.186,-0.274,0.530,66.305,1.859,1.106,0.517,0.799,0.176,-0.281,0.502,-85.944,1.786,1.106,0.575,0.764,0.479,0.366,0.230,-89.954,1.839,1.065,0.641,0.764,0.479,0.366,0.230,0.000,1.817,0.991,0.613,0.879,-0.201,0.422,-0.096,True,False
27.374,1.454,0.953,-0.014,0.000,0.332,0.000,0.943,-128.725,1.348,0.953,0.071,0.353,0.308,-0.124,0.875,-46.098,1.626,1.259,0.226,0.774,0.190,-0.272,0.540,66.305,1.856,1.124,0.513,0.792,0.180,-0.278,0.512,-85.944,1.783,1.124,0.571,0.757,0.489,0.363,0.235,-89.954,1.837,1.085,0.639,0.757,0.489,0.363,0.235,0.000,1.816,1.010,0.612,0.881,-0.190,0.423,-0.091,True,False
27.477,1.454,0.953,-0.014,0.000,0.332,0.000,0.943,-128.725,1.348,0.953,0.071,0.341,0.309,-0.120,0.880,-47.597,1.621,1.267,0.220,0.767,0.193,-0.269,0.550,66.305,1.853,1.141,0.510,0.786,0.184,-0.276,0.522,-85.944,1.781,1.141,0.568,0.751,0.499,0.360,0.240,-89.954,1.835,1.105,0.636,0.751,0.499,0.360,0.240,0.000,1.815,1.029,0.611,0.884,-0.178,0.424,-0.085,True,False
27.577,1.454,0.953,-0.014,0.000,0.332,0.000,0.943,-128.725,1.348,0.953,0.071,0.330,0.311,-0.116,0.884,-49.097,1.615,1.274,0.213,0.759,0.197,-0.267,0.560,66.305,1.850,1.158,0.506,0.779,0.187,-0.274,0.533,-85.944,1.777,1.158,0.564,0.744,0.509,0.357,0.244,-89.954,1.833,1.124,0.633,0.744,0.509,0.357,0.244,0.000,1.814,1.047,0.609,0.886,-0.167,0.425,-0.079,True,False
27.683,1.454,0.953,-0.014,0.000,0.332,0.000,0.943,-128.723,1.348,0.953,0.071,0.317,0.312,-0.112,0.888,-50.684,1.610,1.282,0.206,0.752,0.200,-0.264,0.570,66.300,1.846,1.176,0.501,0.771,0.191,-0.271,0.543,-85.944,1.774,1.176,0.559,0.737,0.519,0.353,0.249,-89.954,1.829,1.145,0.629,0.737,0.519,0.353,0.249,0.000,1.812,1.067,0.607,0.888,-0.154,0.426,-0.074,True,False
27.787,1.454,0.953,-0.014,0.000,0.332,0.000,0.943,-128.722,1.348,0.953,0.071,0.315,0.313,-0.111,0.889,-51.007,1.609,1.283,0.205,0.750,0.201,-0.264,0.572,66.302,1.845,1.180,0.500,0.770,0.192,-0.270,0.546,-85.944,1.773,1.180,0.558,0.736,0.521,0.353,0.250,-89.954,1.829,1.149,0.628,0.736,0.521,0.353,0.250,0.000,1.812,1.071,0.607,0.889,-0.152,0.426,-0.072,True,False
27.890,1.454,0.953,-0.014,0.000,0.332,0.000,0.943,-128.723,1.348,0.953,0.071,0.314,0.313,-0.110,0.890,-51.065,1.608,1.284,0.204,0.750,0.201,-0.263,0.573,66.302,1.845,1.181,0.500,0.769,0.192,-0.270,0.546,-85.944,1.773,1.181,0.558,0.735,0.522,0.353,0.251,-89.954,1.829,1.149,0.628,0.735,0.522,0.353,0.251,0.000,1.811,1.072,0.606,0.889,-0.151,0.427,-0.072,True,False
